; generated by CreatWare 7.0.0 on 2022-07-01 at 05:16:27 UTC

; 

; external perimeters extrusion width = 0.40mm
; perimeters extrusion width = 0.40mm
; infill extrusion width = 0.40mm
; solid infill extrusion width = 0.40mm
; top infill extrusion width = 0.40mm
; support material extrusion width = 0.40mm

; external perimeters extrusion width = 0.40mm
; perimeters extrusion width = 0.40mm
; infill extrusion width = 0.40mm
; solid infill extrusion width = 0.40mm
; top infill extrusion width = 0.40mm
; support material extrusion width = 0.40mm

; external perimeters extrusion width = 0.40mm
; perimeters extrusion width = 0.40mm
; infill extrusion width = 0.40mm
; solid infill extrusion width = 0.40mm
; top infill extrusion width = 0.40mm
; support material extrusion width = 0.40mm

; external perimeters extrusion width = 0.40mm
; perimeters extrusion width = 0.40mm
; infill extrusion width = 0.40mm
; solid infill extrusion width = 0.40mm
; top infill extrusion width = 0.40mm
; support material extrusion width = 0.40mm

; external perimeters extrusion width = 0.40mm
; perimeters extrusion width = 0.40mm
; infill extrusion width = 0.40mm
; solid infill extrusion width = 0.40mm
; top infill extrusion width = 0.40mm
; support material extrusion width = 0.40mm

; external perimeters extrusion width = 0.40mm
; perimeters extrusion width = 0.40mm
; infill extrusion width = 0.40mm
; solid infill extrusion width = 0.40mm
; top infill extrusion width = 0.40mm
; support material extrusion width = 0.40mm

G21 ; set units to millimeters
G90 ; use absolute coordinates
M82 ; use absolute distances for extrusion
G92 E0
M107
M190 S45 ; set bed temperature and wait for it to be reached
M104 S210 ; set temperature
;TYPE:Custom
M109 S210 ; set temperature and wait for it to be reached
M6013 S0 ; set chamber temp

G28 X0 Y0  ;move X/Y to min endstops
G28 Z0     ;move Z to min endstops

;Add Clear Nozzle
G92 E0                   ;zero the extruded length again
G0 F4200 X0 Y0
G0 F400 X10 Z0.4         ;move a bit while down the Z
M221 T0 S300             ;set flow is 300%
G1 F200 X30 E8          ;extrude amont filament to clean the hotend
M221 T0 S100             ;reset flow is 100%
G92 E0                   ;zero the extruded length again
;Add End

G0 Z15.0 F4200 ;move the platform down 15mm

;Put printing message on LCD screen
M117 Printing...
; Filament gcode
M107
;LAYER_CHANGE
;Layer 1
;Z:0.1
;HEIGHT:0.1
;BEFORE_LAYER_CHANGE
;0.1


G1 Z.1 F4200
;AFTER_LAYER_CHANGE
;G92 E0   ;zero the extruded length again
;0.1
G1 E-2 F1800
G92 E0
G1 X180.128 Y135.11 F4200
G1 E2 F1800
;TYPE:Skirt/Brim
;WIDTH:0.4
G1 F720
G1 X182.471 Y132.767 E2.06258
G1 X184.317 Y131.482 E2.10506
G1 X186.981 Y130.899 E2.15656
G1 X253.136 Y130.919 E3.40593
G1 X255.351 Y131.316 E3.44843
G1 X257.644 Y132.787 E3.49988
G1 X259.988 Y135.13 E3.56247
G1 X261.273 Y136.977 E3.60496
G1 X261.856 Y139.64 E3.65644
G1 X261.85 Y160.145 E4.04369
G1 X260.198 Y200.016 E4.79732
G1 X259.71 Y202.212 E4.8398
G1 X258.336 Y204.262 E4.88641
G1 X255.993 Y206.605 E4.94899
G1 X254.146 Y207.891 E4.99149
G1 X251.866 Y208.462 E5.03588
G1 X224.768 Y210.094 E5.54856
G1 X215.94 Y210.104 E5.71528
G1 X187.009 Y209.51 E6.26177
G1 X184.803 Y209.068 E6.30426
G1 X182.629 Y207.643 E6.35335
G1 X180.286 Y205.3 E6.41593
G1 X179.001 Y203.454 E6.45841
G1 X178.418 Y200.813 E6.50949
G1 X178.259 Y139.621 E7.66513
G1 X178.656 Y137.406 E7.70763
G1 X180.095 Y135.161 E7.75799
G1 E5.75799 F1800
G92 E0
G1 X185.308 Y139.37 F4200
G1 E2 F1800
G1 F720
G1 X186.711 Y137.967 E2.03747
G1 X187.054 Y137.746 E2.04518
G1 X187.439 Y137.608 E2.0529
G1 X194.757 Y137.589 E2.1911
G1 X195.041 Y137.667 E2.19666
G1 X195.558 Y137.948 E2.20777
G1 X196.96 Y139.351 E2.24523
G1 X197.186 Y139.707 E2.25319
G1 X197.353 Y140.273 E2.26433
G1 X197.353 Y159.181 E2.62142
G1 X197.314 Y159.437 E2.62631
G1 X196.979 Y160.112 E2.64054
G1 X195.576 Y161.515 E2.67801
G1 X195.234 Y161.736 E2.6857
G1 X194.848 Y161.874 E2.69344
G1 X187.674 Y161.907 E2.82893
G1 X187.417 Y161.868 E2.83384
G1 X186.742 Y161.534 E2.84806
G1 X185.339 Y160.131 E2.88553
G1 X185.113 Y159.775 E2.89349
G1 X184.946 Y159.21 E2.90462
G1 X184.934 Y140.302 E3.26171
G1 X184.974 Y140.045 E3.26662
G1 X185.282 Y139.423 E3.27973
G1 X185.598 Y139.615 F4200
G1 F720
G1 X186.965 Y138.248 E3.31624
G1 X187.202 Y138.095 E3.32157
G1 X187.536 Y137.975 E3.32827
G1 X194.688 Y137.961 E3.46334
G1 X194.886 Y138.013 E3.46721
G1 X195.311 Y138.237 E3.47628
G1 X196.679 Y139.605 E3.51282
G1 X196.833 Y139.845 E3.51821
G1 X196.974 Y140.302 E3.52724
G1 X196.974 Y159.165 E3.88348
G1 X196.945 Y159.348 E3.88698
G1 X196.689 Y159.866 E3.89789
G1 X195.322 Y161.233 E3.9344
G1 X195.085 Y161.387 E3.93974
G1 X194.751 Y161.507 E3.94644
G1 X187.689 Y161.529 E4.07981
G1 X187.506 Y161.499 E4.08331
G1 X186.987 Y161.244 E4.09423
G1 X185.62 Y159.877 E4.13074
G1 X185.466 Y159.637 E4.13613
G1 X185.325 Y159.18 E4.14516
G1 X185.313 Y140.317 E4.5014
G1 X185.343 Y140.134 E4.5049
G1 X185.572 Y139.669 E4.51469
G1 X185.888 Y139.86 F4200
G1 F720
G1 X187.219 Y138.53 E4.55023
G1 X187.351 Y138.443 E4.55322
G1 X187.633 Y138.342 E4.55888
G1 X194.624 Y138.335 E4.69091
G1 X194.739 Y138.362 E4.69314
G1 X195.066 Y138.527 E4.70006
G1 X196.398 Y139.859 E4.73564
G1 X196.482 Y139.989 E4.73856
G1 X196.596 Y140.334 E4.74542
G1 X196.596 Y159.147 E5.10071
G1 X196.577 Y159.256 E5.1028
G1 X196.399 Y159.621 E5.11047
G1 X195.068 Y160.952 E5.14602
G1 X194.936 Y161.038 E5.149
G1 X194.654 Y161.139 E5.15466
G1 X187.706 Y161.15 E5.28588
G1 X187.598 Y161.131 E5.28795
G1 X187.232 Y160.953 E5.29564
G1 X185.901 Y159.623 E5.33118
G1 X185.817 Y159.493 E5.3341
G1 X185.703 Y159.148 E5.34096
G1 X185.692 Y140.335 E5.69625
G1 X185.71 Y140.226 E5.69834
G1 X185.862 Y139.914 E5.70489
G1 X186.18 Y140.104 F4200
G1 F720
G1 X187.474 Y138.81 E5.73945
G1 X187.73 Y138.71 E5.74464
G1 X194.572 Y138.71 E5.87385
G1 X194.823 Y138.82 E5.87903
G1 X196.136 Y140.141 E5.9142
G1 X196.217 Y140.369 E5.91877
G1 X196.217 Y159.126 E6.273
G1 X196.107 Y159.378 E6.27819
G1 X194.786 Y160.69 E6.31335
G1 X194.558 Y160.772 E6.31793
G1 X187.727 Y160.772 E6.44694
G1 X187.476 Y160.662 E6.45212
G1 X186.163 Y159.34 E6.48731
G1 X186.082 Y159.112 E6.49188
G1 X186.07 Y140.355 E6.84611
G1 X186.154 Y140.158 E6.85015
G1 X186.477 Y140.342 F4200
G1 F720
G1 X187.702 Y139.117 E6.88287
G1 X187.772 Y139.088 E6.8843
G1 X194.516 Y139.088 E7.01166
G1 X194.585 Y139.117 E7.01307
G1 X195.81 Y140.342 E7.04579
G1 X195.839 Y140.412 E7.04722
G1 X195.839 Y159.07 E7.39958
G1 X195.81 Y159.14 E7.40101
G1 X194.585 Y160.364 E7.43371
G1 X194.516 Y160.393 E7.43512
G1 X187.783 Y160.393 E7.56228
G1 X187.714 Y160.364 E7.56369
G1 X186.489 Y159.14 E7.59639
G1 X186.46 Y159.07 E7.59782
G1 X186.454 Y140.397 E7.95047
G1 E5.95047 F1800
G92 E0
G1 X216.529 Y140.679 F4200
G1 E2 F1800
G1 F720
G1 X216.568 Y140.422 E2.00491
G1 X216.903 Y139.747 E2.01914
G1 X218.306 Y138.344 E2.05661
G1 X218.648 Y138.123 E2.0643
G1 X219.034 Y137.985 E2.07204
G1 X226.352 Y137.966 E2.21024
G1 X226.636 Y138.044 E2.2158
G1 X227.152 Y138.325 E2.2269
G1 X228.555 Y139.728 E2.26437
G1 X228.781 Y140.084 E2.27233
G1 X228.948 Y140.65 E2.28347
G1 X228.948 Y159.558 E2.64056
G1 X228.908 Y159.814 E2.64545
G1 X228.574 Y160.489 E2.65967
G1 X227.171 Y161.892 E2.69714
G1 X226.828 Y162.113 E2.70485
G1 X226.443 Y162.251 E2.71257
G1 X219.268 Y162.284 E2.84807
G1 X219.012 Y162.245 E2.85296
G1 X218.336 Y161.91 E2.86721
G1 X216.934 Y160.508 E2.90465
G1 X216.707 Y160.152 E2.91262
G1 X216.541 Y159.587 E2.92374
G1 X216.529 Y140.739 E3.27969
G1 X216.908 Y140.738 F4200
G1 F720
G1 X216.937 Y140.511 E3.28401
G1 X217.193 Y139.992 E3.29494
G1 X218.56 Y138.625 E3.33145
G1 X218.797 Y138.472 E3.33678
G1 X219.131 Y138.352 E3.34348
G1 X226.282 Y138.338 E3.47853
G1 X226.481 Y138.39 E3.48241
G1 X226.906 Y138.614 E3.49148
G1 X228.273 Y139.982 E3.528
G1 X228.428 Y140.222 E3.5334
G1 X228.569 Y140.679 E3.54243
G1 X228.569 Y159.542 E3.89867
G1 X228.54 Y159.725 E3.90217
G1 X228.284 Y160.243 E3.91308
G1 X226.917 Y161.61 E3.94959
G1 X226.68 Y161.764 E3.95493
G1 X226.346 Y161.884 E3.96163
G1 X219.284 Y161.906 E4.095
G1 X219.1 Y161.876 E4.09852
G1 X218.582 Y161.621 E4.10942
G1 X217.215 Y160.254 E4.14593
G1 X217.061 Y160.014 E4.15132
G1 X216.919 Y159.557 E4.16036
G1 X216.908 Y140.798 E4.51463
G1 X217.286 Y140.798 F4200
G1 F720
G1 X217.305 Y140.603 E4.51833
G1 X217.483 Y140.237 E4.52602
G1 X218.814 Y138.907 E4.56156
G1 X218.946 Y138.82 E4.56455
G1 X219.228 Y138.719 E4.57021
G1 X226.219 Y138.712 E4.70224
G1 X226.334 Y138.739 E4.70447
G1 X226.661 Y138.904 E4.71139
G1 X227.992 Y140.236 E4.74695
G1 X228.077 Y140.366 E4.74988
G1 X228.191 Y140.711 E4.75674
G1 X228.191 Y159.524 E5.11203
G1 X228.172 Y159.633 E5.11412
G1 X227.994 Y159.998 E5.12179
G1 X226.663 Y161.329 E5.15734
G1 X226.531 Y161.415 E5.16032
G1 X226.249 Y161.516 E5.16598
G1 X219.301 Y161.527 E5.2972
G1 X219.192 Y161.508 E5.29929
G1 X218.827 Y161.33 E5.30696
G1 X217.496 Y160 E5.3425
G1 X217.411 Y159.87 E5.34543
G1 X217.298 Y159.525 E5.35229
G1 X217.286 Y140.858 E5.70482
G1 X217.665 Y140.858 F4200
G1 F720
G1 X217.671 Y140.7 E5.70781
G1 X217.775 Y140.481 E5.71239
G1 X219.069 Y139.187 E5.74695
G1 X219.324 Y139.087 E5.75212
G1 X226.167 Y139.087 E5.88135
G1 X226.418 Y139.197 E5.88653
G1 X227.73 Y140.518 E5.92169
G1 X227.812 Y140.746 E5.92627
G1 X227.812 Y159.503 E6.2805
G1 X227.702 Y159.755 E6.28569
G1 X226.381 Y161.067 E6.32085
G1 X226.152 Y161.149 E6.32544
G1 X219.322 Y161.149 E6.45443
G1 X219.071 Y161.039 E6.45961
G1 X217.758 Y159.717 E6.4948
G1 X217.676 Y159.489 E6.49938
G1 X217.665 Y140.918 E6.8501
G1 X218.043 Y140.918 F4200
G1 F720
G1 X218.043 Y140.788 E6.85256
G1 X218.072 Y140.719 E6.85397
G1 X219.297 Y139.494 E6.88669
G1 X219.367 Y139.465 E6.88812
G1 X226.11 Y139.465 E7.01546
G1 X226.18 Y139.494 E7.01689
G1 X227.405 Y140.719 E7.04961
G1 X227.434 Y140.789 E7.05104
G1 X227.434 Y159.447 E7.4034
G1 X227.405 Y159.517 E7.40483
G1 X226.18 Y160.741 E7.43753
G1 X226.11 Y160.77 E7.43896
G1 X219.378 Y160.77 E7.5661
G1 X219.309 Y160.741 E7.56751
G1 X218.084 Y159.517 E7.60021
G1 X218.055 Y159.447 E7.60164
G1 X218.043 Y140.978 E7.95044
G1 E5.95044 F1800
G92 E0
G1 X242.762 Y140.962 F4200
G1 E2 F1800
G1 F720
G1 X242.762 Y140.321 E2.01211
G1 X242.801 Y140.065 E2.017
G1 X243.136 Y139.389 E2.03125
G1 X244.539 Y137.986 E2.06872
G1 X244.881 Y137.765 E2.07641
G1 X245.267 Y137.627 E2.08415
G1 X252.585 Y137.609 E2.22235
G1 X252.869 Y137.686 E2.22791
G1 X253.385 Y137.968 E2.23902
G1 X254.788 Y139.371 E2.27649
G1 X255.014 Y139.727 E2.28445
G1 X255.181 Y140.293 E2.29559
G1 X255.181 Y159.2 E2.65266
G1 X255.141 Y159.456 E2.65755
G1 X254.807 Y160.132 E2.67179
G1 X253.404 Y161.535 E2.70926
G1 X253.061 Y161.756 E2.71697
G1 X252.676 Y161.894 E2.72469
G1 X245.501 Y161.927 E2.86019
G1 X245.245 Y161.888 E2.86508
G1 X244.569 Y161.553 E2.87933
G1 X243.167 Y160.151 E2.91677
G1 X242.94 Y159.795 E2.92474
G1 X242.774 Y159.229 E2.93588
G1 X242.763 Y141.022 E3.27973
G1 X243.141 Y141.022 F4200
G1 F720
G1 X243.141 Y140.337 E3.29267
G1 X243.17 Y140.154 E3.29617
G1 X243.426 Y139.635 E3.3071
G1 X244.793 Y138.268 E3.34361
G1 X245.03 Y138.114 E3.34895
G1 X245.364 Y137.995 E3.35565
G1 X252.515 Y137.981 E3.4907
G1 X252.714 Y138.032 E3.49458
G1 X253.139 Y138.257 E3.50366
G1 X254.506 Y139.624 E3.54017
G1 X254.661 Y139.865 E3.54558
G1 X254.802 Y140.322 E3.55461
G1 X254.802 Y159.185 E3.91085
G1 X254.773 Y159.368 E3.91435
G1 X254.517 Y159.886 E3.92526
G1 X253.15 Y161.253 E3.96177
G1 X252.913 Y161.407 E3.96711
G1 X252.579 Y161.526 E3.97381
G1 X245.517 Y161.549 E4.10718
G1 X245.333 Y161.519 E4.1107
G1 X244.815 Y161.263 E4.12161
G1 X243.448 Y159.897 E4.15811
G1 X243.294 Y159.657 E4.1635
G1 X243.152 Y159.199 E4.17256
G1 X243.141 Y141.082 E4.51471
G1 X243.52 Y141.082 F4200
G1 F720
G1 X243.519 Y140.354 E4.52846
G1 X243.538 Y140.246 E4.53053
G1 X243.716 Y139.88 E4.53822
G1 X245.047 Y138.549 E4.57377
G1 X245.179 Y138.463 E4.57675
G1 X245.461 Y138.362 E4.58241
G1 X252.452 Y138.355 E4.71444
G1 X252.567 Y138.382 E4.71667
G1 X252.894 Y138.547 E4.72359
G1 X254.225 Y139.879 E4.75915
G1 X254.31 Y140.008 E4.76207
G1 X254.424 Y140.354 E4.76895
G1 X254.424 Y159.167 E5.12424
G1 X254.405 Y159.276 E5.12633
G1 X254.227 Y159.641 E5.134
G1 X252.896 Y160.972 E5.16955
G1 X252.764 Y161.058 E5.17253
G1 X252.482 Y161.159 E5.17819
G1 X245.534 Y161.17 E5.30941
G1 X245.425 Y161.151 E5.3115
G1 X245.06 Y160.973 E5.31917
G1 X243.729 Y159.642 E5.35472
G1 X243.644 Y159.513 E5.35764
G1 X243.531 Y159.167 E5.36451
G1 X243.52 Y141.142 E5.70492
G1 X243.898 Y141.142 F4200
G1 F720
G1 X243.898 Y140.375 E5.71941
G1 X244.008 Y140.124 E5.72459
G1 X245.302 Y138.829 E5.75916
G1 X245.557 Y138.73 E5.76433
G1 X252.4 Y138.73 E5.89356
G1 X252.651 Y138.839 E5.89873
G1 X253.963 Y140.161 E5.9339
G1 X254.045 Y140.389 E5.93848
G1 X254.045 Y159.146 E6.29271
G1 X253.935 Y159.397 E6.29789
G1 X252.614 Y160.71 E6.33306
G1 X252.385 Y160.792 E6.33765
G1 X245.555 Y160.792 E6.46664
G1 X245.304 Y160.682 E6.47182
G1 X243.991 Y159.36 E6.50701
G1 X243.909 Y159.132 E6.51159
G1 X243.898 Y141.202 E6.85021
G1 X244.277 Y141.201 F4200
G1 F720
G1 X244.276 Y140.431 E6.86475
G1 X244.305 Y140.362 E6.86616
G1 X245.53 Y139.137 E6.89888
G1 X245.599 Y139.108 E6.90029
G1 X252.343 Y139.108 E7.02765
G1 X252.413 Y139.137 E7.02908
G1 X253.638 Y140.362 E7.0618
G1 X253.666 Y140.431 E7.06321
G1 X253.666 Y159.09 E7.41559
G1 X253.638 Y159.159 E7.417
G1 X252.413 Y160.384 E7.44972
G1 X252.343 Y160.413 E7.45115
G1 X245.611 Y160.413 E7.57829
G1 X245.542 Y160.384 E7.5797
G1 X244.317 Y159.159 E7.61242
G1 X244.288 Y159.09 E7.61383
G1 X244.277 Y141.261 E7.95054
G1 E5.95054 F1800
G92 E0
G1 X244.37 Y177.497 F4200
G1 E2 F1800
G1 F720
G1 X250.933 Y177.48 E2.12395
G1 X251.217 Y177.558 E2.12951
G1 X251.734 Y177.839 E2.14062
G1 X253.136 Y179.242 E2.17808
G1 X253.362 Y179.598 E2.18604
G1 X253.529 Y180.164 E2.19718
G1 X253.529 Y199.072 E2.55427
G1 X253.49 Y199.327 E2.55914
G1 X253.155 Y200.003 E2.57339
G1 X251.752 Y201.406 E2.61086
G1 X251.41 Y201.627 E2.61855
G1 X251.024 Y201.765 E2.62629
G1 X243.85 Y201.798 E2.76178
G1 X243.593 Y201.759 E2.76669
G1 X242.917 Y201.424 E2.78094
G1 X241.515 Y200.022 E2.81838
G1 X241.289 Y199.666 E2.82634
G1 X241.122 Y199.1 E2.83748
G1 X241.11 Y180.193 E3.19455
G1 X241.15 Y179.936 E3.19946
G1 X241.484 Y179.261 E3.21368
G1 X242.887 Y177.858 E3.25115
G1 X243.23 Y177.637 E3.25886
G1 X243.615 Y177.499 E3.26658
G1 X244.31 Y177.497 E3.27971
G1 X244.311 Y177.865 F4200
G1 F720
G1 X250.864 Y177.852 E3.40347
G1 X251.062 Y177.904 E3.40734
G1 X251.487 Y178.128 E3.41641
G1 X252.854 Y179.496 E3.45293
G1 X253.009 Y179.736 E3.45833
G1 X253.15 Y180.193 E3.46736
G1 X253.15 Y199.056 E3.8236
G1 X253.121 Y199.239 E3.8271
G1 X252.865 Y199.757 E3.83801
G1 X251.498 Y201.124 E3.87452
G1 X251.261 Y201.278 E3.87986
G1 X250.927 Y201.398 E3.88656
G1 X243.865 Y201.42 E4.01993
G1 X243.682 Y201.39 E4.02343
G1 X243.163 Y201.135 E4.03435
G1 X241.796 Y199.768 E4.07086
G1 X241.642 Y199.528 E4.07625
G1 X241.501 Y199.071 E4.08528
G1 X241.489 Y180.208 E4.44152
G1 X241.518 Y180.025 E4.44502
G1 X241.774 Y179.506 E4.45595
G1 X243.141 Y178.139 E4.49246
G1 X243.378 Y177.986 E4.49779
G1 X243.712 Y177.866 E4.50449
G1 X244.251 Y177.865 E4.51467
G1 X244.251 Y178.233 F4200
G1 F720
G1 X250.8 Y178.226 E4.63835
G1 X250.915 Y178.253 E4.64058
G1 X251.242 Y178.418 E4.6475
G1 X252.573 Y179.75 E4.68306
G1 X252.658 Y179.88 E4.68599
G1 X252.772 Y180.225 E4.69285
G1 X252.772 Y199.038 E5.04814
G1 X252.753 Y199.147 E5.05023
G1 X252.575 Y199.512 E5.0579
G1 X251.244 Y200.843 E5.09345
G1 X251.112 Y200.929 E5.09643
G1 X250.83 Y201.03 E5.10209
G1 X243.882 Y201.041 E5.23331
G1 X243.773 Y201.022 E5.2354
G1 X243.408 Y200.844 E5.24307
G1 X242.077 Y199.514 E5.27861
G1 X241.993 Y199.384 E5.28153
G1 X241.879 Y199.039 E5.28839
G1 X241.867 Y180.226 E5.64368
G1 X241.886 Y180.117 E5.64577
G1 X242.064 Y179.751 E5.65346
G1 X243.395 Y178.42 E5.68901
G1 X243.527 Y178.334 E5.69199
G1 X243.809 Y178.233 E5.69765
G1 X244.191 Y178.233 E5.70486
G1 X244.191 Y178.601 F4200
G1 F720
G1 X250.78 Y178.607 E5.8293
G1 X250.999 Y178.711 E5.83388
G1 X252.293 Y180.005 E5.86844
