; generated by CreatWare 7.0.0 on 2022-06-04 at 03:52:04 UTC

; 

; external perimeters extrusion width = 0.40mm
; perimeters extrusion width = 0.40mm
; infill extrusion width = 0.40mm
; solid infill extrusion width = 0.40mm
; top infill extrusion width = 0.40mm

G21 ; set units to millimeters
G90 ; use absolute coordinates
M82 ; use absolute distances for extrusion
G92 E0
M107
M190 S45 ; set bed temperature and wait for it to be reached
M104 S210 ; set temperature
;TYPE:Custom
M109 S210 ; set temperature and wait for it to be reached
M6013 S0 ; set chamber temp

G28 X0 Y0  ;move X/Y to min endstops
G28 Z0     ;move Z to min endstops

;Add Clear Nozzle
G92 E0                   ;zero the extruded length again
G0 F4200 X0 Y0
G0 F400 X10 Z0.4         ;move a bit while down the Z
M221 T0 S300             ;set flow is 300%
G1 F200 X30 E8          ;extrude amont filament to clean the hotend
M221 T0 S100             ;reset flow is 100%
G92 E0                   ;zero the extruded length again
;Add End

G0 Z15.0 F4200 ;move the platform down 15mm

;Put printing message on LCD screen
M117 Printing...
; Filament gcode
M107
;LAYER_CHANGE
;Layer 1
;Z:0.2
;HEIGHT:0.2
;BEFORE_LAYER_CHANGE
;0.2


G1 Z.2 F4200
;AFTER_LAYER_CHANGE
;G92 E0   ;zero the extruded length again
;0.2
G1 E-2 F1800
G92 E0
G1 X188.291 Y139.802 F4200
G1 E2 F1800
;TYPE:Skirt/Brim
;WIDTH:0.4
G1 F540
G1 X189.463 Y138.63 E2.05905
G1 X191.307 Y137.347 E2.13909
G1 X193.958 Y136.768 E2.23577
G1 X206.042 Y136.768 E2.66632
G1 X208.253 Y137.165 E2.74636
G1 X210.537 Y138.63 E2.84304
G1 X211.709 Y139.801 E2.90207
G1 X212.991 Y141.645 E2.98209
G1 X213.571 Y144.297 E3.07881
G1 X213.571 Y155.703 E3.4852
G1 X213.174 Y157.914 E3.56524
G1 X211.709 Y160.199 E3.66195
G1 X210.537 Y161.37 E3.72098
G1 X208.693 Y162.653 E3.80102
G1 X206.042 Y163.232 E3.8977
G1 X193.958 Y163.232 E4.32825
G1 X191.747 Y162.835 E4.40829
G1 X189.463 Y161.37 E4.50497
G1 X188.291 Y160.199 E4.564
G1 X187.009 Y158.355 E4.64402
G1 X186.429 Y155.703 E4.74074
G1 X186.429 Y144.297 E5.14713
G1 X186.826 Y142.086 E5.22717
G1 X188.259 Y139.852 E5.32173
G1 E3.32173 F1800
G92 E0
G1 X193.396 Y144.264 F4200
G1 E2 F1800
G1 F540
G1 X193.891 Y143.759 E2.0252
G1 X194.25 Y143.576 E2.03956
G1 X194.48 Y143.522 E2.04798
G1 X199.658 Y143.522 E2.23247
G1 X199.836 Y143.558 E2.23894
G1 X200.006 Y143.625 E2.24545
G1 X200.363 Y143.518 E2.25873
G1 X205.52 Y143.522 E2.44247
G1 X205.749 Y143.576 E2.45085
G1 X206.155 Y143.793 E2.46725
G1 X206.624 Y144.29 E2.4916
G1 X206.681 Y144.39 E2.4957
G1 X206.82 Y144.839 E2.51245
G1 X206.819 Y147.202 E2.59664
G1 X206.721 Y147.836 E2.6195
G1 X206.461 Y148.443 E2.64303
G1 X206.084 Y148.939 E2.66523
G1 X205.591 Y149.337 E2.6878
G1 X205.279 Y149.482 E2.70006
G1 X205.31 Y149.74 E2.70932
G1 X205.749 Y149.826 E2.72526
G1 X206.146 Y150.036 E2.74126
G1 X206.584 Y150.485 E2.76361
G1 X206.763 Y150.84 E2.77778
G1 X206.817 Y151.069 E2.78616
G1 X206.82 Y153.011 E2.85535
G1 X206.799 Y153.125 E2.85948
G1 X206.82 Y153.24 E2.86365
G1 X206.817 Y155.182 E2.93284
G1 X206.763 Y155.41 E2.94119
G1 X206.545 Y155.816 E2.95761
G1 X206.048 Y156.285 E2.98196
G1 X205.948 Y156.343 E2.98608
G1 X205.5 Y156.482 E3.00279
G1 X194.516 Y156.482 E3.39415
G1 X194.252 Y156.424 E3.40378
G1 X193.845 Y156.207 E3.42021
G1 X193.376 Y155.71 E3.44456
G1 X193.319 Y155.61 E3.44866
G1 X193.18 Y155.161 E3.46541
G1 X193.18 Y153.239 E3.53389
G1 X193.201 Y153.125 E3.53802
G1 X193.18 Y153.011 E3.54215
G1 X193.18 Y151.089 E3.61063
G1 X193.319 Y150.64 E3.62738
G1 X193.376 Y150.54 E3.63148
G1 X193.845 Y150.043 E3.65583
G1 X194.295 Y149.811 E3.67387
G1 X194.688 Y149.743 E3.68808
G1 X194.723 Y149.483 E3.69743
G1 X194.409 Y149.337 E3.70977
G1 X193.916 Y148.94 E3.73232
G1 X193.517 Y148.406 E3.75607
G1 X193.268 Y147.795 E3.77958
G1 X193.181 Y147.203 E3.8009
G1 X193.18 Y144.839 E3.88513
G1 X193.318 Y144.393 E3.90176
G1 X193.365 Y144.315 E3.905
G1 X193.665 Y144.5 F4200
G1 F540
G1 X194.081 Y144.063 E3.9265
G1 X194.393 Y143.904 E3.93898
G1 X194.501 Y143.879 E3.94293
G1 X199.637 Y143.879 E4.12592
G1 X199.739 Y143.902 E4.12965
G1 X199.993 Y144.007 E4.13944
G1 X200.394 Y143.875 E4.15448
G1 X205.499 Y143.879 E4.33637
G1 X205.607 Y143.904 E4.34032
G1 X205.919 Y144.063 E4.3528
G1 X206.332 Y144.496 E4.37412
G1 X206.463 Y144.869 E4.38821
G1 X206.462 Y147.189 E4.47087
G1 X206.382 Y147.72 E4.49
G1 X206.163 Y148.246 E4.5103
G1 X205.814 Y148.705 E4.53084
G1 X205.39 Y149.041 E4.55012
G1 X204.802 Y149.295 E4.57294
G1 X204.251 Y149.375 E4.59278
G1 X203.5 Y149.375 E4.61954
G1 X203.5 Y150.125 E4.64626
G1 X205.467 Y150.125 E4.71634
G1 X205.61 Y150.155 E4.72155
G1 X205.916 Y150.31 E4.73377
G1 X206.278 Y150.673 E4.75204
G1 X206.433 Y150.979 E4.76426
G1 X206.463 Y151.122 E4.76947
G1 X206.463 Y152.985 E4.83585
G1 X206.43 Y153.125 E4.84097
G1 X206.463 Y153.265 E4.84609
G1 X206.46 Y155.161 E4.91364
G1 X206.434 Y155.269 E4.9176
G1 X206.276 Y155.58 E4.93003
G1 X205.842 Y155.993 E4.95138
G1 X205.47 Y156.125 E4.96544
G1 X194.533 Y156.125 E5.35512
G1 X194.391 Y156.095 E5.36029
G1 X194.081 Y155.937 E5.37269
G1 X193.668 Y155.504 E5.39401
G1 X193.537 Y155.131 E5.4081
G1 X193.537 Y153.265 E5.47458
G1 X193.57 Y153.125 E5.4797
G1 X193.537 Y152.985 E5.48482
G1 X193.537 Y151.119 E5.5513
G1 X193.65 Y150.776 E5.56417
G1 X194.08 Y150.314 E5.58666
G1 X194.428 Y150.143 E5.60048
G1 X194.53 Y150.125 E5.60417
G1 X196.5 Y150.125 E5.67436
G1 X196.5 Y149.375 E5.70108
G1 X195.749 Y149.375 E5.72784
G1 X195.198 Y149.295 E5.74768
G1 X194.61 Y149.041 E5.7705
G1 X194.186 Y148.705 E5.78978
G1 X193.837 Y148.246 E5.81032
G1 X193.618 Y147.72 E5.83062
G1 X193.538 Y147.189 E5.84975
G1 X193.537 Y144.869 E5.93241
G1 X193.64 Y144.554 E5.94422
G1 X193.966 Y144.702 F4200
G1 F540
G1 X194.315 Y144.335 E5.96226
G1 X194.55 Y144.232 E5.9714
G1 X199.587 Y144.232 E6.15087
G1 X199.775 Y144.303 E6.15803
G1 X200 Y144.495 E6.16857
G1 X200.222 Y144.306 E6.17896
G1 X200.427 Y144.232 E6.18673
G1 X205.45 Y144.232 E6.3657
G1 X205.685 Y144.335 E6.37484
G1 X206.034 Y144.702 E6.39288
G1 X206.106 Y144.902 E6.40045
G1 X206.105 Y147.175 E6.48144
G1 X206.033 Y147.642 E6.49828
G1 X205.844 Y148.084 E6.51541
G1 X205.572 Y148.442 E6.53143
G1 X205.223 Y148.725 E6.54744
G1 X204.725 Y148.946 E6.56685
G1 X204.238 Y149.017 E6.58439
G1 X203.143 Y149.018 E6.6234
G1 X203.143 Y150.482 E6.67556
G1 X205.45 Y150.482 E6.75776
G1 X205.687 Y150.586 E6.76698
G1 X206.002 Y150.902 E6.78288
G1 X206.106 Y151.138 E6.79207
G1 X206.106 Y152.952 E6.8567
G1 X206.052 Y153.125 E6.86316
G1 X206.106 Y153.298 E6.86962
G1 X206.106 Y155.112 E6.93425
G1 X206.003 Y155.347 E6.94339
G1 X205.637 Y155.696 E6.96141
G1 X205.437 Y155.768 E6.96898
G1 X194.55 Y155.768 E7.35688
G1 X194.315 Y155.665 E7.36602
G1 X193.966 Y155.298 E7.38406
G1 X193.894 Y155.098 E7.39163
G1 X193.894 Y153.298 E7.45576
G1 X193.948 Y153.125 E7.46222
G1 X193.894 Y152.952 E7.46868
G1 X193.894 Y151.152 E7.53281
G1 X193.966 Y150.952 E7.54038
G1 X194.315 Y150.585 E7.55842
G1 X194.55 Y150.482 E7.56756
G1 X196.857 Y150.482 E7.64976
G1 X196.857 Y149.018 E7.70192
G1 X195.762 Y149.017 E7.74093
G1 X195.275 Y148.946 E7.75847
G1 X194.777 Y148.725 E7.77788
G1 X194.428 Y148.442 E7.79389
G1 X194.156 Y148.084 E7.80991
G1 X193.967 Y147.642 E7.82704
G1 X193.895 Y147.175 E7.84388
G1 X193.894 Y144.902 E7.92487
G1 X193.945 Y144.758 E7.93031
G1 X194.271 Y144.893 F4200
G1 F540
G1 X194.537 Y144.617 E7.94397
G1 X194.603 Y144.589 E7.94652
G1 X199.533 Y144.589 E8.12217
G1 X199.599 Y144.617 E8.12472
G1 X200 Y145.018 E8.14493
G1 X200.401 Y144.617 E8.16514
G1 X200.467 Y144.589 E8.16769
G1 X205.397 Y144.589 E8.34334
G1 X205.463 Y144.617 E8.34589
G1 X205.722 Y144.876 E8.35894
G1 X205.749 Y144.942 E8.36148
G1 X205.748 Y147.161 E8.44054
G1 X205.684 Y147.564 E8.45508
G1 X205.546 Y147.886 E8.46756
G1 X205.302 Y148.207 E8.48193
G1 X205.021 Y148.43 E8.49471
G1 X204.607 Y148.608 E8.51077
G1 X204.226 Y148.66 E8.52447
G1 X202.786 Y148.661 E8.57578
G1 X202.786 Y150.839 E8.65338
G1 X205.397 Y150.839 E8.74641
G1 X205.463 Y150.867 E8.74896
G1 X205.722 Y151.126 E8.76201
G1 X205.749 Y151.192 E8.76455
G1 X205.749 Y152.908 E8.82569
G1 X205.722 Y152.974 E8.82823
G1 X205.571 Y153.125 E8.83584
G1 X205.722 Y153.276 E8.84345
G1 X205.749 Y153.342 E8.84599
G1 X205.749 Y155.058 E8.90713
G1 X205.722 Y155.124 E8.90967
G1 X205.463 Y155.383 E8.92272
G1 X205.397 Y155.411 E8.92527
G1 X194.603 Y155.411 E9.30986
G1 X194.537 Y155.383 E9.31241
G1 X194.278 Y155.124 E9.32546
G1 X194.251 Y155.058 E9.328
G1 X194.251 Y153.342 E9.38914
G1 X194.278 Y153.276 E9.39168
G1 X194.429 Y153.125 E9.39929
G1 X194.278 Y152.974 E9.4069
G1 X194.251 Y152.908 E9.40944
G1 X194.251 Y151.192 E9.47058
G1 X194.278 Y151.126 E9.47312
G1 X194.537 Y150.867 E9.48617
G1 X194.603 Y150.839 E9.48872
G1 X197.214 Y150.839 E9.58175
G1 X197.214 Y148.661 E9.65935
G1 X195.774 Y148.66 E9.71066
G1 X195.393 Y148.608 E9.72436
G1 X194.979 Y148.43 E9.74042
G1 X194.698 Y148.207 E9.7532
G1 X194.454 Y147.886 E9.76757
G1 X194.316 Y147.564 E9.78005
G1 X194.252 Y147.161 E9.79459
G1 X194.251 Y144.949 E9.8734
G1 X194.608 Y145.051 F4200
G1 F540
G1 X194.713 Y144.946 E9.87869
G1 X199.424 Y144.946 E10.04654
G1 X199.529 Y145.051 E10.05183
G1 X199.529 Y148.946 E10.19061
G1 X199.674 Y148.946 E10.19578
G1 X199.779 Y149.051 E10.20107
G1 X199.779 Y150.856 E10.26538
G1 X199.748 Y150.926 E10.26811
G1 X199.605 Y151.054 E10.27495
G1 X199.527 Y151.174 E10.28005
G1 X199.476 Y151.42 E10.289
G1 X199.551 Y151.659 E10.29792
G1 X199.642 Y151.77 E10.30303
G1 X199.757 Y151.855 E10.30813
G1 X199.988 Y151.914 E10.31662
G1 X200.142 Y151.895 E10.32215
G1 X200.351 Y151.779 E10.33067
G1 X200.449 Y151.659 E10.33619
G1 X200.524 Y151.42 E10.34511
G1 X200.473 Y151.174 E10.35406
G1 X200.395 Y151.054 E10.35916
G1 X200.252 Y150.926 E10.366
G1 X200.221 Y150.856 E10.36873
G1 X200.221 Y149.051 E10.43304
G1 X200.326 Y148.946 E10.43833
G1 X200.471 Y148.946 E10.4435
G1 X200.471 Y145.051 E10.58228
G1 X200.576 Y144.946 E10.58757
G1 X205.287 Y144.946 E10.75542
G1 X205.392 Y145.051 E10.76071
G1 X205.39 Y147.148 E10.83543
G1 X205.345 Y147.45 E10.84631
G1 X205.245 Y147.693 E10.85567
G1 X205.06 Y147.943 E10.86675
G1 X204.819 Y148.134 E10.87771
G1 X204.495 Y148.268 E10.8902
G1 X204.216 Y148.303 E10.90022
G1 X202.429 Y148.304 E10.96389
G1 X202.429 Y151.196 E11.06693
G1 X205.287 Y151.196 E11.16876
G1 X205.392 Y151.301 E11.17405
G1 X205.392 Y152.799 E11.22742
G1 X205.287 Y152.904 E11.23271
G1 X201.537 Y152.904 E11.36632
G1 X201.467 Y152.873 E11.36905
G1 X201.339 Y152.73 E11.37589
G1 X201.219 Y152.652 E11.38099
G1 X200.973 Y152.601 E11.38994
G1 X200.734 Y152.676 E11.39886
G1 X200.623 Y152.767 E11.40397
G1 X200.538 Y152.882 E11.40907
G1 X200.479 Y153.113 E11.41756
G1 X200.498 Y153.267 E11.42309
G1 X200.614 Y153.476 E11.43161
G1 X200.734 Y153.574 E11.43713
G1 X200.973 Y153.649 E11.44605
G1 X201.219 Y153.598 E11.455
G1 X201.339 Y153.52 E11.4601
G1 X201.467 Y153.377 E11.46694
G1 X201.537 Y153.346 E11.46967
G1 X205.287 Y153.346 E11.60328
G1 X205.392 Y153.451 E11.60857
G1 X205.392 Y154.949 E11.66194
G1 X205.287 Y155.054 E11.66723
G1 X194.713 Y155.054 E12.04398
G1 X194.608 Y154.949 E12.04927
G1 X194.608 Y153.451 E12.10264
G1 X194.713 Y153.346 E12.10793
G1 X198.463 Y153.346 E12.24154
G1 X198.533 Y153.377 E12.24427
G1 X198.661 Y153.52 E12.25111
G1 X198.781 Y153.598 E12.25621
G1 X199.027 Y153.649 E12.26516
G1 X199.266 Y153.574 E12.27408
G1 X199.386 Y153.476 E12.2796
G1 X199.502 Y153.267 E12.28812
G1 X199.52 Y153.125 E12.29322
G1 X199.502 Y152.983 E12.29832
G1 X199.386 Y152.774 E12.30684
G1 X199.266 Y152.676 E12.31236
G1 X199.027 Y152.601 E12.32128
G1 X198.781 Y152.652 E12.33023
G1 X198.661 Y152.73 E12.33533
G1 X198.533 Y152.873 E12.34217
G1 X198.463 Y152.904 E12.3449
G1 X194.713 Y152.904 E12.47851
G1 X194.608 Y152.799 E12.4838
G1 X194.608 Y151.301 E12.53717
G1 X194.713 Y151.196 E12.54246
G1 X197.571 Y151.196 E12.64429
G1 X197.571 Y148.304 E12.74733
G1 X195.784 Y148.303 E12.811
G1 X195.505 Y148.268 E12.82102
G1 X195.181 Y148.134 E12.83351
G1 X194.94 Y147.943 E12.84447
G1 X194.755 Y147.693 E12.85555
G1 X194.655 Y147.45 E12.86491
G1 X194.61 Y147.148 E12.87579
G1 X194.608 Y145.111 E12.94837
G1 X194.987 Y145.325 F4200
;TYPE:External perimeter
G1 F378
G1 X199.15 Y145.325 E13.0967
G1 X199.15 Y149.325 E13.23922
G1 X199.4 Y149.325 E13.24813
G1 X199.4 Y150.73 E13.29819
G1 X199.316 Y150.806 E13.30223
G1 X199.19 Y150.996 E13.31035
G1 X199.117 Y151.212 E13.31847
G1 X199.1 Y151.439 E13.32658
G1 X199.14 Y151.663 E13.33469
G1 X199.235 Y151.87 E13.3428
G1 X199.379 Y152.046 E13.3509
G1 X199.562 Y152.181 E13.359
G1 X199.774 Y152.266 E13.36714
G1 X200 Y152.295 E13.37526
G1 X200.226 Y152.266 E13.38338
G1 X200.438 Y152.181 E13.39152
G1 X200.621 Y152.046 E13.39962
G1 X200.765 Y151.87 E13.40772
G1 X200.86 Y151.663 E13.41583
G1 X200.9 Y151.439 E13.42394
G1 X200.883 Y151.212 E13.43205
G1 X200.81 Y150.996 E13.44017
G1 X200.684 Y150.806 E13.44829
G1 X200.6 Y150.73 E13.45233
G1 X200.6 Y149.325 E13.50239
G1 X200.85 Y149.325 E13.5113
G1 X200.85 Y145.325 E13.65382
G1 X205.013 Y145.325 E13.80215
G1 X205.013 Y147.113 E13.86586
G1 X204.985 Y147.331 E13.87369
G1 X204.905 Y147.523 E13.8811
G1 X204.778 Y147.689 E13.88855
G1 X204.612 Y147.817 E13.89602
G1 X204.42 Y147.896 E13.90342
G1 X204.202 Y147.925 E13.91126
G1 X202.05 Y147.925 E13.98793
G1 X202.05 Y151.575 E14.11798
G1 X205.013 Y151.575 E14.22355
G1 X205.013 Y152.525 E14.2574
G1 X201.663 Y152.525 E14.37676
G1 X201.587 Y152.441 E14.3808
G1 X201.397 Y152.315 E14.38892
G1 X201.181 Y152.242 E14.39704
G1 X200.954 Y152.225 E14.40515
G1 X200.73 Y152.265 E14.41326
G1 X200.523 Y152.36 E14.42137
G1 X200.346 Y152.504 E14.4295
G1 X200.212 Y152.687 E14.43758
G1 X200.127 Y152.899 E14.44572
G1 X200.098 Y153.125 E14.45384
G1 X200.127 Y153.351 E14.46196
G1 X200.212 Y153.563 E14.4701
G1 X200.346 Y153.746 E14.47818
G1 X200.523 Y153.89 E14.48631
G1 X200.73 Y153.985 E14.49442
G1 X200.954 Y154.025 E14.50253
G1 X201.181 Y154.008 E14.51064
G1 X201.397 Y153.935 E14.51876
G1 X201.587 Y153.809 E14.52688
G1 X201.663 Y153.725 E14.53092
G1 X205.013 Y153.725 E14.65028
G1 X205.013 Y154.675 E14.68413
G1 X194.987 Y154.675 E15.04135
G1 X194.987 Y153.725 E15.0752
G1 X198.337 Y153.725 E15.19456
G1 X198.413 Y153.809 E15.1986
G1 X198.603 Y153.935 E15.20672
G1 X198.819 Y154.008 E15.21484
G1 X199.046 Y154.025 E15.22295
G1 X199.27 Y153.985 E15.23106
G1 X199.477 Y153.89 E15.23917
G1 X199.654 Y153.746 E15.2473
G1 X199.788 Y153.563 E15.25538
G1 X199.873 Y153.351 E15.26352
G1 X199.902 Y153.125 E15.27164
G1 X199.873 Y152.899 E15.27976
G1 X199.788 Y152.687 E15.2879
G1 X199.654 Y152.504 E15.29598
G1 X199.477 Y152.36 E15.30411
G1 X199.27 Y152.265 E15.31222
G1 X199.046 Y152.225 E15.32033
G1 X198.819 Y152.242 E15.32844
G1 X198.603 Y152.315 E15.33656
G1 X198.413 Y152.441 E15.34468
G1 X198.337 Y152.525 E15.34872
G1 X194.987 Y152.525 E15.46808
G1 X194.987 Y151.575 E15.50193
G1 X197.95 Y151.575 E15.6075
G1 X197.95 Y147.925 E15.73755
G1 X195.798 Y147.925 E15.81422
G1 X195.58 Y147.896 E15.82206
G1 X195.388 Y147.817 E15.82946
G1 X195.222 Y147.689 E15.83693
G1 X195.095 Y147.523 E15.84438
G1 X195.015 Y147.331 E15.85179
G1 X194.987 Y147.113 E15.85962
G1 X194.987 Y145.385 E15.92119
G1 X195.334 Y145.523 F4200
G1 E13.92119 F1800
G92 E0
G1 X201.186 Y145.661 F4200
G1 X201.207 Y145.661
G1 X201.207 Y145.682
G1 E2 F1800
;TYPE:Inner perimeter
G1 F270
G1 X204.656 Y145.682 E2.12289
G1 X204.656 Y147.09 E2.17306
G1 X204.637 Y147.238 E2.17838
G1 X204.593 Y147.343 E2.18244
G1 X204.523 Y147.435 E2.18656
G1 X204.432 Y147.505 E2.19065
G1 X204.326 Y147.548 E2.19473
G1 X204.179 Y147.568 E2.20002
G1 X201.693 Y147.568 E2.2886
G1 X201.693 Y152.039 E2.4479
G1 X201.187 Y151.866 E2.46695
G1 X201.26 Y151.457 E2.48175
G1 X201.236 Y151.139 E2.49311
G1 X201.133 Y150.838 E2.50445
G1 X200.957 Y150.571 E2.51584
G1 X200.957 Y149.682 E2.54751
G1 X201.207 Y149.682 E2.55642
G1 X201.207 Y145.742 E2.6968
G1 E.6968 F1800
G92 E0
G1 X201.742 Y151.932 F4200
G1 E2 F1800
G1 F270
G1 X204.656 Y151.932 E2.10382
G1 X204.656 Y152.168 E2.11223
G1 X201.822 Y152.168 E2.2132
G1 X201.696 Y152.085 E2.21858
G1 X201.724 Y151.99 E2.22211
G1 E.22211 F1800
G92 E0
