; G-Code generated by Simplify3D(R) Version 4.1.2
; Jul 14, 2022 at 12:31:57 AM
; Settings Summary
;   processName,Process1
;   applyToModels,Foot_07
;   profileName,CreatBot F430 (modified)
;   profileVersion,2019-10-19 08:00:00
;   baseProfile,
;   printMaterial,PLA
;   printQuality,Medium
;   printExtruders,Both Extruders
;   extruderName,Left Extruder,Right Extruder
;   extruderToolheadNumber,0,1
;   extruderDiameter,0.4,0.4
;   extruderAutoWidth,1,1
;   extruderWidth,0.48,0.48
;   extrusionMultiplier,0.9,0.9
;   extruderUseRetract,1,1
;   extruderRetractionDistance,1,1
;   extruderExtraRestartDistance,0,0
;   extruderRetractionZLift,0,0
;   extruderRetractionSpeed,1800,1800
;   extruderUseCoasting,1,1
;   extruderCoastingDistance,0.2,0.2
;   extruderUseWipe,1,1
;   extruderWipeDistance,5,5
;   primaryExtruder,0
;   layerHeight,0.2
;   topSolidLayers,3
;   bottomSolidLayers,3
;   perimeterOutlines,2
;   printPerimetersInsideOut,0
;   startPointOption,2
;   startPointOriginX,0
;   startPointOriginY,0
;   sequentialIslands,0
;   spiralVaseMode,0
;   firstLayerHeightPercentage,120
;   firstLayerWidthPercentage,150
;   firstLayerUnderspeed,0.5
;   useRaft,0
;   raftExtruder,1
;   raftTopLayers,3
;   raftBaseLayers,2
;   raftOffset,3
;   raftSeparationDistance,0.14
;   raftTopInfill,100
;   aboveRaftSpeedMultiplier,0.3
;   useSkirt,0
;   skirtExtruder,1
;   skirtLayers,1
;   skirtOutlines,2
;   skirtOffset,4
;   usePrimePillar,0
;   primePillarExtruder,999
;   primePillarWidth,12
;   primePillarLocation,7
;   primePillarSpeedMultiplier,1
;   useOozeShield,1
;   oozeShieldExtruder,999
;   oozeShieldOffset,2
;   oozeShieldOutlines,1
;   oozeShieldSidewallShape,1
;   oozeShieldSidewallAngle,30
;   oozeShieldSpeedMultiplier,1
;   infillExtruder,0
;   internalInfillPattern,Rectilinear
;   externalInfillPattern,Rectilinear
;   infillPercentage,60
;   outlineOverlapPercentage,15
;   infillExtrusionWidthPercentage,100
;   minInfillLength,5
;   infillLayerInterval,1
;   internalInfillAngles,45,-45
;   overlapInternalInfillAngles,0
;   externalInfillAngles,45,-45
;   generateSupport,1
;   supportExtruder,1
;   supportInfillPercentage,40
;   supportExtraInflation,0
;   supportBaseLayers,0
;   denseSupportExtruder,1
;   denseSupportLayers,0
;   denseSupportInfillPercentage,70
;   supportLayerInterval,1
;   supportHorizontalPartOffset,0.3
;   supportUpperSeparationLayers,1
;   supportLowerSeparationLayers,1
;   supportType,0
;   supportGridSpacing,4
;   maxOverhangAngle,45
;   supportAngles,0
;   temperatureName,Left Extruder,Right Extruder,Heated Bed
;   temperatureNumber,0,1,0
;   temperatureSetpointCount,1,1,1
;   temperatureSetpointLayers,1,1,1
;   temperatureSetpointTemperatures,220,250,60
;   temperatureStabilizeAtStartup,1,0,1
;   temperatureHeatedBed,0,0,1
;   fanLayers,1,2
;   fanSpeeds,100,100
;   blipFanToFullPower,0
;   adjustSpeedForCooling,1
;   minSpeedLayerTime,15
;   minCoolingSpeedSlowdown,20
;   increaseFanForCooling,0
;   minFanLayerTime,45
;   maxCoolingFanSpeed,100
;   increaseFanForBridging,0
;   bridgingFanSpeed,100
;   use5D,1
;   relativeEdistances,0
;   allowEaxisZeroing,1
;   independentExtruderAxes,0
;   includeM10123,0
;   stickySupport,1
;   applyToolheadOffsets,0
;   gcodeXoffset,0
;   gcodeYoffset,0
;   gcodeZoffset,0
;   overrideMachineDefinition,1
;   machineTypeOverride,0
;   strokeXoverride,400
;   strokeYoverride,300
;   strokeZoverride,300
;   originOffsetXoverride,0
;   originOffsetYoverride,0
;   originOffsetZoverride,0
;   homeXdirOverride,-1
;   homeYdirOverride,-1
;   homeZdirOverride,-1
;   flipXoverride,1
;   flipYoverride,-1
;   flipZoverride,1
;   toolheadOffsets,0,0|73,0|0,0|0,0|0,0|0,0
;   overrideFirmwareConfiguration,1
;   firmwareTypeOverride,RepRap (Marlin/Repetier/Sprinter)
;   GPXconfigOverride,r2
;   baudRateOverride,250000
;   overridePrinterModels,1
;   printerModelsOverride
;   startingGcode,G28 ; home all axes,G29 ; run automatic bed leveling
;   layerChangeGcode,
;   retractionGcode,
;   toolChangeGcode,
;   endingGcode,G28 X0 Y0 ; home X and Y axes,M104 S0 T0 ; turn off left extruder,M104 S0 T1 ; turn off right extruder,M140 S0 ; turn off bed,M84 ; disable motors
;   exportFileFormat,gcode
;   celebration,0
;   celebrationSong,Random Song
;   postProcessing,
;   defaultSpeed,3600
;   outlineUnderspeed,0.5
;   solidInfillUnderspeed,0.8
;   supportUnderspeed,0.8
;   rapidXYspeed,4800
;   rapidZspeed,1000
;   minBridgingArea,50
;   bridgingExtraInflation,0
;   bridgingExtrusionMultiplier,1
;   bridgingSpeedMultiplier,1
;   useFixedBridgingAngle,0
;   fixedBridgingAngle,0
;   applyBridgingToPerimeters,0
;   filamentDiameters,1.75|1.75|1.75|1.75|1.75|1.75
;   filamentPricesPerKg,46|46|46|46|46|46
;   filamentDensities,1.25|1.25|1.25|1.25|1.25|1.25
;   useMinPrintHeight,0
;   minPrintHeight,0
;   useMaxPrintHeight,0
;   maxPrintHeight,0
;   useDiaphragm,0
;   diaphragmLayerInterval,20
;   robustSlicing,1
;   mergeAllIntoSolid,0
;   onlyRetractWhenCrossingOutline,1
;   retractBetweenLayers,1
;   useRetractionMinTravel,0
;   retractionMinTravel,3
;   retractWhileWiping,0
;   onlyWipeOutlines,1
;   avoidCrossingOutline,0
;   maxMovementDetourFactor,3
;   toolChangeRetractionDistance,12
;   toolChangeExtraRestartDistance,-0.5
;   toolChangeRetractionSpeed,600
;   externalThinWallType,0
;   internalThinWallType,2
;   thinWallAllowedOverlapPercentage,10
;   singleExtrusionMinLength,1
;   singleExtrusionMinPrintingWidthPercentage,50
;   singleExtrusionMaxPrintingWidthPercentage,200
;   singleExtrusionEndpointExtension,0.2
;   horizontalSizeCompensation,0
G90
M82
M106 S255
M140 S60
M190 S60
M104 S220 T0
M104 S250 T1
M109 S220 T0
G28 ; home all axes
G29 ; run automatic bed leveling
; process Process1
; layer 1, Z = 0.240
T0
G92 E0.0000
G1 E-1.0000 F1800
; feature ooze shield
; tool H0.240 W0.720
G1 Z0.240 F1000
G1 X188.689 Y139.618 F4800
G1 E0.0000 F1800
G92 E0.0000
G1 X190.493 Y137.814 E0.1650 F1205
G1 X209.506 Y137.814 E1.3943
G1 X211.311 Y139.618 E1.5593
G1 X211.311 Y147.882 E2.0936
G1 X209.506 Y149.686 E2.2586
G1 X204.984 Y149.686 E2.5510
G1 X204.984 Y150.026 E2.5730
G1 X207.443 Y150.026 E2.7320
G1 X209.247 Y151.830 E2.8970
G1 X209.247 Y160.382 E3.4499
G1 X207.443 Y162.186 E3.6149
G1 X192.564 Y162.186 E4.5769
G1 X190.760 Y160.382 E4.7419
G1 X190.760 Y151.830 E5.2948
G1 X192.564 Y150.026 E5.4598
G1 X195.024 Y150.026 E5.6188
G1 X195.024 Y149.686 E5.6408
G1 X190.493 Y149.686 E5.9337
G1 X188.689 Y147.882 E6.0987
G1 X188.689 Y139.618 E6.6330
G92 E0.0000
G1 E-1.0000 F1800
; feature outer perimeter
G1 X194.200 Y153.466 F4800
G1 E0.0000 F1800
G92 E0.0000
G1 X198.251 Y153.466 E0.2619 F602
G1 X198.251 Y158.746 E0.6033
G1 X194.200 Y158.746 E0.8652
G1 X194.200 Y153.666 E1.1936
G1 X194.200 Y153.466 F602
G1 X198.251 Y153.466 F602
G1 X198.251 Y154.416
; feature inner perimeter
G1 X197.531 Y154.186 F4800
G92 E0.0000
G1 X197.531 Y155.310 E0.0727 F903
G1 X196.639 Y154.626 E0.1453
G1 X196.788 Y154.186 E0.1753
G1 X197.331 Y154.186 E0.2104
G1 X197.531 Y154.186 F903
G1 X197.531 Y156.890 F4800
G92 E0.0000
G1 X197.531 Y158.026 E0.0734 F903
G1 X196.773 Y158.026 E0.1224
G1 X196.623 Y157.586 E0.1525
G1 X197.372 Y157.012 E0.2135
G1 X197.531 Y156.890 F903
; feature outer perimeter
G1 X196.719 Y156.532 F4800
G92 E0.0000
G1 X196.806 Y156.323 E0.0146 F602
G1 X196.835 Y156.100 E0.0291
G1 X196.806 Y155.877 E0.0437
G1 X196.743 Y155.724 E0.0544
G1 X196.592 Y155.498 E0.0720
G1 X196.404 Y155.353 E0.0873
G1 X196.195 Y155.266 E0.1019
G1 X195.972 Y155.237 E0.1165
G1 X195.749 Y155.266 E0.1311
G1 X195.540 Y155.353 E0.1456
G1 X195.362 Y155.490 E0.1602
G1 X195.225 Y155.668 E0.1748
G1 X195.138 Y155.877 E0.1893
G1 X195.109 Y156.100 E0.2039
G1 X195.138 Y156.323 E0.2185
G1 X195.225 Y156.532 E0.2330
G1 X195.362 Y156.710 E0.2476
G1 X195.540 Y156.847 E0.2622
G1 X195.749 Y156.934 E0.2767
G1 X195.972 Y156.963 E0.2913
G1 X196.195 Y156.934 E0.3059
G1 X196.404 Y156.847 E0.3204
G1 X196.582 Y156.710 E0.3350
G1 X196.598 Y156.690 E0.3366
G1 X196.719 Y156.532 F602
G1 X196.806 Y156.323 F602
G1 X196.835 Y156.100
G1 X196.806 Y155.877
G1 X196.743 Y155.724
G1 X196.592 Y155.498
G1 X196.404 Y155.353
G1 X196.195 Y155.266
G1 X195.972 Y155.237
G1 X195.749 Y155.266
G1 X195.540 Y155.353
G1 X195.362 Y155.490
G1 X195.225 Y155.668
G1 X195.138 Y155.877
G1 X195.109 Y156.100
G1 X195.138 Y156.323
G1 X195.225 Y156.532
G1 X195.362 Y156.710
G1 X195.540 Y156.847
G1 X195.749 Y156.934
G1 X195.972 Y156.963
G1 X196.195 Y156.934
G1 X196.404 Y156.847
G1 X196.438 Y156.821
; feature gap fill
; tool H0.240 W0.480
G1 X195.911 Y157.451 F4800
G92 E0.0000
G1 X196.122 Y157.662 E0.0128 F1205
G1 X196.323 Y158.254 E0.0398
G1 X196.035 Y158.254 E0.0522
G1 X194.692 Y156.911 E0.1341
G1 X194.692 Y157.590 E0.1633
G1 X195.215 Y158.113 E0.1952
G1 X195.356 Y158.254 F1205
G1 X194.726 Y155.587 F4800
G92 E0.0000
G1 X194.692 Y155.553 E0.0020 F1205
G1 X194.692 Y154.875 E0.0313
G1 X194.987 Y155.170 E0.0493
G1 X195.011 Y155.139 E0.0510
G1 X195.292 Y154.923 E0.0663
G1 X195.382 Y154.886 E0.0704
G1 X194.692 Y154.196 E0.1125
G1 X194.692 Y153.958 E0.1227
G1 X195.133 Y153.958 E0.1418
G1 X195.923 Y154.747 E0.1899
G1 X195.972 Y154.741 E0.1920
G1 X196.068 Y154.753 E0.1962
G1 X196.205 Y154.351 E0.2145
G1 X195.954 Y154.099 E0.2299
G1 X195.812 Y153.958 F1205
G1 X197.325 Y156.149 F4800
G92 E0.0000
G1 X197.336 Y156.160 E0.0007 F1205
G1 X197.477 Y156.302 F1205
G92 E0.0000
G1 E-1.0000 F1800
; feature outer perimeter
; tool H0.240 W0.720
G1 X199.771 Y158.746 F4800
G1 E0.0000 F1800
G92 E0.0000
G1 X199.771 Y153.466 E0.3414 F602
G1 X200.229 Y153.466 E0.3711
G1 X200.229 Y158.746 E0.7125
G1 X199.971 Y158.746 E0.7292
G1 X199.771 Y158.746 F602
G92 E0.0000
G1 E-1.0000 F1800
G1 X199.771 Y153.746 F602
G1 X201.749 Y153.466 F4800
G1 E0.0000 F1800
G92 E0.0000
G1 X205.807 Y153.466 E0.2624 F602
G1 X205.807 Y158.746 E0.6038
G1 X201.749 Y158.746 E0.8661
G1 X201.749 Y153.666 E1.1946
G1 X201.749 Y153.466 F602
G1 X205.807 Y153.466 F602
G1 X205.807 Y154.408
; feature inner perimeter
G1 X203.368 Y154.626 F4800
G92 E0.0000
G1 X202.469 Y155.315 E0.0733 F903
G1 X202.469 Y154.186 E0.1463
G1 X203.219 Y154.186 E0.1948
G1 X203.304 Y154.436 E0.2119
G1 X203.368 Y154.626 F903
G1 X202.469 Y156.884 F4800
G92 E0.0000
G1 X203.384 Y157.586 E0.0745 F903
G1 X203.235 Y158.026 E0.1046
G1 X202.469 Y158.026 E0.1540
G1 X202.469 Y157.084 E0.2149
G1 X202.469 Y156.884 F903
; feature outer perimeter
G1 X203.288 Y156.532 F4800
G92 E0.0000
G1 X203.425 Y156.710 E0.0146 F602
G1 X203.604 Y156.847 E0.0291
G1 X203.812 Y156.934 E0.0437
G1 X204.035 Y156.963 E0.0583
G1 X204.259 Y156.934 E0.0728
G1 X204.411 Y156.871 E0.0835
G1 X204.638 Y156.720 E0.1011
G1 X204.783 Y156.532 E0.1165
G1 X204.869 Y156.323 E0.1311
G1 X204.899 Y156.100 E0.1456
G1 X204.869 Y155.877 E0.1602
G1 X204.783 Y155.668 E0.1748
G1 X204.646 Y155.490 E0.1893
G1 X204.467 Y155.353 E0.2039
G1 X204.259 Y155.266 E0.2185
G1 X204.035 Y155.237 E0.2330
G1 X203.812 Y155.266 E0.2476
G1 X203.604 Y155.353 E0.2622
G1 X203.425 Y155.490 E0.2767
G1 X203.288 Y155.668 E0.2913
G1 X203.202 Y155.877 E0.3059
G1 X203.172 Y156.100 E0.3204
G1 X203.202 Y156.323 E0.3350
G1 X203.211 Y156.347 E0.3366
G1 X203.288 Y156.532 F602
G1 X203.425 Y156.710 F602
G1 X203.604 Y156.847
G1 X203.812 Y156.934
G1 X204.035 Y156.963
G1 X204.259 Y156.934
G1 X204.411 Y156.871
G1 X204.638 Y156.720
G1 X204.783 Y156.532
G1 X204.869 Y156.323
G1 X204.899 Y156.100
G1 X204.869 Y155.877
G1 X204.783 Y155.668
G1 X204.646 Y155.490
G1 X204.467 Y155.353
G1 X204.259 Y155.266
G1 X204.035 Y155.237
G1 X203.812 Y155.266
G1 X203.604 Y155.353
G1 X203.425 Y155.490
G1 X203.288 Y155.668
G1 X203.202 Y155.877
G1 X203.172 Y156.100
G1 X203.178 Y156.144
; feature gap fill
; tool H0.240 W0.480
G1 X202.680 Y156.074 F4800
G92 E0.0000
G1 X202.657 Y156.051 E0.0014 F1205
G1 X202.515 Y155.909 F1205
G1 X204.066 Y154.745 F4800
G92 E0.0000
G1 X203.869 Y154.548 E0.0120 F1205
G1 X203.669 Y153.958 E0.0388
G1 X203.958 Y153.958 E0.0513
G1 X205.315 Y155.315 E0.1340
G1 X205.315 Y154.636 E0.1633
G1 X204.778 Y154.099 E0.1960
G1 X204.637 Y153.958 F1205
G1 X205.274 Y156.632 F4800
G92 E0.0000
G1 X205.315 Y156.673 E0.0025 F1205
G1 X205.315 Y157.352 E0.0318
G1 X205.009 Y157.045 E0.0504
G1 X204.978 Y157.085 E0.0526
G1 X204.643 Y157.307 E0.0699
G1 X204.607 Y157.322 E0.0716
G1 X205.315 Y158.030 E0.1148
G1 X205.315 Y158.254 E0.1244
G1 X204.860 Y158.254 E0.1441
G1 X204.062 Y157.456 E0.1927
G1 X204.035 Y157.459 E0.1939
G1 X203.958 Y157.449 E0.1973
G1 X203.810 Y157.883 E0.2170
G1 X204.040 Y158.113 E0.2310
G1 X204.181 Y158.254 F1205
G92 E0.0000
G1 E-12.0000 F600
T1
; feature ooze shield
; tool H0.240 W0.720
G1 X189.409 Y147.584 F4800
G92 E0.0000
G1 X189.409 Y139.916 E0.4957 F1205
G1 X190.792 Y138.534 E0.6221
G1 X209.208 Y138.534 E1.8129
G1 X210.591 Y139.916 E1.9393
G1 X210.591 Y147.584 E2.4351
G1 X209.208 Y148.966 E2.5615
G1 X204.264 Y148.966 E2.8812
G1 X204.264 Y150.746 E2.9963
G1 X207.145 Y150.746 E3.1825
G1 X208.527 Y152.128 E3.3090
G1 X208.527 Y160.084 E3.8233
G1 X207.145 Y161.466 E3.9497
G1 X192.863 Y161.466 E4.8732
G1 X191.480 Y160.084 E4.9996
G1 X191.480 Y152.128 E5.5139
G1 X192.863 Y150.746 E5.6404
G1 X195.744 Y150.746 E5.8266
G1 X195.744 Y148.966 E5.9417
G1 X190.792 Y148.966 E6.2619
G1 X189.409 Y147.584 E6.3883
G92 E0.0000
G1 E-1.0000 F1800
; feature support
G1 X192.150 Y141.600 F4800
G1 E0.0000 F1800
G92 E0.0000
G1 X207.850 Y141.600 E1.0151 F964
G1 X207.850 Y142.800 E1.0927
G1 X192.150 Y142.800 E2.1078
G1 X192.150 Y144.000 E2.1854
G1 X207.850 Y144.000 E3.2006
G1 X207.850 Y145.200 E3.2781
G1 X192.150 Y145.200 E4.2933
G1 X192.150 Y146.400 E4.3709
G1 X207.850 Y146.400 E5.3860
G1 X207.850 Y146.850 E5.4151
G1 X201.850 Y146.850 E5.8030
G1 X201.850 Y147.600 E5.8515
G1 X198.150 Y147.600 E6.0908
G1 X198.150 Y148.800 E6.1683
G1 X201.850 Y148.800 E6.4076
G1 X201.850 Y150.000 E6.4852
G1 X198.150 Y150.000 E6.7244
G1 X198.150 Y151.200 E6.8020
G1 X201.850 Y151.200 E7.0412
G1 X201.850 Y152.400 E7.1188
G1 X198.350 Y152.400 E7.3451
G1 X198.150 Y152.400 F964
G92 E0.0000
G1 E-12.0000 F600
; layer 2, Z = 0.440
T0
; feature ooze shield
; tool H0.200 W0.480
G1 Z0.440 F1000
G1 X210.951 Y147.733 F4800
G1 E-0.5000 F600
G92 E0.0000
G1 X209.357 Y149.326 E0.0809 F1320
G1 X204.624 Y149.326 E0.2510
G1 X204.624 Y150.386 E0.2891
G1 X207.294 Y150.386 E0.3850
G1 X208.887 Y151.979 E0.4659
G1 X208.887 Y160.233 E0.7624
G1 X207.294 Y161.826 E0.8433
G1 X192.714 Y161.826 E1.3671
G1 X191.120 Y160.233 E1.4480
G1 X191.120 Y151.979 E1.7445
G1 X192.714 Y150.386 E1.8254
G1 X195.384 Y150.386 E1.9213
G1 X195.384 Y149.326 E1.9594
G1 X190.643 Y149.326 E2.1297
G1 X189.049 Y147.733 E2.2106
G1 X189.049 Y139.767 E2.4968
G1 X190.643 Y138.174 E2.5777
G1 X209.357 Y138.174 E3.2500
G1 X210.951 Y139.767 E3.3309
G1 X210.951 Y147.733 E3.6170
G92 E0.0000
G1 E-1.0000 F1800
; feature outer perimeter
G1 X198.420 Y153.346 F4800
G1 E0.0000 F1800
G92 E0.0000
G1 X198.420 Y158.866 E0.1983 F660
G1 X194.080 Y158.866 E0.3542
G1 X194.080 Y153.346 E0.5525
G1 X198.220 Y153.346 E0.7012
G1 X198.420 Y153.346 F660
G1 X198.420 Y158.346 F660
; feature inner perimeter
G1 X197.940 Y158.386 F4800
G92 E0.0000
G1 X196.956 Y158.386 E0.0354 F990
G1 X197.620 Y157.236 E0.0831
G1 X197.940 Y157.322 E0.0950
G1 X197.940 Y158.186 E0.1260
G1 X197.940 Y158.386 F990
G1 X197.620 Y154.964 F4800
G92 E0.0000
G1 X196.963 Y153.826 E0.0472 F990
G1 X197.940 Y153.826 E0.0823
G1 X197.940 Y154.878 E0.1201
G1 X197.813 Y154.912 E0.1248
G1 X197.620 Y154.964 F990
; feature outer perimeter
G1 X196.847 Y154.585 F4800
G92 E0.0000
G1 X195.097 Y154.585 E0.0628 F660
G1 X194.223 Y156.100 E0.1257
G1 X195.097 Y157.615 E0.1885
G1 X196.847 Y157.615 E0.2514
G1 X197.721 Y156.100 E0.3142
G1 X196.947 Y154.758 E0.3699
G1 X196.847 Y154.585 F660
G1 X195.097 Y154.585 F660
G1 X194.223 Y156.100
G1 X194.973 Y157.400
; feature gap fill
G1 X194.488 Y157.548 F4800
G92 E0.0000
G1 X194.551 Y157.485 E0.0032 F1320
G1 X194.800 Y157.916 E0.0211
G1 X194.488 Y158.227 E0.0369
G1 X194.488 Y158.458 E0.0452
G1 X194.936 Y158.458 E0.0613
G1 X195.371 Y158.023 E0.0834
G1 X196.050 Y158.023 E0.1077
G1 X195.615 Y158.458 E0.1298
