; generated by CreatWare 7.0.0 on 2022-07-13 at 23:27:48 UTC

; 

; external perimeters extrusion width = 0.40mm
; perimeters extrusion width = 0.40mm
; infill extrusion width = 0.40mm
; solid infill extrusion width = 0.40mm
; top infill extrusion width = 0.40mm
; support material extrusion width = 0.40mm

G21 ; set units to millimeters
G90 ; use absolute coordinates
M82 ; use absolute distances for extrusion
G92 E0
M107
M190 S45 ; set bed temperature and wait for it to be reached
M104 S220 T0 ; set temperature
M104 S255 T1 ; set temperature
;TYPE:Custom
M109 S220 T0 ; set temperature and wait for it to be reached
M109 S255 T1 ; set temperature and wait for it to be reached
M6013 S0 ; set chamber temp

G28 X0 Y0  ;move X/Y to min endstops
G28 Z0     ;move Z to min endstops

;Add Clear Nozzle
G92 E0                   ;zero the extruded length again
G0 F4200 X0 Y0
G0 F400 X10 Z0.4         ;move a bit while down the Z
M221 T0 S300             ;set flow is 300%
G1 F200 X30 E8          ;extrude amont filament to clean the hotend
M221 T0 S100             ;reset flow is 100%
G92 E0                   ;zero the extruded length again
;Add End

G0 Z15.0 F4200 ;move the platform down 15mm

;Put printing message on LCD screen
M117 Printing...
T0
G92 E0
; Filament gcode
M107
;LAYER_CHANGE
;Layer 1
;Z:0.2
;HEIGHT:0.2
;BEFORE_LAYER_CHANGE
;0.2


G1 E-2 F1800
G92 E0
G1 Z.2 F4200
;AFTER_LAYER_CHANGE
;G92 E0   ;zero the extruded length again
;0.2
G1 X183.701 Y130.928
G1 E2 F1800
;TYPE:Skirt/Brim
;WIDTH:0.4
G1 F720
G1 X185.65 Y129.54 E2.08525
G1 X188.301 Y128.961 E2.18193
G1 X211.699 Y128.961 E3.01559
G1 X213.91 Y129.358 E3.09563
G1 X216.299 Y130.928 E3.19748
G1 X217.581 Y132.772 E3.2775
G1 X218.161 Y135.423 E3.37419
G1 X218.161 Y150.057 E3.89559
G1 X217.871 Y151.953 E3.96393
G1 X213.956 Y164.481 E4.43158
G1 X212.918 Y166.473 E4.51161
G1 X211.251 Y167.979 E4.59165
G1 X209.165 Y168.812 E4.67168
G1 X207.888 Y168.942 E4.71741
G1 X191.992 Y168.942 E5.28378
G1 X189.781 Y168.545 E5.36382
G1 X187.847 Y167.404 E5.44383
G1 X186.119 Y165.017 E5.54882
G1 X185.819 Y164.214 E5.57936
G1 X182.115 Y152.034 E6.03295
G1 X181.839 Y150.185 E6.09956
G1 X181.839 Y135.423 E6.62552
G1 X182.236 Y133.212 E6.70556
G1 X183.669 Y130.978 E6.80012
;WIPE_START
G1 F3360
G1 X185.65 Y129.54 E5.55431
G1 X187.098 Y129.224 E4.80012
;WIPE_END
G92 E0
G1 X193.31 Y151.554 F4200
G1 E2 F1800
G1 F720
G1 X193.534 Y151.503 E2.00819
G1 X198.921 Y151.503 E2.20013
G1 X199.019 Y151.518 E2.20366
G1 X199.125 Y151.499 E2.2075
G1 X200.875 Y151.499 E2.26985
G1 X200.989 Y151.521 E2.27399
G1 X201.104 Y151.499 E2.27816
G1 X206.439 Y151.499 E2.46824
G1 X206.699 Y151.555 E2.47772
G1 X207.003 Y151.698 E2.48969
G1 X207.504 Y152.171 E2.51424
G1 X207.717 Y152.572 E2.53042
G1 X207.774 Y152.835 E2.54001
G1 X207.774 Y159.377 E2.7731
G1 X207.718 Y159.638 E2.78261
G1 X207.575 Y159.941 E2.79455
G1 X207.102 Y160.443 E2.81912
G1 X206.701 Y160.656 E2.8353
G1 X206.438 Y160.713 E2.84489
G1 X201.104 Y160.713 E3.03494
G1 X200.989 Y160.691 E3.03911
G1 X200.875 Y160.713 E3.04325
G1 X199.125 Y160.713 E3.1056
G1 X199.011 Y160.691 E3.10974
G1 X198.896 Y160.713 E3.11391
G1 X193.569 Y160.713 E3.30371
G1 X193.308 Y160.657 E3.31322
G1 X193.005 Y160.514 E3.32516
G1 X192.503 Y160.041 E3.34973
G1 X192.291 Y159.64 E3.36589
G1 X192.233 Y159.377 E3.37549
G1 X192.233 Y152.835 E3.60858
G1 X192.291 Y152.572 E3.61818
G1 X192.503 Y152.171 E3.63434
G1 X193.005 Y151.698 E3.65891
G1 X193.255 Y151.58 E3.66876
G1 X193.408 Y151.903 F4200
G1 F720
G1 X193.587 Y151.856 E3.67535
G1 X198.899 Y151.86 E3.86461
G1 X199.026 Y151.885 E3.86922
G1 X199.15 Y151.856 E3.87376
G1 X200.849 Y151.856 E3.93429
G1 X200.989 Y151.89 E3.93942
G1 X201.129 Y151.856 E3.94455
G1 X206.42 Y151.856 E4.13307
G1 X206.566 Y151.887 E4.13839
G1 X206.822 Y152.008 E4.14848
G1 X207.233 Y152.405 E4.16884
G1 X207.387 Y152.71 E4.18101
G1 X207.417 Y152.853 E4.18622
G1 X207.417 Y159.359 E4.41803
G1 X207.387 Y159.505 E4.42334
G1 X207.265 Y159.761 E4.43344
G1 X206.868 Y160.172 E4.4538
G1 X206.563 Y160.326 E4.46597
G1 X206.42 Y160.356 E4.47118
G1 X201.129 Y160.356 E4.6597
G1 X200.989 Y160.322 E4.66483
G1 X200.849 Y160.356 E4.66996
G1 X199.151 Y160.356 E4.73046
G1 X199.011 Y160.322 E4.73559
G1 X198.871 Y160.356 E4.74072
G1 X193.587 Y160.356 E4.92899
G1 X193.442 Y160.325 E4.93427
G1 X193.185 Y160.204 E4.94439
G1 X192.775 Y159.807 E4.96472
G1 X192.62 Y159.502 E4.97691
G1 X192.59 Y159.359 E4.98212
G1 X192.59 Y152.853 E5.21393
G1 X192.62 Y152.71 E5.21914
G1 X192.775 Y152.405 E5.23133
G1 X193.185 Y152.008 E5.25166
G1 X193.354 Y151.928 E5.25832
G1 X193.506 Y152.251 F4200
G1 F720
G1 X193.604 Y152.213 E5.26207
G1 X198.847 Y152.213 E5.44888
G1 X199.002 Y152.27 E5.45476
G1 X199.184 Y152.213 E5.46156
G1 X200.816 Y152.213 E5.51971
G1 X200.989 Y152.267 E5.52617
G1 X201.163 Y152.213 E5.53266
G1 X206.404 Y152.213 E5.71939
G1 X206.641 Y152.317 E5.72861
G1 X206.956 Y152.633 E5.74451
G1 X207.06 Y152.869 E5.7537
G1 X207.06 Y159.343 E5.98437
G1 X206.956 Y159.579 E5.99356
G1 X206.641 Y159.895 E6.00946
G1 X206.404 Y159.999 E6.01868
G1 X201.163 Y159.999 E6.20541
G1 X200.989 Y159.945 E6.2119
G1 X200.816 Y159.999 E6.21836
G1 X199.184 Y159.999 E6.27651
G1 X199.011 Y159.945 E6.28297
G1 X198.837 Y159.999 E6.28946
G1 X193.604 Y159.999 E6.47591
G1 X193.367 Y159.895 E6.48513
G1 X193.051 Y159.579 E6.50105
G1 X192.948 Y159.343 E6.51022
G1 X192.948 Y152.869 E6.74089
G1 X193.051 Y152.633 E6.75006
G1 X193.367 Y152.317 E6.76598
G1 X193.452 Y152.277 E6.76933
G1 X193.591 Y152.598 F4200
G1 F720
G1 X193.657 Y152.57 E6.77188
G1 X198.794 Y152.57 E6.95491
G1 X198.86 Y152.598 E6.95746
G1 X199.011 Y152.749 E6.96507
G1 X199.161 Y152.598 E6.97265
G1 X199.227 Y152.57 E6.9752
G1 X200.773 Y152.57 E7.03028
G1 X200.839 Y152.598 E7.03283
G1 X200.989 Y152.749 E7.04041
G1 X201.14 Y152.598 E7.04802
G1 X201.206 Y152.57 E7.05057
G1 X206.351 Y152.57 E7.23388
G1 X206.416 Y152.598 E7.2364
G1 X206.676 Y152.857 E7.24948
G1 X206.703 Y152.923 E7.25202
G1 X206.703 Y159.289 E7.47884
G1 X206.676 Y159.355 E7.48138
G1 X206.416 Y159.614 E7.49446
G1 X206.351 Y159.642 E7.49698
G1 X201.206 Y159.642 E7.68029
G1 X201.14 Y159.614 E7.68284
G1 X200.989 Y159.463 E7.69045
G1 X200.839 Y159.614 E7.69803
G1 X200.773 Y159.642 E7.70058
G1 X199.227 Y159.642 E7.75566
G1 X199.161 Y159.614 E7.75821
G1 X199.011 Y159.463 E7.76579
G1 X198.86 Y159.614 E7.7734
G1 X198.794 Y159.642 E7.77595
G1 X193.657 Y159.642 E7.95898
G1 X193.591 Y159.614 E7.96153
G1 X193.332 Y159.355 E7.97458
G1 X193.305 Y159.289 E7.97712
G1 X193.305 Y152.923 E8.20394
G1 X193.332 Y152.857 E8.20648
G1 X193.549 Y152.64 E8.21741
;WIPE_START
G1 F3360
G1 X193.657 Y152.57 E8.15191
G1 X197.458 Y152.57 E6.21741
;WIPE_END
G92 E0
G1 X201.211 Y153.032 F4200
G1 E2 F1800
G1 F720
G1 X201.316 Y152.927 E2.00529
G1 X206.241 Y152.927 E2.18077
G1 X206.346 Y153.032 E2.18606
G1 X206.346 Y159.18 E2.40511
G1 X206.241 Y159.285 E2.4104
G1 X201.316 Y159.285 E2.58588
G1 X201.211 Y159.18 E2.59117
G1 X201.211 Y153.092 E2.80808
G1 X200.768 Y153.092 F4200
G1 F720
G1 X200.768 Y159.18 E3.02499
G1 X200.663 Y159.285 E3.03028
G1 X199.337 Y159.285 E3.07752
G1 X199.232 Y159.18 E3.08281
G1 X199.232 Y153.032 E3.30186
G1 X199.337 Y152.927 E3.30715
G1 X200.663 Y152.927 E3.35439
G1 X200.768 Y153.032 E3.35968
;WIPE_START
G1 F3360
G1 X200.768 Y156.962 E1.35968
;WIPE_END
G92 E0
G1 X198.789 Y153.032 F4200
G1 E2 F1800
G1 F720
G1 X198.789 Y159.18 E2.21905
G1 X198.684 Y159.285 E2.22434
G1 X193.766 Y159.285 E2.39957
G1 X193.662 Y159.18 E2.40484
G1 X193.662 Y153.032 E2.62389
G1 X193.766 Y152.927 E2.62916
G1 X198.684 Y152.927 E2.80439
G1 X198.747 Y152.99 E2.80756
;WIPE_START
G1 F3360
G1 X198.774 Y156.92 E.80756
;WIPE_END
G92 E0
G1 X201.589 Y153.306 F4200
G1 E2 F1800
;TYPE:External perimeter
G1 F270
G1 X205.967 Y153.306 E2.15599
G1 X205.967 Y158.906 E2.35552
G1 X201.589 Y158.906 E2.51151
G1 X201.589 Y153.366 E2.7089
G1 X201.971 Y153.425 F4200
G1 X201.947 Y153.663
;TYPE:Inner perimeter
G1 F270
G1 X205.61 Y153.663 E2.83941
G1 X205.61 Y158.549 E3.0135
G1 X201.947 Y158.549 E3.14401
G1 X201.947 Y153.723 E3.31596
G1 E1.31596 F1800
G92 E0
G1 X203.539 Y155.604 F4200
G1 E2 F1800
;TYPE:External perimeter
G1 F270
G1 X203.691 Y155.487 E2.00683
G1 X203.94 Y155.408 E2.01614
G1 X204.209 Y155.419 E2.02573
G1 X204.394 Y155.496 E2.03287
G1 X204.587 Y155.671 E2.04215
G1 X204.712 Y155.909 E2.05173
G1 X204.737 Y156.1 E2.05859
G1 X204.713 Y156.282 E2.06513
G1 X204.64 Y156.459 E2.07195
G1 X204.465 Y156.652 E2.08123
G1 X204.226 Y156.777 E2.09084
G1 X204.035 Y156.802 E2.0977
G1 X203.854 Y156.778 E2.10421
G1 X203.685 Y156.708 E2.11073
G1 X203.539 Y156.596 E2.11729
G1 X203.428 Y156.451 E2.1238
G1 X203.358 Y156.282 E2.13032
G1 X203.334 Y156.1 E2.13686
G1 X203.358 Y155.918 E2.1434
G1 X203.428 Y155.749 E2.14992
G1 X203.503 Y155.651 E2.15432
G1 X203.49 Y155.419 F4200
G1 X203.219 Y155.434
;TYPE:Inner perimeter
G1 F270
G1 X203.285 Y155.349 E2.15815
G1 X203.523 Y155.166 E2.16885
G1 X203.891 Y155.048 E2.18262
G1 X204.286 Y155.064 E2.19671
G1 X204.588 Y155.19 E2.20837
G1 X204.874 Y155.449 E2.22212
G1 X205.058 Y155.8 E2.23624
G1 X205.097 Y156.1 E2.24702
G1 X205.061 Y156.375 E2.2569
G1 X204.946 Y156.653 E2.26762
G1 X204.686 Y156.939 E2.28139
G1 X204.336 Y157.122 E2.29546
G1 X204.035 Y157.162 E2.30628
G1 X203.761 Y157.126 E2.31613
G1 X203.505 Y157.02 E2.326
G1 X203.285 Y156.851 E2.33588
G1 X203.116 Y156.631 E2.34576
G1 X203.01 Y156.375 E2.35563
G1 X202.974 Y156.1 E2.36551
G1 X203.01 Y155.825 E2.37539
G1 X203.116 Y155.569 E2.38526
G1 X203.183 Y155.482 E2.38917
G1 E.38917 F1800
G92 E0
G1 X203.2 Y155.495 F4200
G1 X203.3 Y155.364
G1 X203.515 Y155.199
G1 X203.766 Y155.095
G1 X204.035 Y155.06
G1 X204.305 Y155.095
G1 X204.556 Y155.199
G1 X204.771 Y155.364
G1 X204.851 Y155.469
G1 X204.919 Y155.557
G1 X205.087 Y155.429
G1 E2 F1800
;TYPE:Gap fill
;WIDTH:0.128958
G1 F360
G1 X205.159 Y155.521 E2.001
;WIDTH:0.166995
G1 X205.231 Y155.614 E2.00246
;WIDTH:0.205032
G1 X205.302 Y155.707 E2.00435
;WIDTH:0.221198
G1 X205.319 Y155.733 E2.0049
;WIDTH:0.241146
G1 X205.333 Y155.759 E2.00548
;WIDTH:0.241144
G1 X205.354 Y156.09 E2.01204
;WIDTH:0.19775
G1 X205.354 Y156.11 E2.01235
;WIDTH:0.228979
G1 X205.329 Y156.497 E2.01955
G1 X205.161 Y156.652 F4200
;WIDTH:0.12894
G1 F360
G1 X205.227 Y156.549 E2.0206
;WIDTH:0.166961
G1 X205.292 Y156.445 E2.02212
;WIDTH:0.175111
G1 X205.432 Y156.19 E2.02596
G1 E.02596 F1800
G92 E0
G1 X204.771 Y153.77 F4200
G1 E2 F1800
;TYPE:Solid infill
;WIDTH:0.404978
G1 F576
G1 X205.342 Y154.342 E2.0292
G1 X205.342 Y154.854 E2.0477
G1 X204.419 Y153.931 E2.09486
G1 X203.907 Y153.931 E2.11336
G1 X205.076 Y155.099 E2.17306
G1 X204.974 Y155.178 E2.17772
G1 X204.734 Y154.96 E2.18943
G1 X204.345 Y154.799 E2.20464
G1 X204.26 Y154.795 E2.20771
G1 X203.395 Y153.931 E2.25188
G1 X202.883 Y153.931 E2.27038
G1 X203.761 Y154.809 E2.31524
G1 X203.379 Y154.939 E2.32982
G1 X202.371 Y153.931 E2.38132
G1 X202.214 Y153.931 E2.38699
G1 X202.214 Y154.286 E2.39981
G1 X203.091 Y155.162 E2.44459
G1 X202.873 Y155.456 E2.45781
G1 X202.214 Y154.798 E2.49145
G1 X202.214 Y155.31 E2.50995
G1 X202.882 Y155.977 E2.54405
G1 E.54405 F1800
G92 E0
G1 X203.009 Y155.994 F4200
G1 X202.995 Y156.1
G1 X203.031 Y156.369
G1 X203.135 Y156.62
G1 X203.3 Y156.836
G1 X203.515 Y157.001
G1 X203.766 Y157.105
G1 X204.035 Y157.14
G1 X204.305 Y157.105
G1 X204.556 Y157.001
G1 X204.666 Y156.916
G1 X204.771 Y156.836
G1 X204.848 Y156.92
G1 E2 F1800
G1 F576
G1 X205.342 Y157.414 E2.02524
G1 X205.342 Y157.926 E2.04374
G1 X204.667 Y157.251 E2.07823
G1 X204.418 Y157.382 E2.08839
G1 X204.301 Y157.397 E2.09265
G1 X205.185 Y158.281 E2.13781
G1 X204.673 Y158.281 E2.15631
G1 X203.792 Y157.4 E2.20132
G1 X203.691 Y157.387 E2.205
G1 X203.369 Y157.254 E2.21759
G1 X203.094 Y157.042 E2.23013
G1 X202.882 Y156.766 E2.2427
G1 X202.749 Y156.445 E2.25525
G1 X202.736 Y156.343 E2.25896
G1 X202.214 Y155.822 E2.2856
G1 X202.214 Y156.334 E2.3041
G1 X204.161 Y158.281 E2.40357
G1 X203.649 Y158.281 E2.42207
G1 X202.214 Y156.846 E2.49538
G1 X202.214 Y157.358 E2.51388
G1 X203.137 Y158.281 E2.56104
G1 X202.625 Y158.281 E2.57954
G1 X202.054 Y157.71 E2.60871
;WIPE_START
G1 F3360
G1 X202.625 Y158.281 E2.19774
G1 X203.137 Y158.281 E1.93717
G1 X202.214 Y157.358 E1.27286
G1 X202.214 Y156.846 E1.01229
G1 X202.775 Y157.407 E.60871
;WIPE_END
G92 E0
G1 X201.925 Y157.941 F4200
G1 X200.389 Y158.906
G1 E2 F1800
;TYPE:External perimeter
;WIDTH:0.4
G1 F270
G1 X199.611 Y158.906 E2.02772
G1 X199.611 Y153.306 E2.22725
G1 X200.389 Y153.306 E2.25497
G1 X200.389 Y158.846 E2.45236
G1 X200.034 Y158.722 F4200
G1 X200 Y158.727
;TYPE:Gap fill
;WIDTH:0.46477
G1 F360
G1 X200 Y153.485 E2.67301
G1 E.67301 F1800
G92 E0
G1 X198.411 Y153.485 F4200
G1 E2 F1800
;TYPE:External perimeter
;WIDTH:0.4
G1 F270
G1 X198.411 Y158.906 E2.19315
G1 X194.04 Y158.906 E2.34889
G1 X194.04 Y153.306 E2.54842
G1 X198.411 Y153.306 E2.70416
G1 X198.411 Y153.425 E2.7084
G1 X198.206 Y153.828 F4200
G1 X198.053 Y153.663
;TYPE:Inner perimeter
G1 F270
G1 X198.053 Y158.549 E2.88249
G1 X194.397 Y158.549 E3.01275
G1 X194.397 Y153.663 E3.18684
G1 X197.993 Y153.663 E3.31496
G1 E1.31496 F1800
G92 E0
G1 X196.331 Y155.496 F4200
G1 E2 F1800
;TYPE:External perimeter
G1 F270
G1 X196.524 Y155.671 E2.00928
G1 X196.653 Y155.917 E2.01918
G1 X196.665 Y156.187 E2.02881
G1 X196.585 Y156.444 E2.0384
G1 X196.468 Y156.596 E2.04523
G1 X196.323 Y156.708 E2.05176
G1 X196.154 Y156.778 E2.05828
G1 X195.972 Y156.802 E2.06482
G1 X195.79 Y156.778 E2.07136
G1 X195.621 Y156.708 E2.07788
G1 X195.476 Y156.596 E2.08441
G1 X195.364 Y156.451 E2.09094
G1 X195.294 Y156.282 E2.09746
G1 X195.27 Y156.1 E2.104
G1 X195.294 Y155.918 E2.11054
G1 X195.364 Y155.749 E2.11706
G1 X195.476 Y155.604 E2.12359
G1 X195.628 Y155.487 E2.13042
G1 X195.876 Y155.408 E2.13969
G1 X196.145 Y155.419 E2.14928
G1 X196.275 Y155.473 E2.1543
G1 X196.561 Y155.373 F4200
G1 X196.525 Y155.19
;TYPE:Inner perimeter
G1 F270
G1 X196.811 Y155.449 E2.16805
G1 X197.006 Y155.821 E2.18301
G1 X197.025 Y156.233 E2.1977
G1 X196.907 Y156.611 E2.21181
G1 X196.723 Y156.851 E2.22258
G1 X196.503 Y157.02 E2.23246
G1 X196.247 Y157.126 E2.24233
G1 X195.972 Y157.162 E2.25221
G1 X195.697 Y157.126 E2.26209
G1 X195.441 Y157.02 E2.27196
G1 X195.221 Y156.851 E2.28184
G1 X195.052 Y156.631 E2.29172
G1 X194.946 Y156.375 E2.30159
G1 X194.91 Y156.1 E2.31147
G1 X194.946 Y155.825 E2.32135
G1 X195.052 Y155.569 E2.33122
G1 X195.221 Y155.349 E2.3411
G1 X195.46 Y155.166 E2.35183
G1 X195.828 Y155.048 E2.3656
G1 X196.223 Y155.064 E2.37969
G1 X196.469 Y155.167 E2.38919
G1 E.38919 F1800
G92 E0
G1 X197.946 Y154.502 F4200
G1 E2 F1800
;TYPE:Solid infill
;WIDTH:0.404648
G1 F576
G1 X197.375 Y153.931 E2.02915
G1 X196.864 Y153.931 E2.04759
G1 X197.786 Y154.853 E2.09465
G1 X197.786 Y155.364 E2.11309
G1 X196.352 Y153.931 E2.18626
G1 X195.841 Y153.931 E2.2047
G1 X197.786 Y155.876 E2.30398
G1 X197.786 Y156.387 E2.32242
G1 X197.276 Y155.878 E2.34843
G1 X197.27 Y155.749 E2.35309
G1 X197.026 Y155.283 E2.37208
G1 X196.671 Y154.96 E2.3894
G1 X196.281 Y154.799 E2.40463
G1 X196.193 Y154.795 E2.40781
G1 X195.329 Y153.931 E2.45191
G1 X194.818 Y153.931 E2.47035
G1 X195.696 Y154.809 E2.51517
G1 X195.315 Y154.94 E2.52971
G1 X194.665 Y154.29 E2.56289
G1 X194.665 Y154.802 E2.58137
G1 X195.141 Y155.278 E2.60567
G1 E.60567 F1800
G92 E0
G1 X195.236 Y155.364 F4200
G1 X195.452 Y155.199
G1 X195.703 Y155.095
G1 X195.972 Y155.06
G1 X196.241 Y155.095
G1 X196.492 Y155.199
G1 X196.708 Y155.364
G1 X196.873 Y155.58
G1 X196.977 Y155.831
G1 X197.012 Y156.1
G1 X196.995 Y156.228
G1 X197.133 Y156.246
G1 E2 F1800
G1 F576
G1 X197.786 Y156.899 E2.03333
G1 X197.786 Y157.411 E2.05181
G1 X197.132 Y156.757 E2.08519
G1 X196.909 Y157.046 E2.09837
G1 X197.786 Y157.922 E2.14311
G1 X197.786 Y158.281 E2.15607
G1 X197.633 Y158.281 E2.16159
G1 X196.615 Y157.263 E2.21355
G1 X196.317 Y157.387 E2.2252
G1 X196.237 Y157.397 E2.22811
G1 X197.122 Y158.281 E2.27326
G1 X196.61 Y158.281 E2.29174
G1 X195.729 Y157.4 E2.33671
G1 X195.627 Y157.387 E2.34042
G1 X195.306 Y157.254 E2.35296
G1 X195.114 Y157.106 E2.36171
G1 X194.946 Y157.128 E2.36783
G1 X196.098 Y158.281 E2.42666
G1 X195.587 Y158.281 E2.4451
