; generated by CreatWare 7.0.0 on 2022-06-05 at 04:04:08 UTC

; 

; external perimeters extrusion width = 0.40mm
; perimeters extrusion width = 0.40mm
; infill extrusion width = 0.40mm
; solid infill extrusion width = 0.40mm
; top infill extrusion width = 0.40mm

G21 ; set units to millimeters
G90 ; use absolute coordinates
M82 ; use absolute distances for extrusion
G92 E0
M107
M190 S130 ; set bed temperature and wait for it to be reached
M104 S440 T1 ; set temperature
;TYPE:Custom
M109 S440 T1 ; set temperature and wait for it to be reached
M6013 S70 ; set chamber temp

G28 X0 Y0  ;move X/Y to min endstops
G28 Z0     ;move Z to min endstops

;Add Clear Nozzle
G92 E0                   ;zero the extruded length again
G0 F4200 X0 Y0
G0 F400 X10 Z0.4         ;move a bit while down the Z
M221 T0 S300             ;set flow is 300%
G1 F200 X30 E8          ;extrude amont filament to clean the hotend
M221 T0 S100             ;reset flow is 100%
G92 E0                   ;zero the extruded length again
;Add End

G0 Z15.0 F4200 ;move the platform down 15mm

;Put printing message on LCD screen
M117 Printing...
T1
G92 E0
M107
;LAYER_CHANGE
;Layer 1
;Z:0.2
;HEIGHT:0.2
;BEFORE_LAYER_CHANGE
;0.2


G1 E-2 F1800
G92 E0
G1 Z.2 F4200
;AFTER_LAYER_CHANGE
;G92 E0   ;zero the extruded length again
;0.2
G1 X115.291 Y139.802
G1 E2 F1800
;TYPE:Skirt/Brim
;WIDTH:0.4
G1 F540
G1 X116.463 Y138.63 E2.05905
G1 X118.307 Y137.347 E2.13909
G1 X120.958 Y136.768 E2.23577
G1 X133.042 Y136.768 E2.66632
G1 X135.253 Y137.165 E2.74636
G1 X137.537 Y138.63 E2.84304
G1 X138.709 Y139.801 E2.90207
G1 X139.991 Y141.645 E2.98209
G1 X140.571 Y144.297 E3.07881
G1 X140.571 Y155.703 E3.4852
G1 X140.174 Y157.914 E3.56524
G1 X138.709 Y160.199 E3.66195
G1 X137.537 Y161.37 E3.72098
G1 X135.693 Y162.653 E3.80102
G1 X133.042 Y163.232 E3.8977
G1 X120.958 Y163.232 E4.32825
G1 X118.747 Y162.835 E4.40829
G1 X116.463 Y161.37 E4.50497
G1 X115.291 Y160.199 E4.564
G1 X114.009 Y158.355 E4.64402
G1 X113.429 Y155.703 E4.74074
G1 X113.429 Y144.297 E5.14713
G1 X113.826 Y142.086 E5.22717
G1 X115.259 Y139.852 E5.32173
;WIPE_START
G1 F3360
G1 X116.463 Y138.63 E4.44867
G1 X118.281 Y137.365 E3.32173
;WIPE_END
G92 E0
G1 X120.396 Y144.264 F4200
G1 E2 F1800
G1 F540
G1 X120.891 Y143.759 E2.0252
G1 X121.25 Y143.576 E2.03956
G1 X121.48 Y143.522 E2.04798
G1 X126.658 Y143.522 E2.23247
G1 X126.836 Y143.558 E2.23894
G1 X127.006 Y143.625 E2.24545
G1 X127.363 Y143.518 E2.25873
G1 X132.52 Y143.522 E2.44247
G1 X132.749 Y143.576 E2.45085
G1 X133.155 Y143.793 E2.46725
G1 X133.624 Y144.29 E2.4916
G1 X133.681 Y144.39 E2.4957
G1 X133.82 Y144.839 E2.51245
G1 X133.819 Y147.202 E2.59664
G1 X133.721 Y147.836 E2.6195
G1 X133.461 Y148.443 E2.64303
G1 X133.084 Y148.939 E2.66523
G1 X132.591 Y149.337 E2.6878
G1 X132.279 Y149.482 E2.70006
G1 X132.31 Y149.74 E2.70932
G1 X132.749 Y149.826 E2.72526
G1 X133.146 Y150.036 E2.74126
G1 X133.584 Y150.485 E2.76361
G1 X133.763 Y150.84 E2.77778
G1 X133.817 Y151.069 E2.78616
G1 X133.82 Y153.011 E2.85535
G1 X133.799 Y153.125 E2.85948
G1 X133.82 Y153.24 E2.86365
G1 X133.817 Y155.182 E2.93284
G1 X133.763 Y155.41 E2.94119
G1 X133.545 Y155.816 E2.95761
G1 X133.048 Y156.285 E2.98196
G1 X132.948 Y156.343 E2.98608
G1 X132.5 Y156.482 E3.00279
G1 X121.516 Y156.482 E3.39415
G1 X121.252 Y156.424 E3.40378
G1 X120.845 Y156.207 E3.42021
G1 X120.376 Y155.71 E3.44456
G1 X120.319 Y155.61 E3.44866
G1 X120.18 Y155.161 E3.46541
G1 X120.18 Y153.239 E3.53389
G1 X120.201 Y153.125 E3.53802
G1 X120.18 Y153.011 E3.54215
G1 X120.18 Y151.089 E3.61063
G1 X120.319 Y150.64 E3.62738
G1 X120.376 Y150.54 E3.63148
G1 X120.845 Y150.043 E3.65583
G1 X121.295 Y149.811 E3.67387
G1 X121.688 Y149.743 E3.68808
G1 X121.723 Y149.483 E3.69743
G1 X121.409 Y149.337 E3.70977
G1 X120.916 Y148.94 E3.73232
G1 X120.517 Y148.406 E3.75607
G1 X120.268 Y147.795 E3.77958
G1 X120.181 Y147.203 E3.8009
G1 X120.18 Y144.839 E3.88513
G1 X120.318 Y144.393 E3.90176
G1 X120.365 Y144.315 E3.905
G1 X120.665 Y144.5 F4200
G1 F540
G1 X121.081 Y144.063 E3.9265
G1 X121.393 Y143.904 E3.93898
G1 X121.501 Y143.879 E3.94293
G1 X126.637 Y143.879 E4.12592
G1 X126.739 Y143.902 E4.12965
G1 X126.993 Y144.007 E4.13944
G1 X127.394 Y143.875 E4.15448
G1 X132.499 Y143.879 E4.33637
G1 X132.607 Y143.904 E4.34032
G1 X132.919 Y144.063 E4.3528
G1 X133.332 Y144.496 E4.37412
G1 X133.463 Y144.869 E4.38821
G1 X133.462 Y147.189 E4.47087
G1 X133.382 Y147.72 E4.49
G1 X133.163 Y148.246 E4.5103
G1 X132.814 Y148.705 E4.53084
G1 X132.39 Y149.041 E4.55012
G1 X131.802 Y149.295 E4.57294
G1 X131.251 Y149.375 E4.59278
G1 X130.5 Y149.375 E4.61954
G1 X130.5 Y150.125 E4.64626
G1 X132.467 Y150.125 E4.71634
G1 X132.61 Y150.155 E4.72155
G1 X132.916 Y150.31 E4.73377
G1 X133.278 Y150.673 E4.75204
G1 X133.433 Y150.979 E4.76426
G1 X133.463 Y151.122 E4.76947
G1 X133.463 Y152.985 E4.83585
G1 X133.43 Y153.125 E4.84097
G1 X133.463 Y153.265 E4.84609
G1 X133.46 Y155.161 E4.91364
G1 X133.434 Y155.269 E4.9176
G1 X133.276 Y155.58 E4.93003
G1 X132.842 Y155.993 E4.95138
G1 X132.47 Y156.125 E4.96544
G1 X121.533 Y156.125 E5.35512
G1 X121.391 Y156.095 E5.36029
G1 X121.081 Y155.937 E5.37269
G1 X120.668 Y155.504 E5.39401
G1 X120.537 Y155.131 E5.4081
G1 X120.537 Y153.265 E5.47458
G1 X120.57 Y153.125 E5.4797
G1 X120.537 Y152.985 E5.48482
G1 X120.537 Y151.119 E5.5513
G1 X120.65 Y150.776 E5.56417
G1 X121.08 Y150.314 E5.58666
G1 X121.428 Y150.143 E5.60048
G1 X121.53 Y150.125 E5.60417
G1 X123.5 Y150.125 E5.67436
G1 X123.5 Y149.375 E5.70108
G1 X122.749 Y149.375 E5.72784
G1 X122.198 Y149.295 E5.74768
G1 X121.61 Y149.041 E5.7705
G1 X121.186 Y148.705 E5.78978
G1 X120.837 Y148.246 E5.81032
G1 X120.618 Y147.72 E5.83062
G1 X120.538 Y147.189 E5.84975
G1 X120.537 Y144.869 E5.93241
G1 X120.64 Y144.554 E5.94422
G1 X120.966 Y144.702 F4200
G1 F540
G1 X121.315 Y144.335 E5.96226
G1 X121.55 Y144.232 E5.9714
G1 X126.587 Y144.232 E6.15087
G1 X126.775 Y144.303 E6.15803
G1 X127 Y144.495 E6.16857
G1 X127.222 Y144.306 E6.17896
G1 X127.427 Y144.232 E6.18673
G1 X132.45 Y144.232 E6.3657
G1 X132.685 Y144.335 E6.37484
G1 X133.034 Y144.702 E6.39288
G1 X133.106 Y144.902 E6.40045
G1 X133.105 Y147.175 E6.48144
G1 X133.033 Y147.642 E6.49828
G1 X132.844 Y148.084 E6.51541
G1 X132.572 Y148.442 E6.53143
G1 X132.223 Y148.725 E6.54744
G1 X131.725 Y148.946 E6.56685
G1 X131.238 Y149.017 E6.58439
G1 X130.143 Y149.018 E6.6234
G1 X130.143 Y150.482 E6.67556
G1 X132.45 Y150.482 E6.75776
G1 X132.687 Y150.586 E6.76698
G1 X133.002 Y150.902 E6.78288
G1 X133.106 Y151.138 E6.79207
G1 X133.106 Y152.952 E6.8567
G1 X133.052 Y153.125 E6.86316
G1 X133.106 Y153.298 E6.86962
G1 X133.106 Y155.112 E6.93425
G1 X133.003 Y155.347 E6.94339
G1 X132.637 Y155.696 E6.96141
G1 X132.437 Y155.768 E6.96898
G1 X121.55 Y155.768 E7.35688
G1 X121.315 Y155.665 E7.36602
G1 X120.966 Y155.298 E7.38406
G1 X120.894 Y155.098 E7.39163
G1 X120.894 Y153.298 E7.45576
G1 X120.948 Y153.125 E7.46222
G1 X120.894 Y152.952 E7.46868
G1 X120.894 Y151.152 E7.53281
G1 X120.966 Y150.952 E7.54038
G1 X121.315 Y150.585 E7.55842
G1 X121.55 Y150.482 E7.56756
G1 X123.857 Y150.482 E7.64976
G1 X123.857 Y149.018 E7.70192
G1 X122.762 Y149.017 E7.74093
G1 X122.275 Y148.946 E7.75847
G1 X121.777 Y148.725 E7.77788
G1 X121.428 Y148.442 E7.79389
G1 X121.156 Y148.084 E7.80991
G1 X120.967 Y147.642 E7.82704
G1 X120.895 Y147.175 E7.84388
G1 X120.894 Y144.902 E7.92487
G1 X120.945 Y144.758 E7.93031
G1 X121.271 Y144.893 F4200
G1 F540
G1 X121.537 Y144.617 E7.94397
G1 X121.603 Y144.589 E7.94652
G1 X126.533 Y144.589 E8.12217
G1 X126.599 Y144.617 E8.12472
G1 X127 Y145.018 E8.14493
G1 X127.401 Y144.617 E8.16514
G1 X127.467 Y144.589 E8.16769
G1 X132.397 Y144.589 E8.34334
G1 X132.463 Y144.617 E8.34589
G1 X132.722 Y144.876 E8.35894
G1 X132.749 Y144.942 E8.36148
G1 X132.748 Y147.161 E8.44054
G1 X132.684 Y147.564 E8.45508
G1 X132.546 Y147.886 E8.46756
G1 X132.302 Y148.207 E8.48193
G1 X132.021 Y148.43 E8.49471
G1 X131.607 Y148.608 E8.51077
G1 X131.226 Y148.66 E8.52447
G1 X129.786 Y148.661 E8.57578
G1 X129.786 Y150.839 E8.65338
G1 X132.397 Y150.839 E8.74641
G1 X132.463 Y150.867 E8.74896
G1 X132.722 Y151.126 E8.76201
G1 X132.749 Y151.192 E8.76455
G1 X132.749 Y152.908 E8.82569
G1 X132.722 Y152.974 E8.82823
G1 X132.571 Y153.125 E8.83584
G1 X132.722 Y153.276 E8.84345
G1 X132.749 Y153.342 E8.84599
G1 X132.749 Y155.058 E8.90713
G1 X132.722 Y155.124 E8.90967
G1 X132.463 Y155.383 E8.92272
G1 X132.397 Y155.411 E8.92527
G1 X121.603 Y155.411 E9.30986
G1 X121.537 Y155.383 E9.31241
G1 X121.278 Y155.124 E9.32546
G1 X121.251 Y155.058 E9.328
G1 X121.251 Y153.342 E9.38914
G1 X121.278 Y153.276 E9.39168
G1 X121.429 Y153.125 E9.39929
G1 X121.278 Y152.974 E9.4069
G1 X121.251 Y152.908 E9.40944
G1 X121.251 Y151.192 E9.47058
G1 X121.278 Y151.126 E9.47312
G1 X121.537 Y150.867 E9.48617
G1 X121.603 Y150.839 E9.48872
G1 X124.214 Y150.839 E9.58175
G1 X124.214 Y148.661 E9.65935
G1 X122.774 Y148.66 E9.71066
G1 X122.393 Y148.608 E9.72436
G1 X121.979 Y148.43 E9.74042
G1 X121.698 Y148.207 E9.7532
G1 X121.454 Y147.886 E9.76757
G1 X121.316 Y147.564 E9.78005
G1 X121.252 Y147.161 E9.79459
G1 X121.251 Y144.949 E9.8734
G1 X121.608 Y145.051 F4200
G1 F540
G1 X121.713 Y144.946 E9.87869
G1 X126.424 Y144.946 E10.04654
G1 X126.529 Y145.051 E10.05183
G1 X126.529 Y148.946 E10.19061
G1 X126.674 Y148.946 E10.19578
G1 X126.779 Y149.051 E10.20107
G1 X126.779 Y151.101 E10.27411
G1 X126.669 Y151.391 E10.28516
G1 X126.755 Y151.618 E10.29381
G1 X126.978 Y151.725 E10.30262
G1 X127.212 Y151.648 E10.3114
G1 X127.324 Y151.443 E10.31972
G1 X127.302 Y151.281 E10.32554
G1 X127.221 Y151.116 E10.33209
G1 X127.221 Y149.051 E10.40567
G1 X127.326 Y148.946 E10.41096
G1 X127.471 Y148.946 E10.41613
G1 X127.471 Y145.051 E10.55491
G1 X127.576 Y144.946 E10.5602
G1 X132.287 Y144.946 E10.72805
G1 X132.392 Y145.051 E10.73334
G1 X132.39 Y147.148 E10.80806
G1 X132.345 Y147.45 E10.81894
G1 X132.245 Y147.693 E10.8283
G1 X132.06 Y147.943 E10.83938
G1 X131.819 Y148.134 E10.85034
G1 X131.495 Y148.268 E10.86283
G1 X131.216 Y148.303 E10.87285
G1 X129.429 Y148.304 E10.93652
G1 X129.429 Y151.196 E11.03956
G1 X132.287 Y151.196 E11.14139
G1 X132.392 Y151.301 E11.14668
G1 X132.392 Y152.799 E11.20005
G1 X132.287 Y152.904 E11.20534
G1 X128.277 Y152.904 E11.34821
G1 X128.112 Y152.823 E11.35476
G1 X127.95 Y152.801 E11.36058
G1 X127.744 Y152.913 E11.36893
G1 X127.668 Y153.147 E11.3777
G1 X127.775 Y153.37 E11.38651
G1 X128.002 Y153.456 E11.39516
G1 X128.292 Y153.346 E11.40621
G1 X132.287 Y153.346 E11.54855
G1 X132.392 Y153.451 E11.55384
G1 X132.392 Y154.949 E11.60721
G1 X132.287 Y155.054 E11.6125
G1 X121.713 Y155.054 E11.98925
G1 X121.608 Y154.949 E11.99454
G1 X121.608 Y153.451 E12.04791
G1 X121.713 Y153.346 E12.0532
G1 X125.708 Y153.346 E12.19554
G1 X125.998 Y153.456 E12.20659
G1 X126.225 Y153.37 E12.21524
G1 X126.332 Y153.147 E12.22405
G1 X126.256 Y152.913 E12.23282
G1 X126.05 Y152.801 E12.24117
G1 X125.888 Y152.823 E12.24699
G1 X125.723 Y152.904 E12.25354
G1 X121.713 Y152.904 E12.39641
G1 X121.608 Y152.799 E12.4017
G1 X121.608 Y151.301 E12.45507
G1 X121.713 Y151.196 E12.46036
G1 X124.571 Y151.196 E12.56219
G1 X124.571 Y148.304 E12.66523
G1 X122.784 Y148.303 E12.7289
G1 X122.505 Y148.268 E12.73892
G1 X122.181 Y148.134 E12.75141
G1 X121.94 Y147.943 E12.76237
G1 X121.755 Y147.693 E12.77345
G1 X121.655 Y147.45 E12.78281
G1 X121.61 Y147.148 E12.79369
G1 X121.608 Y145.111 E12.86627
G1 X121.987 Y145.325 F4200
;TYPE:External perimeter
G1 F378
G1 X126.15 Y145.325 E13.0146
G1 X126.15 Y149.325 E13.15712
G1 X126.4 Y149.325 E13.16603
G1 X126.4 Y151.046 E13.22735
G1 X126.325 Y151.2 E13.23345
G1 X126.298 Y151.381 E13.23997
G1 X126.318 Y151.558 E13.24632
G1 X126.381 Y151.723 E13.25261
G1 X126.484 Y151.868 E13.25895
G1 X126.619 Y151.982 E13.26525
G1 X126.779 Y152.059 E13.27158
G1 X126.953 Y152.093 E13.2779
G1 X127.13 Y152.082 E13.28422
G1 X127.299 Y152.028 E13.29054
G1 X127.449 Y151.932 E13.29689
G1 X127.569 Y151.803 E13.30317
G1 X127.654 Y151.647 E13.3095
G1 X127.697 Y151.475 E13.31582
G1 X127.695 Y151.297 E13.32216
G1 X127.649 Y151.126 E13.32847
G1 X127.6 Y151.04 E13.332
G1 X127.6 Y149.325 E13.3931
G1 X127.85 Y149.325 E13.40201
G1 X127.85 Y145.325 E13.54453
G1 X132.013 Y145.325 E13.69286
G1 X132.013 Y147.113 E13.75657
G1 X131.985 Y147.331 E13.7644
G1 X131.905 Y147.523 E13.77181
G1 X131.778 Y147.689 E13.77926
G1 X131.612 Y147.817 E13.78673
G1 X131.42 Y147.896 E13.79413
G1 X131.202 Y147.925 E13.80197
G1 X129.05 Y147.925 E13.87864
G1 X129.05 Y151.575 E14.00869
G1 X132.013 Y151.575 E14.11426
G1 X132.013 Y152.525 E14.14811
G1 X128.353 Y152.525 E14.27851
G1 X128.267 Y152.476 E14.28204
G1 X128.096 Y152.43 E14.28835
G1 X127.918 Y152.428 E14.29469
G1 X127.746 Y152.471 E14.30101
G1 X127.59 Y152.556 E14.30734
G1 X127.46 Y152.676 E14.31364
G1 X127.365 Y152.826 E14.31997
G1 X127.311 Y152.995 E14.32629
G1 X127.3 Y153.172 E14.33261
G1 X127.334 Y153.346 E14.33893
G1 X127.411 Y153.506 E14.34526
G1 X127.525 Y153.641 E14.35156
G1 X127.67 Y153.744 E14.3579
G1 X127.835 Y153.807 E14.36419
G1 X128.012 Y153.827 E14.37054
G1 X128.193 Y153.8 E14.37706
G1 X128.346 Y153.725 E14.38313
G1 X132.013 Y153.725 E14.51378
G1 X132.013 Y154.675 E14.54763
G1 X121.987 Y154.675 E14.90485
G1 X121.987 Y153.725 E14.9387
G1 X125.654 Y153.725 E15.06935
G1 X125.807 Y153.8 E15.07542
G1 X125.988 Y153.827 E15.08194
G1 X126.165 Y153.807 E15.08829
G1 X126.33 Y153.744 E15.09458
G1 X126.475 Y153.641 E15.10092
G1 X126.589 Y153.506 E15.10722
G1 X126.666 Y153.346 E15.11355
G1 X126.7 Y153.172 E15.11987
G1 X126.689 Y152.995 E15.12619
G1 X126.635 Y152.826 E15.13251
G1 X126.54 Y152.676 E15.13884
G1 X126.41 Y152.556 E15.14514
G1 X126.254 Y152.471 E15.15147
G1 X126.082 Y152.428 E15.15779
G1 X125.904 Y152.43 E15.16413
G1 X125.733 Y152.476 E15.17044
G1 X125.647 Y152.525 E15.17397
G1 X121.987 Y152.525 E15.30437
G1 X121.987 Y151.575 E15.33822
G1 X124.95 Y151.575 E15.44379
G1 X124.95 Y147.925 E15.57384
G1 X122.798 Y147.925 E15.65051
G1 X122.58 Y147.896 E15.65835
G1 X122.388 Y147.817 E15.66575
G1 X122.222 Y147.689 E15.67322
G1 X122.095 Y147.523 E15.68067
G1 X122.015 Y147.331 E15.68808
G1 X121.987 Y147.113 E15.69591
G1 X121.987 Y145.385 E15.75748
G1 X122.334 Y145.523 F4200
;WIPE_START
G1 F3360
G1 X125.916 Y145.328 E13.75748
;WIPE_END
G92 E0
G1 X128.186 Y145.661 F4200
G1 X128.207 Y145.661
G1 X128.207 Y145.682
G1 E2 F1800
;TYPE:Inner perimeter
G1 F270
G1 X131.656 Y145.682 E2.12289
G1 X131.656 Y147.09 E2.17306
G1 X131.637 Y147.238 E2.17838
G1 X131.593 Y147.343 E2.18244
G1 X131.523 Y147.435 E2.18656
G1 X131.432 Y147.505 E2.19065
G1 X131.326 Y147.548 E2.19473
G1 X131.179 Y147.568 E2.20002
G1 X128.693 Y147.568 E2.2886
G1 X128.693 Y151.932 E2.44409
G1 X131.656 Y151.932 E2.54966
G1 X131.656 Y152.168 E2.55807
G1 X128.447 Y152.168 E2.67241
G1 X128.145 Y152.073 E2.68369
G1 X127.831 Y152.07 E2.69488
G1 X127.99 Y151.777 E2.70676
G1 X128.054 Y151.517 E2.7163
G1 X128.052 Y151.248 E2.72588
G1 X127.957 Y150.946 E2.73716
G1 X127.957 Y149.682 E2.7822
G1 X128.207 Y149.682 E2.79111
G1 X128.207 Y145.742 E2.93149
G1 E.93149 F1800
G92 E0
G1 X128.186 Y145.742 F4200
G1 X128.3 Y152.205
G1 X128.128 Y152.197
G1 X127.895 Y152.235
G1 X127.683 Y152.309
G1 X127.491 Y152.418
G1 X127.316 Y152.556
G1 X127.185 Y152.741
G1 X127.138 Y152.962
G1 X127.132 Y153.183
G1 X127.159 Y153.404
G1 X127.225 Y153.626
G1 X127.342 Y153.841
G1 X127.517 Y154.029
G1 X127.765 Y154.099
G1 X128.017 Y154.12
G1 X128.268 Y154.093
G1 X128.376 Y154.061
G1 X128.43 Y154.061
G1 X128.43 Y154.082
G1 E2 F1800
G1 F270
G1 X131.656 Y154.082 E2.11494
G1 X131.656 Y154.318 E2.12335
G1 X128.325 Y154.318 E2.24203
G1 X128.287 Y154.152 E2.2481
G1 X128.376 Y154.109 E2.25162
G1 E.25162 F1800
G92 E0
G1 X125.713 Y154.152 F4200
G1 E2 F1800
G1 F270
G1 X125.675 Y154.318 E2.00607
G1 X122.344 Y154.318 E2.12475
G1 X122.344 Y154.082 E2.13316
G1 X125.57 Y154.082 E2.2481
G1 X125.659 Y154.126 E2.25164
G1 E.25164 F1800
G92 E0
G1 X126.287 Y154.142 F4200
G1 E2 F1800
G1 F270
G1 X126.5 Y154.062 E2.00811
G1 X126.719 Y153.906 E2.01769
G1 X126.892 Y153.701 E2.02725
G1 X127 Y153.475 E2.03617
G1 X127.108 Y153.701 E2.04509
G1 X127.281 Y153.906 E2.05465
G1 X127.5 Y154.062 E2.06423
