; generated by CreatWare 7.0.0 on 2022-06-20 at 22:54:08 UTC

; 

; external perimeters extrusion width = 0.40mm
; perimeters extrusion width = 0.40mm
; infill extrusion width = 0.40mm
; solid infill extrusion width = 0.40mm
; top infill extrusion width = 0.40mm
; support material extrusion width = 0.40mm

G21 ; set units to millimeters
G90 ; use absolute coordinates
M82 ; use absolute distances for extrusion
G92 E0
M107
M190 S45 ; set bed temperature and wait for it to be reached
M104 S210 ; set temperature
;TYPE:Custom
M109 S210 ; set temperature and wait for it to be reached
M6013 S0 ; set chamber temp

G28 X0 Y0  ;move X/Y to min endstops
G28 Z0     ;move Z to min endstops

;Add Clear Nozzle
G92 E0                   ;zero the extruded length again
G0 F4200 X0 Y0
G0 F400 X10 Z0.4         ;move a bit while down the Z
M221 T0 S300             ;set flow is 300%
G1 F200 X30 E8          ;extrude amont filament to clean the hotend
M221 T0 S100             ;reset flow is 100%
G92 E0                   ;zero the extruded length again
;Add End

G0 Z15.0 F4200 ;move the platform down 15mm

;Put printing message on LCD screen
M117 Printing...
; Filament gcode
M107
;LAYER_CHANGE
;Layer 1
;Z:0.2
;HEIGHT:0.2
;BEFORE_LAYER_CHANGE
;0.2


G1 Z.2 F4200
;AFTER_LAYER_CHANGE
;G92 E0   ;zero the extruded length again
;0.2
G1 E-2 F1800
G92 E0
G1 X191.805 Y136.05 F4200
G1 E2 F1800
;TYPE:Skirt/Brim
;WIDTH:0.4
G1 F720
G1 X192.976 Y134.879 E2.059
G1 X194.82 Y133.596 E2.13904
G1 X197.472 Y133.017 E2.23576
G1 X202.528 Y133.017 E2.4159
G1 X204.739 Y133.414 E2.49594
G1 X207.024 Y134.879 E2.59265
G1 X208.195 Y136.05 E2.65165
G1 X209.478 Y137.894 E2.73169
G1 X210.057 Y140.545 E2.82837
G1 X210.057 Y159.455 E3.50212
G1 X209.66 Y161.666 E3.58216
G1 X208.195 Y163.95 E3.67884
G1 X207.024 Y165.121 E3.73784
G1 X205.18 Y166.404 E3.81788
G1 X202.528 Y166.983 E3.9146
G1 X197.972 Y166.983 E4.07693
G1 X195.761 Y166.586 E4.15697
G1 X193.476 Y165.121 E4.25368
G1 X192.305 Y163.95 E4.31268
G1 X191.022 Y162.106 E4.39272
G1 X190.472 Y160.063 E4.4681
G1 X189.943 Y154.255 E4.67589
G1 X189.943 Y140.545 E5.16437
G1 X190.34 Y138.334 E5.24441
G1 X191.772 Y136.101 E5.33893
G1 E3.33893 F1800
G92 E0
G1 X196.961 Y140.44 F4200
G1 E2 F1800
G1 F720
G1 X197.365 Y140.036 E2.02036
G1 X197.855 Y139.795 E2.03982
G1 X198.027 Y139.767 E2.04603
G1 X202.007 Y139.77 E2.18784
G1 X202.232 Y139.823 E2.19608
G1 X202.535 Y139.966 E2.20802
G1 X203.037 Y140.439 E2.23259
G1 X203.25 Y140.84 E2.24877
G1 X203.307 Y141.103 E2.25836
G1 X203.299 Y158.972 E2.89502
G1 X203.25 Y159.159 E2.90191
G1 X203.039 Y159.56 E2.91805
G1 X202.635 Y159.964 E2.93841
G1 X202.145 Y160.205 E2.95787
G1 X201.973 Y160.233 E2.96408
G1 X198.454 Y160.225 E3.08946
G1 X198.265 Y160.176 E3.09642
G1 X197.91 Y159.997 E3.11059
G1 X197.461 Y159.559 E3.13294
G1 X197.235 Y159.115 E3.15069
G1 X197.196 Y158.926 E3.15757
G1 X197.193 Y155.153 E3.292
G1 X197.237 Y154.929 E3.30013
G1 X197.324 Y154.724 E3.30806
G1 X196.892 Y154.262 E3.3306
G1 X196.749 Y153.958 E3.34257
G1 X196.693 Y153.698 E3.35205
G1 X196.701 Y141.028 E3.80348
G1 X196.75 Y140.841 E3.81037
G1 X196.933 Y140.493 E3.82438
G1 X197.235 Y140.671 F4200
G1 F720
G1 X197.597 Y140.31 E3.8426
G1 X197.941 Y140.142 E3.85624
G1 X198.044 Y140.124 E3.85997
G1 X201.986 Y140.127 E4.00042
G1 X202.097 Y140.153 E4.00448
G1 X202.355 Y140.276 E4.01466
G1 X202.766 Y140.673 E4.03502
G1 X202.92 Y140.978 E4.04719
G1 X202.95 Y141.121 E4.0524
G1 X202.946 Y158.912 E4.68629
G1 X202.921 Y159.02 E4.69024
G1 X202.765 Y159.329 E4.70257
G1 X202.403 Y159.69 E4.72079
G1 X202.059 Y159.858 E4.73443
G1 X201.956 Y159.876 E4.73816
G1 X198.514 Y159.873 E4.8608
G1 X198.406 Y159.847 E4.86476
G1 X198.098 Y159.691 E4.87706
G1 X197.736 Y159.33 E4.89528
G1 X197.568 Y158.985 E4.90895
G1 X197.55 Y158.882 E4.91268
G1 X197.55 Y155.173 E5.04483
G1 X197.581 Y155.028 E5.05011
G1 X197.776 Y154.614 E5.06641
G1 X197.607 Y154.5 E5.07367
G1 X197.202 Y154.082 E5.09441
G1 X197.081 Y153.825 E5.10453
G1 X197.05 Y153.679 E5.10985
G1 X197.054 Y141.088 E5.55846
G1 X197.079 Y140.98 E5.56241
G1 X197.208 Y140.725 E5.57259
G1 X197.511 Y140.9 F4200
G1 F720
G1 X197.827 Y140.585 E5.58849
G1 X198.063 Y140.481 E5.59768
G1 X201.937 Y140.481 E5.73571
G1 X202.173 Y140.585 E5.7449
G1 X202.489 Y140.9 E5.7608
G1 X202.587 Y141.107 E5.76896
G1 X202.593 Y158.863 E6.4016
G1 X202.489 Y159.1 E6.41082
G1 X202.173 Y159.415 E6.42672
G1 X201.967 Y159.513 E6.43485
G1 X198.563 Y159.519 E6.55613
G1 X198.327 Y159.415 E6.56532
G1 X198.011 Y159.1 E6.58122
G1 X197.913 Y158.893 E6.58938
G1 X197.907 Y155.19 E6.72132
G1 X198.011 Y154.953 E6.73054
G1 X198.622 Y154.342 E6.76133
G1 X198.022 Y154.308 E6.78274
G1 X197.827 Y154.215 E6.79044
G1 X197.511 Y153.9 E6.80634
G1 X197.407 Y153.663 E6.81556
G1 X197.407 Y141.137 E7.26186
G1 X197.485 Y140.955 E7.26892
G1 X197.792 Y141.125 F4200
G1 F720
G1 X198.051 Y140.865 E7.282
G1 X198.117 Y140.838 E7.28454
G1 X201.883 Y140.838 E7.41872
G1 X201.949 Y140.865 E7.42126
G1 X202.208 Y141.125 E7.43434
G1 X202.236 Y141.19 E7.43686
G1 X202.236 Y158.81 E8.06465
G1 X202.208 Y158.875 E8.06717
G1 X201.949 Y159.135 E8.08025
G1 X201.883 Y159.162 E8.08279
G1 X198.617 Y159.162 E8.19916
G1 X198.551 Y159.135 E8.2017
G1 X198.292 Y158.875 E8.21478
G1 X198.264 Y158.81 E8.2173
G1 X198.264 Y155.243 E8.34439
G1 X198.292 Y155.177 E8.34694
G1 X198.551 Y154.918 E8.35999
G1 X198.617 Y154.891 E8.36253
G1 X199.014 Y154.891 E8.37667
G1 X199.014 Y153.962 E8.40977
G1 X198.117 Y153.962 E8.44173
G1 X198.051 Y153.935 E8.44427
G1 X197.792 Y153.675 E8.45735
G1 X197.764 Y153.61 E8.45987
G1 X197.769 Y141.18 E8.90275
G1 X198.121 Y141.3 F4200
G1 F720
G1 X198.226 Y141.195 E8.90804
G1 X201.774 Y141.195 E9.03445
G1 X201.879 Y141.3 E9.03974
G1 X201.879 Y158.7 E9.65969
G1 X201.774 Y158.805 E9.66498
G1 X198.726 Y158.805 E9.77358
G1 X198.621 Y158.7 E9.77887
G1 X198.621 Y155.352 E9.89816
G1 X198.726 Y155.248 E9.90343
G1 X199.371 Y155.248 E9.92641
G1 X199.371 Y153.605 E9.98495
G1 X198.226 Y153.605 E10.02575
G1 X198.121 Y153.5 E10.03104
G1 X198.121 Y141.36 E10.46358
G1 E8.46358 F1800
G92 E0
G1 X201.357 Y157.827 F4200
G1 E2 F1800
;TYPE:External perimeter
G1 F180
G1 X201.5 Y157.877 E2.0054
G1 X201.5 Y158.426 E2.02496
G1 X200.78 Y158.426 E2.05061
G1 X200.746 Y158.254 E2.05686
G1 X201.033 Y158.135 E2.06793
G1 X201.231 Y157.983 E2.07682
G1 X201.319 Y157.873 E2.08184
G1 X201.436 Y157.956 F4200
G1 X201.287 Y157.59
;WIDTH:0.36369
G1 F252
G1 X201.396 Y157.531 E2.08581
;WIDTH:0.39122
G1 X201.512 Y157.469 E2.09038
G1 X201.526 Y157.209 E2.09943
;WIDTH:0.371965
G1 X201.511 Y156.988 E2.1067
G1 X201.283 Y156.866 E2.11519
G1 E.11519 F1800
G92 E0
G1 X201.346 Y156.853 F4200
G1 X201.377 Y156.999
G1 X201.379 Y157.027
G1 X201.393 Y157.231
G1 X201.377 Y157.463
G1 X201.324 Y157.7
G1 X201.223 Y157.942
G1 X201.195 Y157.974
G1 X201.033 Y158.134
G1 X200.988 Y158.148
G1 X200.77 Y158.197
G1 X200.73 Y158.201
G1 X200.512 Y158.217
G1 X200.473 Y158.213
G1 X200.281 Y158.199
G1 X200.277 Y158.254
G1 E2 F1800
;WIDTH:0.4
G1 F252
G1 X200.243 Y158.426 E2.00625
G1 X199 Y158.426 E2.05054
G1 X199 Y155.626 E2.1503
G1 X199.75 Y155.626 E2.17702
G1 X199.75 Y153.226 E2.26253
G1 X198.5 Y153.226 E2.30707
G1 X198.5 Y141.574 E2.72223
G1 X201.5 Y141.574 E2.82912
G1 X201.5 Y156.581 E3.36381
G1 X201.355 Y156.631 E3.36927
G1 X201.249 Y156.494 E3.37544
G1 X201.033 Y156.328 E3.38515
G1 X200.782 Y156.224 E3.39483
G1 X200.512 Y156.188 E3.40454
G1 X200.264 Y156.221 E3.41345
G1 X199.992 Y156.326 E3.42384
G1 X199.774 Y156.494 E3.43365
G1 X199.608 Y156.71 E3.44336
G1 X199.504 Y156.961 E3.45304
G1 X199.468 Y157.231 E3.46275
G1 X199.504 Y157.501 E3.47246
G1 X199.608 Y157.753 E3.48217
G1 X199.774 Y157.969 E3.49188
G1 X199.99 Y158.135 E3.50159
G1 X200.222 Y158.231 E3.51054
G1 X200.148 Y158.373 F4200
G1 E1.51054 F1800
G92 E0
G1 X200.2 Y158.456 F4200
G1 X199.17 Y157.914
G1 X199.164 Y156.582
G1 X199.219 Y156.333
G1 X199.357 Y156.363
G1 E2 F1800
;TYPE:Inner perimeter
G1 F180
G1 X199.357 Y155.983 E2.01354
G1 X199.613 Y155.983 E2.02266
G1 X199.663 Y156.129 E2.02816
G1 X199.405 Y156.327 E2.03975
G1 E.03975 F1800
G92 E0
G1 X199.229 Y156.288 F4200
G1 X200.018 Y155.895
G1 X200.086 Y155.158
G1 X200.086 Y152.891
G1 X198.672 Y142.601
G1 X198.711 Y142.453
G1 X198.857 Y142.491
G1 E2 F1800
G1 F180
G1 X198.857 Y141.931 E2.01995
G1 X199.42 Y141.931 E2.04001
G1 X199.451 Y142.109 E2.04645
G1 X199.273 Y142.172 E2.05318
G1 X198.905 Y142.454 E2.0697
G1 X199.231 Y142.654 F4200
;TYPE:External perimeter
G1 F180
G1 X199.446 Y142.489 E2.07936
G1 X199.744 Y142.384 E2.09062
G1 X199.95 Y142.356 E2.09803
G1 X200.213 Y142.391 E2.10748
G1 X200.459 Y142.493 E2.11697
G1 X200.669 Y142.654 E2.1264
G1 X200.831 Y142.865 E2.13588
G1 X200.933 Y143.11 E2.14534
G1 X200.967 Y143.374 E2.15482
G1 X200.933 Y143.637 E2.16427
G1 X200.831 Y143.882 E2.17373
G1 X200.669 Y144.093 E2.18321
G1 X200.459 Y144.255 E2.19266
G1 X200.213 Y144.356 E2.20213
G1 X199.95 Y144.391 E2.21158
G1 X199.687 Y144.356 E2.22103
G1 X199.441 Y144.255 E2.2305
G1 X199.231 Y144.093 E2.23995
G1 X199.069 Y143.882 E2.24943
G1 X198.967 Y143.637 E2.25889
G1 X198.933 Y143.374 E2.26834
G1 X198.967 Y143.11 E2.27782
G1 X199.069 Y142.865 E2.28728
G1 X199.194 Y142.702 E2.2946
G1 X199.161 Y142.393 F4200
G1 E.2946 F1800
G92 E0
G1 X199.032 Y142.628 F4200
G1 X199.086 Y142.51
G1 X199.296 Y142.242
G1 X199.398 Y142.183
G1 X199.616 Y142.126
G1 X199.73 Y142.114
G1 X199.95 Y142.096
G1 X200.284 Y142.126
G1 X200.394 Y142.16
G1 X200.434 Y142.171
G1 X200.452 Y142.103
G1 E2 F1800
;TYPE:Inner perimeter
G1 F180
G1 X200.486 Y141.931 E2.00625
G1 X201.143 Y141.931 E2.02966
G1 X201.143 Y142.446 E2.04801
G1 X200.998 Y142.495 E2.05346
G1 X200.924 Y142.4 E2.05775
G1 X200.639 Y142.181 E2.07056
G1 X200.507 Y142.126 E2.07566
G1 E.07566 F1800
G92 E0
G1 X200.53 Y141.871 F4200
G1 X198.798 Y142.121
G1 X198.652 Y144.041
G1 X198.711 Y144.291
G1 X198.857 Y144.257
G1 E2 F1800
G1 F180
G1 X199.261 Y144.567 E2.01814
G1 X199.593 Y144.704 E2.03094
G1 X199.95 Y144.751 E2.04377
G1 X200.307 Y144.704 E2.0566
G1 X200.639 Y144.567 E2.0694
G1 X200.924 Y144.348 E2.08221
G1 X200.998 Y144.252 E2.08653
G1 X201.143 Y144.301 E2.09198
G1 X201.143 Y155.987 E2.50835
G1 X200.875 Y155.876 E2.51869
G1 X200.512 Y155.828 E2.53174
G1 X200.107 Y155.881 E2.54629
G1 X200.107 Y152.869 E2.65361
G1 X198.857 Y152.869 E2.69815
G1 X198.857 Y144.317 E3.00285
G1 X198.99 Y144.107 F4200
;TYPE:Gap fill
;WIDTH:0.125219
G1 F360
G1 X198.88 Y143.998 E3.00412
;WIDTH:0.129624
G1 X198.679 Y143.767 E3.00677
G1 X198.773 Y143.967 F4200
;WIDTH:0.162304
G1 F360
G1 X198.736 Y143.691 E3.01009
;WIDTH:0.158254
G1 X198.716 Y143.379 E3.01369
;WIDTH:0.117277
G1 X198.716 Y143.369 E3.01376
;WIDTH:0.158255
G1 X198.736 Y143.056 E3.01737
;WIDTH:0.162306
G1 X198.738 Y143.041 E3.01755
;WIDTH:0.191028
G1 X198.766 Y142.903 E3.01963
;WIDTH:0.219752
G1 X198.793 Y142.765 E3.02211
G1 X198.99 Y142.64 F4200
;WIDTH:0.125216
G1 F360
G1 X198.88 Y142.75 E3.02339
;WIDTH:0.129621
G1 X198.679 Y142.98 E3.02603
G1 E1.02603 F1800
G92 E0
G1 X198.616 Y142.971 F4200
G1 X199.523 Y141.856
G1 X201.166 Y142.133
G1 X201.281 Y142.602
G1 X201.134 Y142.638
G1 E2 F1800
;WIDTH:0.356924
G1 F360
G1 X201.172 Y142.829 E2.0061
;WIDTH:0.311593
G1 X201.21 Y143.021 E2.01135
;WIDTH:0.266262
G1 X201.214 Y143.05 E2.012
;WIDTH:0.258684
G1 X201.234 Y143.362 E2.01873
;WIDTH:0.217706
G1 X201.234 Y143.385 E2.01913
;WIDTH:0.258684
G1 X201.214 Y143.698 E2.02588
;WIDTH:0.266261
G1 X201.21 Y143.726 E2.02651
;WIDTH:0.311593
G1 X201.172 Y143.918 E2.03176
;WIDTH:0.356924
G1 X201.134 Y144.11 E2.03789
G1 E.03789 F1800
G92 E0
G1 X201.036 Y145.11 F4200
G1 E2 F1800
;TYPE:Solid infill
;WIDTH:0.4046
G1 F288
G1 X200.74 Y144.815 E2.01508
G1 X200.378 Y144.964 E2.02921
G1 X200.875 Y145.461 E2.05458
G1 X200.875 Y145.973 E2.07306
G1 X199.92 Y145.017 E2.12183
G1 X199.524 Y144.965 E2.13624
G1 X199.238 Y144.847 E2.14741
G1 X200.875 Y146.484 E2.23096
G1 X200.875 Y146.996 E2.24944
G1 X199.125 Y145.245 E2.33878
G1 X199.125 Y145.757 E2.35726
G1 X200.875 Y147.507 E2.44657
G1 X200.875 Y148.019 E2.46505
G1 X199.125 Y146.268 E2.55439
G1 X199.125 Y146.78 E2.57287
G1 X200.875 Y148.53 E2.66218
G1 X200.875 Y149.042 E2.68066
G1 X199.125 Y147.291 E2.77
G1 X199.125 Y147.803 E2.78848
G1 X200.875 Y149.553 E2.87779
G1 X200.875 Y150.065 E2.89627
G1 X199.125 Y148.314 E2.98561
G1 X199.125 Y148.826 E3.00409
G1 X200.875 Y150.576 E3.0934
G1 X200.875 Y151.088 E3.11188
G1 X199.125 Y149.337 E3.20122
G1 X199.125 Y149.849 E3.2197
G1 X200.875 Y151.599 E3.30901
G1 X200.875 Y152.11 E3.32745
G1 X199.125 Y150.36 E3.41676
G1 X199.125 Y150.872 E3.43524
G1 X200.875 Y152.622 E3.52455
G1 X200.875 Y153.133 E3.54299
G1 X199.125 Y151.383 E3.6323
G1 X199.125 Y151.895 E3.65078
G1 X199.832 Y152.601 E3.68684
G1 X199.32 Y152.601 E3.70532
G1 X198.964 Y152.246 E3.72346
G1 E1.72346 F1800
G92 E0
G1 X200.214 Y152.984 F4200
G1 E2 F1800
G1 F288
G1 X200.875 Y153.645 E2.03374
G1 X200.875 Y154.156 E2.05218
G1 X200.375 Y153.656 E2.0777
G1 X200.375 Y154.168 E2.09618
G1 X200.875 Y154.668 E2.1217
G1 X200.875 Y155.179 E2.14014
G1 X200.375 Y154.679 E2.16566
G1 X200.375 Y155.191 E2.18414
G1 X200.993 Y155.809 E2.21568
G1 E.21568 F1800
G92 E0
G1 X199.838 Y155.805 F4200
G1 E2 F1800
;TYPE:Gap fill
;WIDTH:0.199146
G1 F360
G1 X199.861 Y155.945 E2.00221
;WIDTH:0.165833
G1 X199.884 Y156.085 E2.00395
;WIDTH:0.136969
G1 X199.898 Y156.121 E2.00431
G1 E.00431 F1800
G92 E0
G1 X199.309 Y156.625 F4200
G1 E2 F1800
;WIDTH:0.243903
G1 F360
G1 X199.257 Y156.885 E2.00532
;WIDTH:0.2003
G1 X199.255 Y156.905 E2.00564
;WIDTH:0.194961
G1 X199.234 Y157.224 E2.01049
;WIDTH:0.153095
G1 X199.234 Y157.238 E2.01064
;WIDTH:0.19496
G1 X199.255 Y157.558 E2.01551
;WIDTH:0.2003
G1 X199.257 Y157.578 E2.01583
;WIDTH:0.24265
G1 X199.278 Y157.684 E2.01798
;WIDTH:0.285
G1 X199.3 Y157.791 E2.02062
;WIDTH:0.32735
G1 X199.321 Y157.897 E2.02369
;WIDTH:0.348052
G1 X199.415 Y158.248 E2.03475
G1 X199.179 Y157.99 F4200
;WIDTH:0.231107
G1 F360
G1 X199.791 Y158.245 E2.0472
;LAYER_CHANGE
;Layer 2
;Z:0.3
;HEIGHT:0.1
;BEFORE_LAYER_CHANGE
;0.3


G1 Z.3 F4200
;AFTER_LAYER_CHANGE
;G92 E0   ;zero the extruded length again
;0.3
G1 E.0472 F1800
G92 E0
G1 X199.774 Y158.318 F4200
G1 X199.175 Y157.026
G1 X199.323 Y156.149
G1 X199.339 Y155.991
G1 X199.749 Y155.974
G1 X199.75 Y156.005
G1 E2 F1800
;TYPE:Inner perimeter
;WIDTH:0.4
G1 F600
G1 X199.774 Y156.005 E2.00038
G1 X199.826 Y156.159 E2.00294
G1 X199.607 Y156.327 E2.00728
G1 X199.533 Y156.424 E2.0092
G1 X199.379 Y156.372 E2.01176
G1 X199.379 Y156.005 E2.01754
G1 X199.69 Y156.005 E2.02243
G1 E.02243 F1800
G92 E0
G1 X199.689 Y155.976 F4200
G1 X199.233 Y157.904
G1 X200.95 Y158.384
G1 X201.568 Y156.87
G1 X201.132 Y155.398
G1 X201.132 Y144.602
G1 X200.419 Y144.57
G1 E2 F1800
G1 F600
G1 X200.728 Y144.393 E2.0056
G1 X201.121 Y143.991 E2.01445
G1 X201.121 Y156.111 E2.20519
G1 X200.843 Y155.996 E2.20992
G1 X200.512 Y155.952 E2.21518
G1 X200.129 Y156.003 E2.22126
G1 X200.129 Y152.848 E2.27091
G1 X198.879 Y152.848 E2.29058
G1 X198.879 Y144.11 E2.4281
G1 X199.17 Y144.393 E2.43449
G1 X199.455 Y144.558 E2.43967
G1 X199.763 Y144.643 E2.4447
G1 X200.082 Y144.651 E2.44972
G1 X200.36 Y144.584 E2.45422
G1 E.45422 F1800
G92 E0
G1 X200.358 Y144.574 F4200
G1 X200.394 Y144.566
G1 X200.511 Y144.507
G1 X200.695 Y144.341
G1 X200.783 Y144.22
G1 X200.875 Y144.069
G1 X200.978 Y143.802
G1 X201.012 Y143.612
G1 X201.031 Y143.508
G1 X201.029 Y143.28
G1 X201.028 Y143.216
G1 X200.971 Y142.921
G1 X200.937 Y142.848
G1 X200.928 Y142.824
G1 X201.121 Y142.751
G1 E2 F1800
G1 F600
G1 X200.731 Y142.356 E2.00874
G1 X200.447 Y142.19 E2.01392
G1 X200.298 Y142.149 E2.01635
G1 X200.324 Y141.952 E2.01948
G1 X201.121 Y141.952 E2.03202
G1 X201.121 Y142.691 E2.04365
G1 E.04365 F1800
G92 E0
G1 X200.908 Y142.771 F4200
G1 X200.971 Y142.921
G1 X201.028 Y143.216
G1 X201.029 Y143.28
G1 X201.031 Y143.508
G1 X201.012 Y143.612
G1 X200.978 Y143.802
G1 X200.875 Y144.069
G1 X200.783 Y144.22
G1 X200.695 Y144.341
G1 X200.511 Y144.507
G1 X200.394 Y144.566
G1 X200.082 Y144.64
G1 X200.032 Y144.639
G1 X200.041 Y144.271
G1 E2 F1800
;TYPE:External perimeter
G1 F600
G1 X199.819 Y144.266 E2.00349
G1 X199.602 Y144.206 E2.00703
