; generated by CreatWare 7.0.0 on 2022-06-19 at 04:48:57 UTC

; 

; external perimeters extrusion width = 0.40mm
; perimeters extrusion width = 0.40mm
; infill extrusion width = 0.40mm
; solid infill extrusion width = 0.40mm
; top infill extrusion width = 0.40mm

G21 ; set units to millimeters
G90 ; use absolute coordinates
M82 ; use absolute distances for extrusion
G92 E0
M107
M190 S45 ; set bed temperature and wait for it to be reached
M104 S210 ; set temperature
;TYPE:Custom
M109 S210 ; set temperature and wait for it to be reached
M6013 S0 ; set chamber temp

G28 X0 Y0  ;move X/Y to min endstops
G28 Z0     ;move Z to min endstops

;Add Clear Nozzle
G92 E0                   ;zero the extruded length again
G0 F4200 X0 Y0
G0 F400 X10 Z0.4         ;move a bit while down the Z
M221 T0 S300             ;set flow is 300%
G1 F200 X30 E8          ;extrude amont filament to clean the hotend
M221 T0 S100             ;reset flow is 100%
G92 E0                   ;zero the extruded length again
;Add End

G0 Z15.0 F4200 ;move the platform down 15mm

;Put printing message on LCD screen
M117 Printing...
; Filament gcode
M107
;LAYER_CHANGE
;Layer 1
;Z:0.2
;HEIGHT:0.2
;BEFORE_LAYER_CHANGE
;0.2


G1 Z.2 F4200
;AFTER_LAYER_CHANGE
;G92 E0   ;zero the extruded length again
;0.2
G1 E-2 F1800
G92 E0
G1 X182.283 Y146.562 F4200
G1 E2 F1800
;TYPE:Skirt/Brim
;WIDTH:0.4
G1 F720
G1 X183.358 Y145.301 E2.05904
G1 X185.095 Y143.876 E2.13909
G1 X187.193 Y143.148 E2.21821
G1 X190.812 Y142.59 E2.34868
G1 X201.338 Y141.753 E2.7249
G1 X207.082 Y141.828 E2.92957
G1 X209.286 Y142.265 E3.00963
G1 X211.09 Y143.346 E3.08456
G1 X212.351 Y144.421 E3.1436
G1 X213.776 Y146.158 E3.22365
G1 X214.564 Y148.755 E3.32035
G1 X214.933 Y153.397 E3.48626
G1 X214.713 Y155.632 E3.56628
G1 X213.433 Y158.026 E3.663
G1 X212.358 Y159.286 E3.72201
G1 X210.622 Y160.711 E3.80203
G1 X208.025 Y161.499 E3.89873
G1 X189.275 Y162.991 E4.5689
G1 X187.039 Y162.77 E4.64896
G1 X184.646 Y161.491 E4.74564
G1 X183.385 Y160.416 E4.80468
G1 X181.961 Y158.68 E4.88468
G1 X181.173 Y156.083 E4.98138
G1 X180.784 Y151.191 E5.15623
G1 X181.004 Y148.955 E5.23628
G1 X182.255 Y146.615 E5.33082
G1 E3.33082 F1800
G92 E0
G1 X187.772 Y150.529 F4200
G1 E2 F1800
G1 F720
G1 X188.143 Y150.093 E2.0204
G1 X188.525 Y149.851 E2.03651
G1 X188.783 Y149.773 E2.04611
G1 X190.207 Y149.664 E2.09699
G1 X190.435 Y149.698 E2.1052
G1 X190.755 Y149.819 E2.11739
G1 X190.954 Y149.953 E2.12594
G1 X191.304 Y149.56 E2.14469
G1 X191.644 Y149.353 E2.15887
G1 X191.903 Y149.275 E2.16851
G1 X201.393 Y148.528 E2.50768
G1 X201.585 Y148.562 E2.51463
G1 X201.954 Y148.713 E2.52884
G1 X202.383 Y149.078 E2.54891
G1 X202.589 Y148.97 E2.5572
G1 X202.809 Y148.909 E2.56533
G1 X206.511 Y148.623 E2.69762
G1 X206.897 Y148.717 E2.71177
G1 X207.073 Y148.803 E2.71875
G1 X207.559 Y149.206 E2.74124
G1 X207.801 Y149.588 E2.75735
G1 X207.879 Y149.846 E2.76695
G1 X208.16 Y153.377 E2.89316
G1 X208.125 Y153.641 E2.90265
G1 X208.006 Y153.955 E2.91461
G1 X207.574 Y154.493 E2.93919
G1 X207.192 Y154.736 E2.95532
G1 X206.934 Y154.814 E2.96492
G1 X189.28 Y156.219 E3.59591
G1 X188.839 Y156.12 E3.61201
G1 X188.602 Y155.993 E3.62159
G1 X188.178 Y155.631 E3.64145
G1 X187.936 Y155.25 E3.65753
G1 X187.858 Y154.992 E3.66713
G1 X187.559 Y151.136 E3.80493
G1 X187.593 Y150.945 E3.81184
G1 X187.748 Y150.584 E3.82584
G1 X188.063 Y150.738 F4200
G1 F720
G1 X188.395 Y150.348 E3.84409
G1 X188.688 Y150.169 E3.85632
G1 X188.829 Y150.128 E3.86155
G1 X190.214 Y150.021 E3.91104
G1 X190.326 Y150.038 E3.91508
G1 X190.595 Y150.14 E3.92533
G1 X191.045 Y150.503 E3.94593
G1 X191.178 Y150.246 E3.95624
G1 X191.516 Y149.849 E3.97482
G1 X191.809 Y149.671 E3.98703
G1 X191.949 Y149.63 E3.99223
G1 X201.361 Y148.884 E4.32863
G1 X201.471 Y148.901 E4.3326
G1 X201.789 Y149.031 E4.34484
G1 X202.339 Y149.521 E4.37109
G1 X202.714 Y149.305 E4.38651
G1 X202.857 Y149.263 E4.39182
G1 X206.455 Y148.977 E4.52042
G1 X206.791 Y149.059 E4.53274
G1 X206.89 Y149.11 E4.53671
G1 X207.305 Y149.459 E4.55603
G1 X207.483 Y149.752 E4.56824
G1 X207.524 Y149.892 E4.57344
G1 X207.802 Y153.387 E4.69836
G1 X207.784 Y153.535 E4.70367
G1 X207.683 Y153.8 E4.71377
G1 X207.32 Y154.241 E4.73412
G1 X207.028 Y154.418 E4.74629
G1 X206.888 Y154.46 E4.7515
G1 X189.282 Y155.86 E5.38077
G1 X188.948 Y155.779 E5.39302
G1 X188.82 Y155.709 E5.39822
G1 X188.432 Y155.379 E5.41637
G1 X188.253 Y155.086 E5.4286
G1 X188.212 Y154.946 E5.4338
G1 X187.915 Y151.168 E5.56882
G1 X187.932 Y151.058 E5.57279
G1 X188.04 Y150.793 E5.58299
G1 X188.356 Y150.944 F4200
G1 F720
G1 X188.646 Y150.605 E5.59888
G1 X188.874 Y150.483 E5.60809
G1 X190.193 Y150.378 E5.65523
G1 X190.437 Y150.462 E5.66442
G1 X190.777 Y150.752 E5.68034
G1 X190.899 Y150.98 E5.68955
G1 X191.085 Y153.316 E5.77304
G1 X191.598 Y153.275 E5.79138
G1 X191.396 Y150.66 E5.88483
G1 X191.477 Y150.446 E5.89298
G1 X191.766 Y150.106 E5.90888
G1 X191.994 Y149.984 E5.91809
G1 X201.34 Y149.241 E6.25213
G1 X201.584 Y149.325 E6.26132
G1 X201.924 Y149.615 E6.27724
G1 X202.031 Y149.802 E6.28492
G1 X202.114 Y150.397 E6.30632
G1 X202.674 Y149.74 E6.33708
G1 X202.902 Y149.618 E6.34629
G1 X206.45 Y149.336 E6.4731
G1 X206.698 Y149.411 E6.48233
G1 X207.048 Y149.709 E6.49871
G1 X207.17 Y149.937 E6.50792
G1 X207.442 Y153.429 E6.63272
G1 X207.361 Y153.643 E6.64087
G1 X207.071 Y153.983 E6.65679
G1 X206.843 Y154.105 E6.666
G1 X189.286 Y155.502 E7.29353
G1 X189.039 Y155.427 E7.30273
G1 X188.689 Y155.129 E7.31911
G1 X188.567 Y154.901 E7.32832
G1 X188.272 Y151.189 E7.46099
G1 X188.335 Y151 E7.46809
G1 X188.654 Y151.146 F4200
G1 F720
G1 X188.892 Y150.867 E7.48116
G1 X188.955 Y150.834 E7.48369
G1 X190.168 Y150.738 E7.52704
G1 X190.236 Y150.76 E7.52959
G1 X190.515 Y150.998 E7.54266
G1 X190.547 Y151.061 E7.54518
G1 X190.757 Y153.7 E7.6395
G1 X191.982 Y153.603 E7.68328
G1 X191.752 Y150.715 E7.7865
G1 X191.774 Y150.647 E7.78905
G1 X192.012 Y150.368 E7.80212
G1 X192.075 Y150.336 E7.80464
G1 X201.315 Y149.601 E8.1349
G1 X201.383 Y149.623 E8.13745
G1 X201.662 Y149.861 E8.15052
G1 X201.694 Y149.924 E8.15304
G1 X201.766 Y150.819 E8.18503
G1 X202.691 Y150.745 E8.21809
G1 X202.66 Y150.349 E8.23224
G1 X202.682 Y150.281 E8.23479
G1 X202.92 Y150.002 E8.24786
G1 X202.983 Y149.97 E8.25038
G1 X206.439 Y149.695 E8.3739
G1 X206.506 Y149.717 E8.37641
G1 X206.786 Y149.955 E8.3895
G1 X206.818 Y150.018 E8.39202
G1 X207.085 Y153.374 E8.51197
G1 X207.063 Y153.442 E8.51452
G1 X206.825 Y153.721 E8.52759
G1 X206.762 Y153.753 E8.53011
G1 X189.298 Y155.143 E9.15431
G1 X189.23 Y155.121 E9.15686
G1 X188.951 Y154.883 E9.16993
G1 X188.919 Y154.819 E9.17248
G1 X188.635 Y151.203 E9.30171
G1 X188.996 Y151.294 F4200
G1 F720
G1 X189.092 Y151.182 E9.30697
G1 X190.087 Y151.102 E9.34254
G1 X190.2 Y151.198 E9.34782
G1 X190.429 Y154.085 E9.45101
G1 X192.366 Y153.931 E9.52024
G1 X192.117 Y150.796 E9.63229
G1 X192.213 Y150.683 E9.63757
G1 X201.235 Y149.966 E9.96003
G1 X201.347 Y150.061 E9.96526
G1 X201.438 Y151.203 E10.00608
G1 X203.076 Y151.073 E10.06462
G1 X203.024 Y150.43 E10.0876
G1 X203.12 Y150.317 E10.09288
G1 X206.358 Y150.06 E10.20861
G1 X206.471 Y150.155 E10.21387
G1 X206.72 Y153.293 E10.32603
G1 X206.624 Y153.406 E10.33131
G1 X189.378 Y154.778 E10.94772
G1 X189.266 Y154.682 E10.95298
G1 X189.001 Y151.354 E11.07193
G1 X189.395 Y151.537 F4200
;TYPE:External perimeter
G1 F270
G1 X189.844 Y151.501 E11.08798
G1 X190.07 Y154.343 E11.18956
G1 X189.621 Y154.379 E11.20561
G1 X189.4 Y151.597 E11.30504
G1 X189.765 Y151.69 F4200
G1 E9.30504 F1800
G92 E0
G1 X189.522 Y151.973 F4200
G1 X190.019 Y154.5
G1 X190.274 Y154.504
G1 X190.276 Y154.402
G1 E2 F1800
;WIDTH:0.293623
G1 F504
G1 X192.568 Y154.219 E2.05752
G1 E.05752 F1800
G92 E0
G1 X192.599 Y154.32 F4200
G1 X193.936 Y153.699
G1 X203.331 Y152.951
G1 X205.83 Y153.181
G1 X205.905 Y153.154
G1 X205.828 Y152.944
G1 E2 F1800
;WIDTH:0.4
G1 F270
G1 X205.951 Y152.833 E2.0059
G1 X206.135 Y152.548 E2.01799
G1 X206.284 Y152.586 E2.02347
G1 X206.321 Y153.05 E2.04005
G1 X205.889 Y153.085 E2.05549
G1 X205.852 Y152.999 E2.05883
G1 X205.979 Y152.877 F4200
G1 X205.588 Y152.891
;WIDTH:0.38307
G1 F504
G1 X205.488 Y153.13 E2.06762
G1 X205.254 Y153.165 E2.07565
;WIDTH:0.38426
G1 X204.977 Y153.171 E2.08509
G1 X204.909 Y153.062 E2.08947
;WIDTH:0.379331
G1 X204.842 Y152.953 E2.09376
G1 X204.612 Y153.042 F4200
;WIDTH:0.4
G1 F270
G1 X204.573 Y153.189 E2.09918
G1 X192.762 Y154.129 E2.52133
G1 X192.516 Y151.039 E2.63177
G1 X200.991 Y150.365 E2.93468
G1 X201.091 Y151.611 E2.97922
G1 X203.483 Y151.42 E3.06472
G1 X203.424 Y150.673 E3.09142
G1 X206.115 Y150.459 E3.1876
G1 X206.201 Y151.545 E3.22641
G1 X206.06 Y151.605 E3.23187
G1 X205.842 Y151.363 E3.24347
G1 X205.604 Y151.204 E3.25367
G1 X205.342 Y151.119 E3.26348
G1 X205.068 Y151.105 E3.27326
G1 X204.813 Y151.16 E3.28255
G1 X204.557 Y151.286 E3.29272
G1 X204.352 Y151.471 E3.30256
G1 X204.203 Y151.701 E3.31232
G1 X204.119 Y151.961 E3.32206
G1 X204.104 Y152.235 E3.33184
G1 X204.162 Y152.503 E3.34161
G1 X204.286 Y152.748 E3.35139
G1 X204.461 Y152.941 E3.36067
G1 X204.562 Y153.009 E3.36501
G1 X204.489 Y153.132 F4200
G1 E1.36501 F1800
G92 E0
G1 X204.581 Y152.948 F4200
G1 X204.496 Y152.921
G1 X204.246 Y152.775
G1 X204.019 Y152.554
G1 X203.784 Y152.18
G1 X203.807 Y151.904
G1 X203.833 Y151.829
G1 X203.94 Y151.575
G1 X203.981 Y151.511
G1 X204.044 Y151.426
G1 X203.984 Y151.382
G1 E2 F1800
;TYPE:Inner perimeter
G1 F270
G1 X203.835 Y151.344 E2.00548
G1 X203.808 Y151 E2.01777
G1 X204.154 Y150.973 E2.03014
G1 X204.215 Y151.114 E2.03561
G1 X204.078 Y151.237 E2.04217
G1 X204.017 Y151.332 E2.04619
G1 E.04619 F1800
G92 E0
G1 X203.953 Y152.881 F4200
G1 E2 F1800
G1 F270
G1 X193.089 Y153.745 E2.3883
G1 X192.9 Y151.366 E2.47333
G1 X200.664 Y150.749 E2.75083
G1 X200.763 Y151.995 E2.79536
G1 X203.811 Y151.752 E2.9043
G1 X203.764 Y151.896 E2.9097
G1 X203.745 Y152.264 E2.92283
G1 X203.822 Y152.624 E2.93595
G1 X203.926 Y152.827 E2.94408
G1 X203.725 Y152.67 F4200
;TYPE:Solid infill
;WIDTH:0.40537
G1 F576
G1 X203.131 Y152.075 E2.97449
G1 X202.656 Y152.113 E2.99172
G1 X203.214 Y152.671 E3.02026
G1 X202.739 Y152.709 E3.03749
G1 X202.181 Y152.151 E3.06603
G1 X201.706 Y152.189 E3.08326
G1 X202.264 Y152.746 E3.11177
G1 X201.789 Y152.784 E3.129
G1 X201.082 Y152.077 E3.16516
G1 E1.16516 F1800
G92 E0
G1 X200.626 Y151.62 F4200
G1 E2 F1800
G1 F576
G1 X200.07 Y151.065 E2.02841
G1 X199.595 Y151.103 E2.04564
G1 X201.315 Y152.822 E2.13358
G1 X200.84 Y152.86 E2.15081
G1 X199.12 Y151.14 E2.23878
G1 X198.646 Y151.178 E2.25598
G1 X200.365 Y152.897 E2.3439
G1 X199.89 Y152.935 E2.36113
G1 X198.171 Y151.216 E2.44905
G1 X197.696 Y151.254 E2.46628
G1 X199.415 Y152.973 E2.5542
G1 X198.941 Y153.011 E2.5714
G1 X197.221 Y151.291 E2.65937
G1 X196.746 Y151.329 E2.6766
G1 X198.466 Y153.048 E2.76454
G1 X197.991 Y153.086 E2.78177
G1 X196.272 Y151.367 E2.86969
G1 X195.797 Y151.405 E2.88692
G1 X197.516 Y153.124 E2.97484
G1 X197.041 Y153.162 E2.99207
G1 X195.322 Y151.442 E3.08001
G1 X194.847 Y151.48 E3.09724
G1 X196.566 Y153.2 E3.18518
G1 X196.092 Y153.237 E3.20237
G1 X194.372 Y151.518 E3.29031
G1 X193.898 Y151.556 E3.30751
G1 X195.617 Y153.275 E3.39543
G1 X195.142 Y153.313 E3.41266
G1 X193.423 Y151.594 E3.50058
G1 X193.188 Y151.612 E3.5091
G1 X193.211 Y151.894 E3.51933
G1 X194.667 Y153.351 E3.59382
G1 X194.192 Y153.388 E3.61105
G1 X193.255 Y152.451 E3.65897
G1 X193.299 Y153.008 E3.67918
G1 X193.867 Y153.576 E3.70823
G1 E1.70823 F1800
G92 E0
G1 X193.93 Y153.702 F4200
G1 X191.506 Y154.43
G1 X189.707 Y154.304
G1 X189.698 Y154.194
G1 X189.832 Y154.183
G1 E2 F1800
;TYPE:Gap fill
;WIDTH:0.136088
G1 F360
G1 X189.634 Y151.697 E2.02318
G1 E.02318 F1800
G92 E0
G1 X189.646 Y151.854 F4200
G1 X189.93 Y153.73
G1 X190.069 Y153.988
G1 X190.266 Y154.277
G1 X192.558 Y154.094
G1 X200.719 Y151.171
G1 X200.783 Y151.972
G1 X202.993 Y151.796
G1 X203.794 Y151.686
G1 X203.791 Y151.534
G1 X203.671 Y151.536
G1 E2 F1800
;WIDTH:0.125093
G1 F360
G1 X203.841 Y151.551 E2.0014
G1 E.0014 F1800
G92 E0
G1 X204.348 Y150.973 F4200
G1 E2 F1800
;WIDTH:0.369345
G1 F360
G1 X204.523 Y150.925 E2.00591
;WIDTH:0.332028
G1 X204.698 Y150.877 E2.01114
;WIDTH:0.294708
G1 X204.728 Y150.87 E2.01191
;WIDTH:0.286791
G1 X205.033 Y150.826 E2.01941
;WIDTH:0.246565
G1 X205.059 Y150.824 E2.01994
;WIDTH:0.288664
G1 X205.381 Y150.819 E2.02784
;WIDTH:0.297295
G1 X205.414 Y150.821 E2.02868
;WIDTH:0.340222
G1 X205.523 Y150.834 E2.03194
;WIDTH:0.383148
G1 X205.632 Y150.847 E2.03567
;WIDTH:0.439088
G1 X205.769 Y150.864 E2.04113
G1 X205.997 Y151.222 E2.05791
;LAYER_CHANGE
;Layer 2
;Z:0.3
;HEIGHT:0.1
;BEFORE_LAYER_CHANGE
;0.3


G1 Z.3 F4200
;AFTER_LAYER_CHANGE
;G92 E0   ;zero the extruded length again
;0.3
G1 E.05791 F1800
G92 E0
G1 X206.078 Y151.197 F4200
G1 X206.214 Y152.972
G1 X204.283 Y153.141
G1 X204.021 Y153.072
G1 X204.08 Y152.849
G1 E2 F1800
;TYPE:Inner perimeter
;WIDTH:0.4
G1 F900
G1 X193.109 Y153.722 E2.17321
G1 X192.923 Y151.386 E2.21009
G1 X200.644 Y150.772 E2.33199
G1 X200.743 Y152.018 E2.35166
G1 X203.944 Y151.763 E2.4022
G1 X203.894 Y151.914 E2.4047
G1 X203.876 Y152.251 E2.41001
G1 X203.942 Y152.568 E2.41511
G1 X204.053 Y152.795 E2.41909
G1 E.41909 F1800
G92 E0
G1 X204.026 Y151.553 F4200
G1 E2 F1800
G1 F900
G1 X203.87 Y151.512 E2.00254
G1 X203.831 Y151.02 E2.01031
G1 X204.328 Y150.98 E2.01816
G1 X204.392 Y151.132 E2.02076
G1 X204.193 Y151.304 E2.0249
G1 X204.06 Y151.503 E2.02867
G1 E.02867 F1800
G92 E0
G1 X204.08 Y151.517 F4200
G1 X204.021 Y151.601
G1 X203.958 Y151.762
G1 X203.905 Y151.918
G1 X203.99 Y152.244
G1 X204.144 Y152.494
G1 X204.235 Y152.598
G1 X204.329 Y152.69
G1 X204.442 Y152.767
G1 X204.544 Y152.829
G1 X204.663 Y152.876
G1 X204.765 Y152.912
G1 X204.856 Y152.929
G1 X204.845 Y152.987
G1 E2 F1800
;TYPE:External perimeter
G1 F900
G1 X204.821 Y153.17 E2.0029
G1 X192.762 Y154.129 E2.19328
G1 X192.516 Y151.039 E2.24206
G1 X200.991 Y150.365 E2.37586
G1 X201.091 Y151.611 E2.39553
G1 X203.483 Y151.42 E2.43329
G1 X203.424 Y150.673 E2.44508
G1 X206.115 Y150.459 E2.48756
G1 X206.232 Y151.929 E2.51077
G1 X206.021 Y151.96 E2.51413
G1 X206 Y151.86 E2.51574
G1 X205.903 Y151.662 E2.51921
G1 X205.749 Y151.483 E2.52293
G1 X205.558 Y151.352 E2.52658
G1 X205.338 Y151.274 E2.53025
G1 X205.106 Y151.256 E2.53391
G1 X204.981 Y151.276 E2.5359
G1 X204.87 Y151.3 E2.53769
G1 X204.659 Y151.401 E2.54137
G1 X204.479 Y151.557 E2.54512
G1 X204.345 Y151.757 E2.54891
G1 X204.269 Y151.985 E2.55269
G1 X204.256 Y152.222 E2.55643
G1 X204.302 Y152.444 E2.56
G1 X204.4 Y152.642 E2.56348
G1 X204.554 Y152.821 E2.5672
G1 X204.788 Y152.967 E2.57154
G1 X204.709 Y153.111 F4200
G1 E.57154 F1800
G92 E0
G1 X204.746 Y153.219 F4200
G1 X205.753 Y153.135
G1 X205.844 Y153.102
G1 X205.84 Y153.089
G1 E2 F1800
G1 F900
G1 X205.648 Y153.104 E2.00303
G1 X205.586 Y152.95 E2.00564
G1 X205.825 Y152.745 E2.0106
G1 X205.958 Y152.547 E2.01435
G1 X206.033 Y152.319 E2.01813
G1 X206.04 Y152.192 E2.02013
G1 X206.253 Y152.189 E2.02348
G1 X206.321 Y153.05 E2.03707
G1 X205.899 Y153.084 E2.04373
G1 X205.683 Y152.978 F4200
G1 E.04373 F1800
G92 E0
G1 X205.899 Y153.083 F4200
G1 X203.285 Y152.923
G1 X194.377 Y153.632
G1 X193.89 Y153.689
G1 X192.95 Y154.229
G1 X192.594 Y154.321
G1 X192.568 Y154.219
G1 E2 F1800
;WIDTH:0.272163
G1 F1680
G1 X190.276 Y154.402 E2.02397
G1 E.02397 F1800
G92 E0
G1 X190.266 Y154.277 F4200
G1 X190.008 Y153.821
G1 X189.923 Y153.543
G1 X189.508 Y151.897
G1 X189.508 Y151.902
G1 X189.395 Y151.537
G1 E2 F1800
;WIDTH:0.4
G1 F900
G1 X189.844 Y151.501 E2.00709
G1 X190.07 Y154.343 E2.05196
G1 X189.621 Y154.379 E2.05905
G1 X189.4 Y151.597 E2.10297
G1 X189.765 Y151.69 F4200
G1 X189.635 Y151.708
;TYPE:Gap fill
;WIDTH:0.0931692
G1 F1200
G1 X189.831 Y154.172 E2.11034
G1 E.11034 F1800
G92 E0
G1 X189.689 Y154.184 F4200
G1 X190.515 Y154.508
G1 X193.42 Y153.966
G1 X193.89 Y153.689
G1 X203.867 Y151.748
G1 X203.738 Y151.76
G1 X203.77 Y152.097
G1 E2 F1800
;TYPE:Solid infill
;WIDTH:0.413612
G1 F1920
G1 X203.236 Y152.631 E2.01231
G1 X202.633 Y152.679 E2.02217
G1 X203.206 Y152.107 E2.03537
G1 X202.603 Y152.155 E2.04523
G1 X202.031 Y152.727 E2.05842
G1 X201.428 Y152.775 E2.06828
G1 X202.001 Y152.203 E2.08148
G1 X201.398 Y152.251 E2.09134
