; generated by CreatWare 7.0.0 on 2022-06-21 at 16:42:41 UTC

; 

; external perimeters extrusion width = 0.40mm
; perimeters extrusion width = 0.40mm
; infill extrusion width = 0.40mm
; solid infill extrusion width = 0.40mm
; top infill extrusion width = 0.40mm
; support material extrusion width = 0.40mm

G21 ; set units to millimeters
G90 ; use absolute coordinates
M82 ; use absolute distances for extrusion
G92 E0
M107
M190 S45 ; set bed temperature and wait for it to be reached
M104 S210 ; set temperature
;TYPE:Custom
M109 S210 ; set temperature and wait for it to be reached
M6013 S0 ; set chamber temp

G28 X0 Y0  ;move X/Y to min endstops
G28 Z0     ;move Z to min endstops

;Add Clear Nozzle
G92 E0                   ;zero the extruded length again
G0 F4200 X0 Y0
G0 F400 X10 Z0.4         ;move a bit while down the Z
M221 T0 S300             ;set flow is 300%
G1 F200 X30 E8          ;extrude amont filament to clean the hotend
M221 T0 S100             ;reset flow is 100%
G92 E0                   ;zero the extruded length again
;Add End

G0 Z15.0 F4200 ;move the platform down 15mm

;Put printing message on LCD screen
M117 Printing...
; Filament gcode
M107
;LAYER_CHANGE
;Layer 1
;Z:0.2
;HEIGHT:0.2
;BEFORE_LAYER_CHANGE
;0.2


G1 Z.2 F4200
;AFTER_LAYER_CHANGE
;G92 E0   ;zero the extruded length again
;0.2
G1 E-2 F1800
G92 E0
G1 X152.038 Y136.685 F4200
G1 E2 F1800
;TYPE:Skirt/Brim
;WIDTH:0.4
G1 F720
G1 X154.133 Y135.232 E2.09084
G1 X174.283 Y126.596 E2.87193
G1 X176.787 Y126.082 E2.96301
G1 X240.484 Y126.082 E5.23251
G1 X242.695 Y126.479 E5.31255
G1 X244.979 Y127.944 E5.40923
G1 X246.367 Y129.893 E5.49448
G1 X246.945 Y132.428 E5.58712
G1 X247.026 Y136.847 E5.74459
G1 X247.027 Y163.036 E6.67769
G1 X246.945 Y167.572 E6.83933
G1 X246.508 Y169.775 E6.91935
G1 X245.084 Y171.951 E7.01201
G1 X243.135 Y173.338 E7.09724
G1 X240.484 Y173.918 E7.19393
G1 X176.787 Y173.918 E9.46343
G1 X174.283 Y173.404 E9.55451
G1 X154.133 Y164.768 E10.3356
G1 X152.142 Y163.42 E10.42127
G1 X150.755 Y161.471 E10.5065
G1 X150.176 Y158.82 E10.60318
G1 X150.176 Y141.18 E11.23169
G1 X150.572 Y138.969 E11.31172
G1 X152.005 Y136.735 E11.40628
G1 E9.40628 F1800
G92 E0
G1 X177.072 Y137.451 F4200
G1 E2 F1800
G1 F720
G1 X177.201 Y137.059 E2.0147
G1 X177.259 Y136.957 E2.01888
G1 X177.729 Y136.46 E2.04325
G1 X178.135 Y136.243 E2.05965
G1 X178.363 Y136.189 E2.068
G1 X182.015 Y136.193 E2.19812
G1 X182.203 Y136.242 E2.20504
G1 X182.603 Y136.453 E2.22115
G1 X183.009 Y136.859 E2.24161
G1 X183.184 Y137.185 E2.25479
G1 X203.156 Y137.185 E2.96638
G1 X203.33 Y136.859 E2.97955
G1 X203.736 Y136.453 E3.00001
G1 X204.135 Y136.242 E3.01609
G1 X204.399 Y136.185 E3.02571
G1 X212.476 Y136.189 E3.31349
G1 X212.705 Y136.243 E3.32187
G1 X213.103 Y136.453 E3.3379
G1 X213.509 Y136.859 E3.35836
G1 X213.684 Y137.185 E3.37154
G1 X233.656 Y137.185 E4.08313
G1 X233.83 Y136.859 E4.0963
G1 X234.236 Y136.453 E4.11676
G1 X234.637 Y136.242 E4.1329
G1 X234.824 Y136.193 E4.13979
G1 X238.976 Y136.189 E4.28772
G1 X239.203 Y136.242 E4.29603
G1 X239.603 Y136.453 E4.31214
G1 X240.008 Y136.857 E4.33252
G1 X240.249 Y137.347 E4.35198
G1 X240.277 Y137.519 E4.35819
G1 X240.277 Y141.036 E4.4835
G1 X240.219 Y141.3 E4.49313
G1 X240.007 Y141.7 E4.50926
G1 X239.505 Y142.173 E4.53383
G1 X239.202 Y142.317 E4.54578
G1 X238.941 Y142.372 E4.55528
G1 X186.184 Y142.372 E6.43499
G1 X186.009 Y142.698 E6.44817
G1 X185.603 Y143.104 E6.46863
G1 X185.203 Y143.316 E6.48476
G1 X185.015 Y143.364 E6.49167
G1 X182.918 Y143.361 E6.56639
G1 X182.489 Y143.208 E6.58262
G1 X182.25 Y143.029 E6.59326
G1 X181.995 Y143.216 E6.60453
G1 X181.512 Y143.372 E6.62261
G1 X178.383 Y143.372 E6.73409
G1 X177.935 Y143.233 E6.7508
G1 X177.835 Y143.176 E6.7549
G1 X177.338 Y142.707 E6.77925
G1 X177.12 Y142.301 E6.79567
G1 X177.066 Y142.072 E6.80405
G1 X177.072 Y137.511 E6.96656
G1 X177.42 Y137.536 F4200
G1 F720
G1 X177.551 Y137.163 E6.98065
G1 X177.964 Y136.73 E7.00197
G1 X178.276 Y136.571 E7.01445
G1 X178.384 Y136.546 E7.0184
G1 X181.956 Y136.546 E7.14567
G1 X182.064 Y136.571 E7.14962
G1 X182.372 Y136.727 E7.16192
G1 X182.734 Y137.089 E7.18016
G1 X182.958 Y137.542 E7.19817
G1 X203.381 Y137.542 E7.92583
G1 X203.605 Y137.089 E7.94384
G1 X203.967 Y136.727 E7.96208
G1 X204.273 Y136.572 E7.9743
G1 X204.417 Y136.542 E7.97954
G1 X212.455 Y136.546 E8.26593
G1 X212.564 Y136.571 E8.26991
G1 X212.872 Y136.727 E8.28221
G1 X213.234 Y137.089 E8.30045
G1 X213.458 Y137.542 E8.31846
G1 X233.881 Y137.542 E9.04612
G1 X234.105 Y137.089 E9.06413
G1 X234.467 Y136.727 E9.08237
G1 X234.775 Y136.571 E9.09467
G1 X234.884 Y136.546 E9.09865
G1 X238.923 Y136.542 E9.24256
G1 X239.066 Y136.572 E9.24777
G1 X239.372 Y136.727 E9.25999
G1 X239.734 Y137.089 E9.27823
G1 X239.902 Y137.433 E9.29187
G1 X239.919 Y137.536 E9.29559
G1 X239.919 Y141.019 E9.41969
G1 X239.889 Y141.162 E9.4249
G1 X239.735 Y141.467 E9.43707
G1 X239.325 Y141.864 E9.4574
G1 X239.068 Y141.985 E9.46752
G1 X238.923 Y142.015 E9.4728
G1 X185.958 Y142.015 E11.35992
G1 X185.734 Y142.469 E11.37796
G1 X185.372 Y142.83 E11.39618
G1 X185.064 Y142.986 E11.40848
G1 X184.955 Y143.012 E11.41247
G1 X182.954 Y143.004 E11.48377
G1 X182.649 Y142.888 E11.4954
G1 X182.251 Y142.558 E11.51382
G1 X181.843 Y142.891 E11.53258
G1 X181.481 Y143.015 E11.54621
G1 X178.413 Y143.015 E11.65552
G1 X178.041 Y142.884 E11.66957
G1 X177.608 Y142.471 E11.69089
G1 X177.449 Y142.159 E11.70337
G1 X177.423 Y142.051 E11.70733
G1 X177.42 Y137.596 E11.86606
G1 X177.777 Y137.596 F4200
G1 F720
G1 X177.849 Y137.369 E11.87454
G1 X178.198 Y137.002 E11.89258
G1 X178.433 Y136.899 E11.90172
G1 X181.906 Y136.899 E12.02546
G1 X182.143 Y137.003 E12.03468
G1 X182.459 Y137.319 E12.0506
G1 X182.551 Y137.514 E12.05828
G1 X182.572 Y137.899 E12.07202
G1 X203.768 Y137.899 E12.82722
G1 X203.789 Y137.514 E12.84096
G1 X203.881 Y137.319 E12.84864
G1 X204.196 Y137.003 E12.86454
G1 X204.433 Y136.899 E12.87376
G1 X212.406 Y136.899 E13.15783
G1 X212.643 Y137.003 E13.16705
G1 X212.959 Y137.319 E13.18297
G1 X213.051 Y137.514 E13.19065
G1 X213.072 Y137.899 E13.20439
G1 X234.268 Y137.899 E13.95959
G1 X234.289 Y137.514 E13.97333
G1 X234.381 Y137.319 E13.98101
G1 X234.696 Y137.003 E13.99691
G1 X234.903 Y136.905 E14.00507
G1 X238.906 Y136.899 E14.1477
G1 X239.143 Y137.003 E14.15692
G1 X239.459 Y137.319 E14.17284
G1 X239.562 Y137.556 E14.18205
G1 X239.562 Y141.002 E14.30483
G1 X239.459 Y141.239 E14.31404
G1 X239.143 Y141.555 E14.32996
G1 X238.906 Y141.658 E14.33917
G1 X185.572 Y141.658 E16.23944
G1 X185.551 Y142.044 E16.25321
G1 X185.459 Y142.239 E16.26089
G1 X185.143 Y142.555 E16.27681
G1 X184.907 Y142.658 E16.28598
G1 X182.995 Y142.647 E16.3541
G1 X182.818 Y142.572 E16.36095
G1 X182.514 Y142.31 E16.37525
G1 X182.25 Y141.878 E16.39329
G1 X181.986 Y142.31 E16.41133
G1 X181.685 Y142.57 E16.4255
G1 X181.447 Y142.658 E16.43454
G1 X178.447 Y142.658 E16.54143
G1 X178.246 Y142.586 E16.54904
G1 X177.88 Y142.237 E16.56706
G1 X177.777 Y142.002 E16.5762
G1 X177.777 Y137.656 E16.73105
G1 X178.134 Y137.656 F4200
G1 F720
G1 X178.161 Y137.543 E16.73519
G1 X178.421 Y137.284 E16.74827
G1 X178.486 Y137.256 E16.75079
G1 X181.853 Y137.256 E16.87075
G1 X181.919 Y137.284 E16.8733
G1 X182.178 Y137.543 E16.88635
G1 X182.205 Y137.609 E16.88889
G1 X182.205 Y138.256 E16.91194
G1 X204.134 Y138.256 E17.69326
G1 X204.134 Y137.609 E17.71631
G1 X204.161 Y137.543 E17.71885
G1 X204.421 Y137.284 E17.73193
G1 X204.486 Y137.256 E17.73445
G1 X212.353 Y137.256 E18.01475
G1 X212.419 Y137.284 E18.0173
G1 X212.678 Y137.543 E18.03035
G1 X212.705 Y137.609 E18.03289
G1 X212.705 Y138.256 E18.05594
G1 X234.634 Y138.256 E18.83726
G1 X234.634 Y137.609 E18.86031
G1 X234.661 Y137.543 E18.86285
G1 X234.921 Y137.284 E18.87593
G1 X234.986 Y137.256 E18.87845
G1 X238.853 Y137.256 E19.01623
G1 X238.919 Y137.284 E19.01878
G1 X239.178 Y137.543 E19.03183
G1 X239.205 Y137.609 E19.03437
G1 X239.205 Y140.949 E19.15337
G1 X239.178 Y141.015 E19.15591
G1 X238.919 Y141.274 E19.16896
G1 X238.853 Y141.301 E19.1715
G1 X185.205 Y141.301 E21.08295
G1 X185.205 Y141.949 E21.10604
G1 X185.178 Y142.015 E21.10858
G1 X184.919 Y142.274 E21.12163
G1 X184.853 Y142.301 E21.12417
G1 X183.085 Y142.301 E21.18716
G1 X183.025 Y142.279 E21.18944
G1 X182.775 Y142.063 E21.20121
G1 X182.744 Y142.007 E21.20349
G1 X182.693 Y141.657 E21.21609
G1 X182.641 Y141.537 E21.22075
G1 X182.48 Y141.379 E21.22879
G1 X182.25 Y141.318 E21.23727
G1 X182.02 Y141.379 E21.24575
G1 X181.859 Y141.537 E21.25379
G1 X181.808 Y141.657 E21.25844
G1 X181.756 Y142.007 E21.27105
G1 X181.725 Y142.063 E21.27333
G1 X181.475 Y142.279 E21.2851
G1 X181.415 Y142.301 E21.28738
G1 X178.486 Y142.301 E21.39174
G1 X178.421 Y142.274 E21.39425
G1 X178.161 Y142.015 E21.40733
G1 X178.134 Y141.949 E21.40987
G1 X178.134 Y137.716 E21.56069
G1 X178.491 Y137.718 F4200
G1 F720
G1 X178.596 Y137.614 E21.56596
G1 X181.744 Y137.614 E21.67812
G1 X181.848 Y137.718 E21.68336
G1 X181.848 Y138.614 E21.71528
G1 X204.491 Y138.614 E22.52204
G1 X204.491 Y137.718 E22.55396
G1 X204.596 Y137.614 E22.55923
G1 X212.244 Y137.614 E22.83172
G1 X212.348 Y137.718 E22.83696
G1 X212.348 Y138.614 E22.86888
G1 X234.991 Y138.614 E23.67564
G1 X234.991 Y137.718 E23.70756
G1 X235.096 Y137.614 E23.71283
G1 X238.744 Y137.614 E23.84281
G1 X238.848 Y137.718 E23.84805
G1 X238.848 Y140.839 E23.95925
G1 X238.744 Y140.944 E23.96452
G1 X184.848 Y140.944 E25.88481
G1 X184.848 Y141.839 E25.9167
G1 X184.744 Y141.944 E25.92197
G1 X183.183 Y141.944 E25.97759
G1 X183.083 Y141.857 E25.98231
G1 X183.039 Y141.559 E25.99304
G1 X182.956 Y141.364 E26.00059
G1 X182.825 Y141.198 E26.00812
G1 X182.656 Y141.07 E26.01567
G1 X182.46 Y140.989 E26.02323
G1 X182.25 Y140.962 E26.03077
G1 X182.04 Y140.989 E26.03831
G1 X181.844 Y141.07 E26.04587
G1 X181.675 Y141.198 E26.05342
G1 X181.544 Y141.364 E26.06095
G1 X181.461 Y141.559 E26.0685
G1 X181.417 Y141.857 E26.07923
G1 X181.317 Y141.944 E26.08395
G1 X178.596 Y141.944 E26.1809
G1 X178.491 Y141.839 E26.18619
G1 X178.491 Y137.778 E26.33088
G1 E24.33088 F1800
G92 E0
G1 X178.444 Y156.632 F4200
G1 E2 F1800
G1 F720
G1 X181.585 Y156.639 E2.11191
G1 X182.019 Y156.796 E2.12835
G1 X182.25 Y156.969 E2.13863
G1 X182.481 Y156.796 E2.14891
G1 X182.914 Y156.639 E2.16532
G1 X185.015 Y156.636 E2.24018
G1 X185.203 Y156.684 E2.24709
G1 X185.603 Y156.896 E2.26322
G1 X186.009 Y157.302 E2.28368
G1 X186.184 Y157.628 E2.29686
G1 X238.976 Y157.631 E4.17782
G1 X239.205 Y157.685 E4.1862
G1 X239.603 Y157.896 E4.20225
G1 X240.008 Y158.3 E4.22263
G1 X240.249 Y158.789 E4.24205
G1 X240.277 Y158.962 E4.24829
G1 X240.273 Y162.515 E4.37488
G1 X240.221 Y162.74 E4.38311
G1 X240.078 Y163.043 E4.39505
G1 X239.604 Y163.545 E4.41965
G1 X239.204 Y163.758 E4.4358
G1 X238.941 Y163.815 E4.44539
G1 X234.824 Y163.807 E4.59208
G1 X234.637 Y163.758 E4.59897
G1 X234.236 Y163.547 E4.61511
G1 X233.83 Y163.141 E4.63557
G1 X233.656 Y162.815 E4.64874
G1 X213.684 Y162.815 E5.36033
G1 X213.509 Y163.141 E5.37351
G1 X213.103 Y163.547 E5.39397
G1 X212.704 Y163.758 E5.41005
G1 X212.441 Y163.815 E5.41964
G1 X204.363 Y163.811 E5.70746
G1 X204.135 Y163.757 E5.71581
G1 X203.736 Y163.547 E5.73187
G1 X203.33 Y163.141 E5.75233
G1 X203.156 Y162.815 E5.7655
G1 X183.184 Y162.815 E6.47709
G1 X183.009 Y163.141 E6.49027
G1 X182.603 Y163.547 E6.51073
G1 X182.203 Y163.758 E6.52684
G1 X181.976 Y163.811 E6.53515
G1 X178.384 Y163.815 E6.66313
G1 X177.903 Y163.66 E6.68114
G1 X177.81 Y163.6 E6.68508
G1 X177.304 Y163.103 E6.71035
G1 X177.12 Y162.743 E6.72475
G1 X177.067 Y162.514 E6.73312
G1 X177.063 Y157.949 E6.89577
G1 X177.218 Y157.467 E6.91381
G1 X177.278 Y157.375 E6.91772
G1 X177.774 Y156.868 E6.94299
G1 X178.135 Y156.685 E6.95741
G1 X178.384 Y156.631 E6.96649
G1 X178.417 Y156.985 F4200
G1 F720
G1 X181.549 Y156.996 E7.07808
G1 X181.857 Y157.115 E7.08984
G1 X182.25 Y157.445 E7.10812
G1 X182.643 Y157.115 E7.1264
G1 X182.951 Y156.996 E7.13816
G1 X184.955 Y156.988 E7.20956
G1 X185.064 Y157.014 E7.21355
G1 X185.372 Y157.17 E7.22585
G1 X185.734 Y157.531 E7.24407
G1 X185.958 Y157.985 E7.26211
G1 X238.956 Y157.988 E9.15041
G1 X239.064 Y158.014 E9.15437
G1 X239.372 Y158.169 E9.16666
G1 X239.734 Y158.531 E9.1849
G1 X239.902 Y158.876 E9.19857
G1 X239.919 Y158.978 E9.20225
G1 X239.916 Y162.494 E9.32752
G1 X239.89 Y162.604 E9.33155
G1 X239.768 Y162.863 E9.34175
G1 X239.371 Y163.274 E9.36211
G1 X239.066 Y163.428 E9.37428
G1 X238.923 Y163.458 E9.37949
G1 X234.884 Y163.454 E9.5234
G1 X234.775 Y163.429 E9.52738
G1 X234.467 Y163.273 E9.53968
G1 X234.105 Y162.911 E9.55792
G1 X233.881 Y162.458 E9.57593
G1 X213.458 Y162.458 E10.30359
G1 X213.234 Y162.911 E10.3216
G1 X212.872 Y163.273 E10.33984
G1 X212.566 Y163.428 E10.35206
G1 X212.423 Y163.458 E10.35727
G1 X204.384 Y163.454 E10.6437
G1 X204.275 Y163.429 E10.64768
G1 X203.967 Y163.273 E10.65998
G1 X203.605 Y162.911 E10.67822
G1 X203.381 Y162.458 E10.69623
G1 X182.958 Y162.458 E11.42389
G1 X182.734 Y162.911 E11.4419
G1 X182.372 Y163.273 E11.46014
G1 X182.066 Y163.428 E11.47236
G1 X181.923 Y163.458 E11.47757
G1 X178.413 Y163.458 E11.60263
G1 X178.041 Y163.326 E11.61669
G1 X177.608 Y162.913 E11.63801
G1 X177.45 Y162.604 E11.65038
G1 X177.42 Y162.461 E11.65559
G1 X177.42 Y157.978 E11.81532
G1 X177.551 Y157.605 E11.82941
G1 X177.964 Y157.172 E11.85073
G1 X178.274 Y157.015 E11.86311
G1 X178.358 Y156.997 E11.86617
G1 X178.427 Y157.343 F4200
G1 F720
G1 X181.508 Y157.353 E11.97595
G1 X181.686 Y157.429 E11.98285
G1 X181.992 Y157.698 E11.99737
G1 X182.25 Y158.128 E12.01524
G1 X182.508 Y157.698 E12.03311
G1 X182.814 Y157.429 E12.04763
G1 X182.992 Y157.353 E12.05453
G1 X184.907 Y157.342 E12.12276
G1 X185.143 Y157.445 E12.13193
G1 X185.459 Y157.761 E12.14785
G1 X185.551 Y157.956 E12.15553
G1 X185.572 Y158.342 E12.1693
G1 X238.906 Y158.342 E14.06957
G1 X239.143 Y158.445 E14.07878
G1 X239.459 Y158.761 E14.0947
G1 X239.562 Y158.998 E14.10391
G1 X239.562 Y162.444 E14.22669
G1 X239.459 Y162.681 E14.2359
G1 X239.143 Y162.997 E14.25182
G1 X238.906 Y163.101 E14.26104
G1 X234.933 Y163.101 E14.4026
G1 X234.696 Y162.997 E14.41182
G1 X234.381 Y162.681 E14.42772
G1 X234.289 Y162.486 E14.4354
G1 X234.268 Y162.101 E14.44914
G1 X213.072 Y162.101 E15.20434
G1 X213.051 Y162.486 E15.21808
G1 X212.959 Y162.681 E15.22576
G1 X212.643 Y162.997 E15.24168
G1 X212.406 Y163.101 E15.2509
G1 X204.433 Y163.101 E15.53497
G1 X204.196 Y162.997 E15.54419
G1 X203.881 Y162.681 E15.56009
G1 X203.789 Y162.486 E15.56777
G1 X203.768 Y162.101 E15.58151
G1 X182.572 Y162.101 E16.33671
G1 X182.551 Y162.486 E16.35045
G1 X182.459 Y162.681 E16.35813
G1 X182.143 Y162.997 E16.37405
G1 X181.936 Y163.095 E16.38221
G1 X178.447 Y163.101 E16.50652
G1 X178.246 Y163.029 E16.51413
G1 X177.88 Y162.679 E16.53217
G1 X177.777 Y162.444 E16.54131
G1 X177.777 Y158.011 E16.69926
G1 X177.849 Y157.811 E16.70683
G1 X178.198 Y157.445 E16.72485
G1 X178.371 Y157.363 E16.73167
G1 X178.486 Y157.699 F4200
G1 F720
G1 X181.417 Y157.699 E16.8361
G1 X181.478 Y157.722 E16.83842
G1 X181.729 Y157.942 E16.85031
G1 X181.759 Y157.999 E16.8526
G1 X181.806 Y158.353 E16.86532
G1 X181.856 Y158.475 E16.87002
G1 X182.018 Y158.637 E16.87818
G1 X182.25 Y158.699 E16.88674
G1 X182.482 Y158.637 E16.8953
G1 X182.644 Y158.475 E16.90346
G1 X182.694 Y158.353 E16.90816
G1 X182.741 Y157.999 E16.92088
G1 X182.771 Y157.942 E16.92317
G1 X183.022 Y157.722 E16.93506
G1 X183.083 Y157.699 E16.93738
G1 X184.853 Y157.699 E17.00044
G1 X184.919 Y157.726 E17.00298
G1 X185.178 Y157.985 E17.01603
G1 X185.205 Y158.051 E17.01857
G1 X185.205 Y158.699 E17.04166
G1 X238.853 Y158.699 E18.95311
G1 X238.919 Y158.726 E18.95565
G1 X239.178 Y158.985 E18.9687
G1 X239.205 Y159.051 E18.97124
G1 X239.205 Y162.391 E19.09024
G1 X239.178 Y162.457 E19.09278
G1 X238.919 Y162.716 E19.10583
G1 X238.853 Y162.744 E19.10838
G1 X234.986 Y162.744 E19.24616
G1 X234.921 Y162.716 E19.24868
G1 X234.661 Y162.457 E19.26176
G1 X234.634 Y162.391 E19.2643
G1 X234.634 Y161.744 E19.28735
G1 X212.705 Y161.744 E20.06867
G1 X212.705 Y162.391 E20.09172
G1 X212.678 Y162.457 E20.09426
G1 X212.419 Y162.716 E20.10731
G1 X212.353 Y162.744 E20.10986
G1 X204.486 Y162.744 E20.39016
G1 X204.421 Y162.716 E20.39268
G1 X204.161 Y162.457 E20.40576
