; generated by CreatWare 7.0.0 on 2022-06-06 at 00:08:57 UTC

; 

; external perimeters extrusion width = 0.40mm
; perimeters extrusion width = 0.40mm
; infill extrusion width = 0.40mm
; solid infill extrusion width = 0.40mm
; top infill extrusion width = 0.40mm

; external perimeters extrusion width = 0.40mm
; perimeters extrusion width = 0.40mm
; infill extrusion width = 0.40mm
; solid infill extrusion width = 0.40mm
; top infill extrusion width = 0.40mm

; external perimeters extrusion width = 0.40mm
; perimeters extrusion width = 0.40mm
; infill extrusion width = 0.40mm
; solid infill extrusion width = 0.40mm
; top infill extrusion width = 0.40mm

; external perimeters extrusion width = 0.40mm
; perimeters extrusion width = 0.40mm
; infill extrusion width = 0.40mm
; solid infill extrusion width = 0.40mm
; top infill extrusion width = 0.40mm

; external perimeters extrusion width = 0.40mm
; perimeters extrusion width = 0.40mm
; infill extrusion width = 0.40mm
; solid infill extrusion width = 0.40mm
; top infill extrusion width = 0.40mm

G21 ; set units to millimeters
G90 ; use absolute coordinates
M82 ; use absolute distances for extrusion
G92 E0
M107
M190 S45 ; set bed temperature and wait for it to be reached
M104 S210 ; set temperature
;TYPE:Custom
M109 S210 ; set temperature and wait for it to be reached
M6013 S0 ; set chamber temp

G28 X0 Y0  ;move X/Y to min endstops
G28 Z0     ;move Z to min endstops

;Add Clear Nozzle
G92 E0                   ;zero the extruded length again
G0 F4200 X0 Y0
G0 F400 X10 Z0.4         ;move a bit while down the Z
M221 T0 S300             ;set flow is 300%
G1 F200 X30 E8          ;extrude amont filament to clean the hotend
M221 T0 S100             ;reset flow is 100%
G92 E0                   ;zero the extruded length again
;Add End

G0 Z15.0 F4200 ;move the platform down 15mm

;Put printing message on LCD screen
M117 Printing...
; Filament gcode
M107
;LAYER_CHANGE
;Layer 1
;Z:0.2
;HEIGHT:0.2
;BEFORE_LAYER_CHANGE
;0.2


G1 Z.2 F4200
;AFTER_LAYER_CHANGE
;G92 E0   ;zero the extruded length again
;0.2
G1 E-2 F1800
G92 E0
G1 X184.317 Y143.606 F4200
G1 E2 F1800
;TYPE:Skirt/Brim
;WIDTH:0.4
G1 F720
G1 X193.368 Y133.912 E2.47254
G1 X194.257 Y133.182 E2.51353
G1 X195.187 Y132.567 E2.55326
G1 X196.648 Y131.887 E2.61068
G1 X197.508 Y131.606 E2.64292
G1 X198.458 Y131.407 E2.6775
G1 X199.553 Y131.278 E2.71678
G1 X200.384 Y131.273 E2.74639
G1 X202.03 Y131.461 E2.80542
G1 X203.462 Y131.873 E2.85851
G1 X205 Y132.594 E2.91903
G1 X206.293 Y133.482 E2.97492
G1 X207.416 Y134.565 E3.03051
G1 X215.554 Y143.419 E3.45898
G1 X216.077 Y144.061 E3.48848
G1 X216.855 Y145.311 E3.54094
G1 X217.252 Y146.144 E3.57382
G1 X217.703 Y147.535 E3.62592
G1 X217.885 Y148.423 E3.65822
G1 X217.975 Y149.407 E3.69343
G1 X217.992 Y159.104 E4.03893
G1 X217.859 Y160.524 E4.08975
G1 X217.522 Y161.937 E4.14151
G1 X217.085 Y163.035 E4.18362
G1 X216.494 Y164.142 E4.22833
G1 X215.727 Y165.187 E4.27452
G1 X214.902 Y166.079 E4.31781
G1 X214.005 Y166.816 E4.35917
G1 X212.992 Y167.48 E4.40233
G1 X211.881 Y168.009 E4.44617
G1 X210.743 Y168.402 E4.48907
G1 X209.332 Y168.667 E4.54022
G1 X208.224 Y168.741 E4.57979
G1 X191.898 Y168.741 E5.16148
G1 X190.753 Y168.676 E5.20234
G1 X189.123 Y168.352 E5.26155
G1 X187.791 Y167.867 E5.31206
G1 X186.935 Y167.42 E5.34647
G1 X185.8 Y166.658 E5.39518
G1 X184.932 Y165.883 E5.43664
G1 X184.046 Y164.887 E5.48414
G1 X183.513 Y164.103 E5.51792
G1 X182.87 Y162.897 E5.56662
G1 X182.465 Y161.786 E5.60875
G1 X182.175 Y160.608 E5.65197
G1 X182.043 Y159.231 E5.70126
G1 X182.033 Y149.715 E6.04031
G1 X182.167 Y148.291 E6.09127
G1 X182.513 Y146.85 E6.14407
G1 X183.229 Y145.199 E6.20819
G1 X183.661 Y144.473 E6.23829
G1 X184.281 Y143.654 E6.27489
G1 E4.27489 F1800
G92 E0
G1 X190.317 Y156.262 F4200
G1 E2 F1800
G1 F720
G1 X190.894 Y156.006 E2.02249
G1 X191.59 Y155.867 E2.04778
G1 X192.042 Y155.867 E2.06388
G1 X192.6 Y155.951 E2.08399
G1 X193.268 Y156.203 E2.10943
G1 X193.793 Y156.551 E2.13187
G1 X194.216 Y156.97 E2.15308
G1 X194.61 Y157.586 E2.17913
G1 X194.786 Y158.064 E2.19728
G1 X194.898 Y158.577 E2.21599
G1 X194.896 Y159.297 E2.24164
G1 X194.753 Y159.916 E2.26428
G1 X194.504 Y160.463 E2.28569
G1 X194.071 Y161.039 E2.31136
G1 X193.714 Y161.352 E2.32828
G1 X193.253 Y161.65 E2.34784
G1 X192.579 Y161.904 E2.3735
G1 X191.965 Y161.987 E2.39558
G1 X191.379 Y161.956 E2.41649
G1 X190.68 Y161.761 E2.44235
G1 X190.251 Y161.533 E2.45966
G1 X189.823 Y161.227 E2.47841
G1 X189.412 Y160.79 E2.49978
G1 X189.079 Y160.241 E2.52266
G1 X188.898 Y159.734 E2.54184
G1 X188.801 Y159.273 E2.55862
G1 X188.802 Y158.559 E2.58406
G1 X188.918 Y158.018 E2.60377
G1 X189.116 Y157.544 E2.62207
G1 X189.349 Y157.146 E2.6385
G1 X189.831 Y156.609 E2.66421
G1 X190.268 Y156.297 E2.68334
G1 X190.476 Y156.588 F4200
G1 F720
G1 X191.018 Y156.341 E2.70456
G1 X191.639 Y156.221 E2.7271
G1 X192.027 Y156.224 E2.74092
G1 X192.494 Y156.293 E2.75774
G1 X193.09 Y156.513 E2.78038
G1 X193.554 Y156.818 E2.80016
G1 X193.95 Y157.209 E2.81999
G1 X194.297 Y157.759 E2.84316
G1 X194.44 Y158.153 E2.85809
G1 X194.541 Y158.599 E2.87438
G1 X194.543 Y159.239 E2.89718
G1 X194.42 Y159.785 E2.91712
G1 X194.187 Y160.296 E2.93713
G1 X193.799 Y160.807 E2.95999
G1 X193.49 Y161.074 E2.97454
G1 X193.107 Y161.323 E2.99082
G1 X192.508 Y161.554 E3.01369
G1 X191.966 Y161.63 E3.03319
G1 X191.418 Y161.601 E3.05274
G1 X190.798 Y161.424 E3.07571
G1 X190.431 Y161.225 E3.09058
G1 X190.07 Y160.97 E3.10633
G1 X189.686 Y160.56 E3.12634
G1 X189.395 Y160.074 E3.14652
G1 X189.244 Y159.647 E3.16266
G1 X189.158 Y159.251 E3.1771
G1 X189.156 Y158.613 E3.19983
G1 X189.254 Y158.138 E3.21711
G1 X189.431 Y157.711 E3.23358
G1 X189.629 Y157.368 E3.24769
G1 X190.055 Y156.888 E3.27056
G1 X190.427 Y156.623 E3.28683
G1 X190.634 Y156.913 F4200
G1 F720
G1 X190.7 Y156.866 E3.28972
G1 X191.14 Y156.678 E3.30677
G1 X191.686 Y156.576 E3.32656
G1 X192.01 Y156.58 E3.3381
G1 X192.391 Y156.635 E3.35182
G1 X192.914 Y156.825 E3.37165
G1 X193.317 Y157.085 E3.38874
G1 X193.683 Y157.448 E3.40711
G1 X193.983 Y157.93 E3.42734
G1 X194.1 Y158.262 E3.43988
G1 X194.184 Y158.623 E3.45309
G1 X194.19 Y159.184 E3.47308
G1 X194.087 Y159.655 E3.49026
G1 X193.871 Y160.129 E3.50882
G1 X193.529 Y160.573 E3.52879
G1 X193.268 Y160.794 E3.54098
G1 X192.958 Y160.998 E3.5542
G1 X192.435 Y161.203 E3.57421
G1 X191.967 Y161.272 E3.59106
G1 X191.458 Y161.245 E3.60922
G1 X190.919 Y161.087 E3.62923
G1 X190.612 Y160.917 E3.64173
G1 X190.316 Y160.71 E3.6546
G1 X189.982 Y160.359 E3.67186
G1 X189.712 Y159.907 E3.69062
G1 X189.59 Y159.558 E3.70379
G1 X189.515 Y159.227 E3.71588
G1 X189.509 Y158.666 E3.73587
G1 X189.6 Y158.228 E3.75181
G1 X189.747 Y157.877 E3.76537
G1 X189.911 Y157.588 E3.77721
G1 X190.28 Y157.166 E3.79718
G1 X190.585 Y156.948 E3.81054
G1 X190.793 Y157.235 F4200
G1 F720
G1 X190.86 Y157.186 E3.8135
G1 X191.261 Y157.014 E3.82905
G1 X191.729 Y156.931 E3.84598
G1 X191.991 Y156.937 E3.85532
G1 X192.29 Y156.978 E3.86607
G1 X192.738 Y157.136 E3.883
G1 X193.106 Y157.374 E3.89861
G1 X193.415 Y157.684 E3.91421
G1 X193.667 Y158.098 E3.93148
G1 X193.76 Y158.369 E3.94169
G1 X193.828 Y158.65 E3.95199
G1 X193.836 Y159.129 E3.96906
G1 X193.743 Y159.559 E3.98473
G1 X193.557 Y159.959 E4.00045
G1 X193.261 Y160.336 E4.01753
G1 X193.047 Y160.513 E4.02742
G1 X192.806 Y160.675 E4.03777
G1 X192.362 Y160.853 E4.05481
G1 X191.934 Y160.916 E4.07022
G1 X191.502 Y160.89 E4.08564
G1 X191.043 Y160.752 E4.10272
G1 X190.796 Y160.611 E4.11285
G1 X190.561 Y160.449 E4.12302
G1 X190.255 Y160.128 E4.13882
G1 X190.029 Y159.743 E4.15473
G1 X189.935 Y159.466 E4.16515
G1 X189.872 Y159.2 E4.17489
G1 X189.863 Y158.719 E4.19203
G1 X189.946 Y158.319 E4.20659
G1 X190.065 Y158.042 E4.21733
G1 X190.195 Y157.806 E4.22693
G1 X190.507 Y157.442 E4.24401
G1 X190.744 Y157.27 E4.25444
G1 X190.955 Y157.554 F4200
G1 F720
G1 X191.021 Y157.506 E4.25735
G1 X191.382 Y157.351 E4.27135
G1 X191.768 Y157.286 E4.2853
G1 X192.194 Y157.322 E4.30053
G1 X192.563 Y157.448 E4.31442
G1 X192.895 Y157.663 E4.32851
G1 X193.144 Y157.917 E4.34118
G1 X193.35 Y158.262 E4.3555
G1 X193.418 Y158.474 E4.36343
G1 X193.471 Y158.682 E4.37108
G1 X193.482 Y159.079 E4.38523
G1 X193.41 Y159.428 E4.39793
G1 X193.242 Y159.788 E4.41208
G1 X192.996 Y160.097 E4.42615
G1 X192.651 Y160.353 E4.44146
G1 X192.284 Y160.504 E4.4556
G1 X191.935 Y160.559 E4.46819
G1 X191.546 Y160.535 E4.48208
G1 X191.171 Y160.418 E4.49608
G1 X190.982 Y160.306 E4.50391
G1 X190.805 Y160.188 E4.51149
G1 X190.529 Y159.898 E4.52575
G1 X190.349 Y159.583 E4.53868
G1 X190.28 Y159.372 E4.54659
G1 X190.228 Y159.168 E4.55409
G1 X190.217 Y158.77 E4.56828
G1 X190.292 Y158.411 E4.58135
G1 X190.481 Y158.02 E4.59682
G1 X190.738 Y157.715 E4.61103
G1 X190.907 Y157.59 E4.61852
G1 E2.61852 F1800
G92 E0
G1 X191.379 Y152.926 F4200
G1 E2 F1800
G1 F720
G1 X190.68 Y152.731 E2.02586
G1 X190.251 Y152.503 E2.04317
G1 X189.823 Y152.197 E2.06192
G1 X189.412 Y151.759 E2.08332
G1 X189.079 Y151.21 E2.1062
G1 X188.898 Y150.703 E2.12538
G1 X188.801 Y150.242 E2.14216
G1 X188.802 Y149.528 E2.1676
G1 X188.918 Y148.987 E2.18731
G1 X189.116 Y148.513 E2.20561
G1 X189.349 Y148.115 E2.22204
G1 X189.831 Y147.578 E2.24775
G1 X190.317 Y147.232 E2.26901
G1 X190.894 Y146.975 E2.29152
G1 X191.59 Y146.837 E2.3168
G1 X192.042 Y146.836 E2.3329
G1 X192.6 Y146.921 E2.35301
G1 X193.268 Y147.172 E2.37844
G1 X193.793 Y147.521 E2.4009
G1 X194.216 Y147.939 E2.42209
G1 X194.61 Y148.555 E2.44814
G1 X194.786 Y149.033 E2.46629
G1 X194.898 Y149.546 E2.485
G1 X194.896 Y150.266 E2.51065
G1 X194.753 Y150.886 E2.53332
G1 X194.504 Y151.432 E2.5547
G1 X194.071 Y152.008 E2.58037
G1 X193.714 Y152.321 E2.59729
G1 X193.253 Y152.619 E2.61685
G1 X192.579 Y152.873 E2.64251
G1 X191.965 Y152.957 E2.66459
G1 X191.439 Y152.929 E2.68336
G1 X191.457 Y152.572 F4200
G1 F720
G1 X190.798 Y152.393 E2.70769
G1 X190.431 Y152.194 E2.72256
G1 X190.07 Y151.939 E2.73831
G1 X189.686 Y151.529 E2.75832
G1 X189.395 Y151.043 E2.7785
G1 X189.244 Y150.616 E2.79464
G1 X189.158 Y150.221 E2.80904
G1 X189.156 Y149.582 E2.83181
G1 X189.254 Y149.108 E2.84906
G1 X189.431 Y148.68 E2.86556
G1 X189.629 Y148.337 E2.87967
G1 X190.055 Y147.857 E2.90254
G1 X190.509 Y147.533 E2.92241
G1 X191.018 Y147.311 E2.9422
G1 X191.639 Y147.191 E2.96474
G1 X192.027 Y147.193 E2.97856
G1 X192.494 Y147.262 E2.99538
G1 X193.09 Y147.483 E3.01803
G1 X193.554 Y147.787 E3.03779
G1 X193.95 Y148.179 E3.05764
G1 X194.297 Y148.729 E3.08081
G1 X194.44 Y149.123 E3.09574
G1 X194.541 Y149.568 E3.112
G1 X194.543 Y150.209 E3.13484
G1 X194.42 Y150.755 E3.15478
G1 X194.187 Y151.266 E3.17479
G1 X193.799 Y151.776 E3.19762
G1 X193.49 Y152.043 E3.21217
G1 X193.107 Y152.293 E3.22847
G1 X192.508 Y152.523 E3.25133
G1 X191.966 Y152.599 E3.27083
G1 X191.517 Y152.575 E3.28685
G1 X191.536 Y152.219 F4200
G1 F720
G1 X191.458 Y152.215 E3.28963
G1 X190.919 Y152.056 E3.30965
G1 X190.612 Y151.887 E3.32214
G1 X190.316 Y151.679 E3.33503
G1 X189.982 Y151.328 E3.35229
G1 X189.712 Y150.876 E3.37105
G1 X189.59 Y150.527 E3.38422
G1 X189.515 Y150.196 E3.39631
G1 X189.509 Y149.635 E3.4163
G1 X189.6 Y149.198 E3.4322
G1 X189.747 Y148.847 E3.44576
G1 X189.911 Y148.557 E3.45763
G1 X190.28 Y148.135 E3.4776
G1 X190.7 Y147.836 E3.49597
G1 X191.14 Y147.647 E3.51303
G1 X191.686 Y147.545 E3.53282
G1 X192.01 Y147.55 E3.54437
G1 X192.391 Y147.604 E3.55808
G1 X192.914 Y147.794 E3.57791
G1 X193.317 Y148.054 E3.595
G1 X193.683 Y148.417 E3.61337
G1 X193.983 Y148.899 E3.6336
G1 X194.1 Y149.232 E3.64618
G1 X194.184 Y149.592 E3.65935
G1 X194.19 Y150.154 E3.67937
G1 X194.087 Y150.625 E3.69655
G1 X193.871 Y151.098 E3.71508
G1 X193.529 Y151.542 E3.73505
G1 X193.268 Y151.764 E3.74726
G1 X192.958 Y151.968 E3.76048
G1 X192.435 Y152.173 E3.78049
G1 X191.967 Y152.242 E3.79734
G1 X191.596 Y152.222 E3.81058
G1 X191.617 Y151.867 F4200
G1 F720
G1 X191.502 Y151.86 E3.81468
G1 X191.043 Y151.721 E3.83177
G1 X190.561 Y151.419 E3.85204
G1 X190.255 Y151.097 E3.86787
G1 X190.029 Y150.712 E3.88378
G1 X189.935 Y150.436 E3.89417
G1 X189.872 Y150.169 E3.90394
G1 X189.863 Y149.688 E3.92108
G1 X189.946 Y149.288 E3.93564
G1 X190.065 Y149.011 E3.94638
G1 X190.195 Y148.775 E3.95598
G1 X190.507 Y148.411 E3.97306
G1 X190.86 Y148.156 E3.98858
G1 X191.261 Y147.984 E4.00413
G1 X191.729 Y147.9 E4.02107
G1 X191.991 Y147.906 E4.03041
G1 X192.29 Y147.947 E4.04116
G1 X192.738 Y148.106 E4.0581
G1 X193.106 Y148.344 E4.07371
G1 X193.415 Y148.653 E4.08928
G1 X193.667 Y149.067 E4.10655
G1 X193.76 Y149.339 E4.11679
G1 X193.828 Y149.62 E4.12709
G1 X193.836 Y150.099 E4.14416
G1 X193.743 Y150.529 E4.15983
G1 X193.557 Y150.928 E4.17551
G1 X193.261 Y151.306 E4.19262
G1 X193.047 Y151.483 E4.20251
G1 X192.806 Y151.644 E4.21284
G1 X192.362 Y151.823 E4.2299
G1 X191.934 Y151.886 E4.24531
G1 X191.677 Y151.87 E4.25448
G1 X191.699 Y151.514 F4200
G1 F720
G1 X191.546 Y151.505 E4.25994
G1 X191.171 Y151.387 E4.27395
G1 X190.805 Y151.157 E4.28935
G1 X190.529 Y150.868 E4.30359
G1 X190.349 Y150.553 E4.31652
G1 X190.28 Y150.341 E4.32446
G1 X190.228 Y150.137 E4.33196
G1 X190.217 Y149.74 E4.34611
G1 X190.292 Y149.38 E4.35921
G1 X190.383 Y149.173 E4.36727
G1 X190.481 Y148.989 E4.3747
G1 X190.738 Y148.685 E4.38888
G1 X191.021 Y148.475 E4.40144
G1 X191.382 Y148.32 E4.41544
G1 X191.768 Y148.255 E4.42939
G1 X191.969 Y148.263 E4.43656
G1 X192.194 Y148.292 E4.44464
G1 X192.563 Y148.418 E4.45853
G1 X192.895 Y148.632 E4.4726
G1 X193.144 Y148.886 E4.48527
G1 X193.35 Y149.231 E4.49959
G1 X193.418 Y149.443 E4.50752
G1 X193.471 Y149.651 E4.51517
G1 X193.482 Y150.048 E4.52932
G1 X193.41 Y150.398 E4.54205
G1 X193.242 Y150.757 E4.55617
G1 X192.996 Y151.066 E4.57024
G1 X192.651 Y151.322 E4.58555
G1 X192.284 Y151.474 E4.5997
G1 X191.935 Y151.528 E4.61228
G1 X191.758 Y151.517 E4.6186
G1 E2.6186 F1800
G92 E0
G1 X191.785 Y151.005 F4200
G1 X192.26 Y151.029
G1 X192.94 Y150.402
G1 X198.052 Y143.388
G1 E2 F1800
G1 F720
G1 X197.641 Y142.95 E2.0214
G1 X197.309 Y142.401 E2.04426
G1 X197.127 Y141.894 E2.06345
G1 X197.031 Y141.433 E2.08023
G1 X197.032 Y140.719 E2.10567
G1 X197.147 Y140.178 E2.12538
G1 X197.345 Y139.704 E2.14368
G1 X197.579 Y139.306 E2.16013
G1 X198.06 Y138.769 E2.18582
G1 X198.547 Y138.423 E2.20711
G1 X199.124 Y138.166 E2.22962
G1 X199.819 Y138.028 E2.25487
G1 X200.271 Y138.027 E2.27097
G1 X200.83 Y138.112 E2.29112
G1 X201.497 Y138.363 E2.31651
G1 X202.022 Y138.711 E2.33895
G1 X202.445 Y139.13 E2.36016
G1 X202.84 Y139.746 E2.38623
G1 X203.016 Y140.224 E2.40438
G1 X203.127 Y140.737 E2.42308
G1 X203.125 Y141.457 E2.44873
G1 X202.983 Y142.077 E2.47139
G1 X202.733 Y142.623 E2.49279
G1 X202.301 Y143.199 E2.51844
G1 X201.944 Y143.512 E2.53536
G1 X201.483 Y143.81 E2.55492
G1 X200.809 Y144.064 E2.58058
G1 X200.195 Y144.148 E2.60266
G1 X199.608 Y144.117 E2.6236
G1 X198.91 Y143.921 E2.64943
G1 X198.481 Y143.694 E2.66672
G1 X198.101 Y143.422 E2.68337
G1 X198.306 Y143.134 F4200
G1 F720
G1 X197.915 Y142.72 E2.70366
G1 X197.625 Y142.234 E2.72382
G1 X197.474 Y141.807 E2.73996
G1 X197.388 Y141.411 E2.7544
G1 X197.385 Y140.773 E2.77713
G1 X197.484 Y140.299 E2.79438
G1 X197.661 Y139.871 E2.81088
G1 X197.859 Y139.528 E2.82499
G1 X198.285 Y139.048 E2.84786
G1 X198.739 Y138.724 E2.86773
G1 X199.248 Y138.502 E2.88752
G1 X199.869 Y138.382 E2.91006
G1 X200.256 Y138.384 E2.92385
G1 X200.724 Y138.453 E2.9407
G1 X201.319 Y138.673 E2.9633
G1 X201.784 Y138.978 E2.98311
G1 X202.18 Y139.369 E3.00294
G1 X202.527 Y139.919 E3.02611
G1 X202.67 Y140.314 E3.04108
G1 X202.77 Y140.759 E3.05733
G1 X202.772 Y141.4 E3.08017
G1 X202.65 Y141.946 E3.1001
G1 X202.417 Y142.457 E3.12011
G1 X202.029 Y142.967 E3.14294
G1 X201.72 Y143.234 E3.15749
G1 X201.336 Y143.484 E3.17382
G1 X200.738 Y143.714 E3.19665
G1 X200.196 Y143.79 E3.21615
G1 X199.648 Y143.761 E3.2357
G1 X199.028 Y143.584 E3.25867
G1 X198.66 Y143.385 E3.27358
G1 X198.354 Y143.168 E3.28695
G1 X198.557 Y142.878 F4200
G1 F720
G1 X198.211 Y142.519 E3.30471
G1 X197.941 Y142.067 E3.32347
G1 X197.82 Y141.718 E3.33663
G1 X197.745 Y141.387 E3.34872
G1 X197.739 Y140.826 E3.36871
G1 X197.83 Y140.388 E3.38465
G1 X197.977 Y140.038 E3.39818
G1 X198.141 Y139.748 E3.41005
G1 X198.509 Y139.326 E3.43
