; generated by CreatWare 7.0.0 on 2022-07-13 at 17:13:06 UTC

; 

; external perimeters extrusion width = 0.40mm
; perimeters extrusion width = 0.40mm
; infill extrusion width = 0.40mm
; solid infill extrusion width = 0.40mm
; top infill extrusion width = 0.40mm
; support material extrusion width = 0.40mm

; external perimeters extrusion width = 0.40mm
; perimeters extrusion width = 0.40mm
; infill extrusion width = 0.40mm
; solid infill extrusion width = 0.40mm
; top infill extrusion width = 0.40mm
; support material extrusion width = 0.40mm

G21 ; set units to millimeters
G90 ; use absolute coordinates
M82 ; use absolute distances for extrusion
G92 E0
M107
M190 S45 ; set bed temperature and wait for it to be reached
M104 S210 ; set temperature
;TYPE:Custom
M109 S210 ; set temperature and wait for it to be reached
M6013 S0 ; set chamber temp

G28 X0 Y0  ;move X/Y to min endstops
G28 Z0     ;move Z to min endstops

;Add Clear Nozzle
G92 E0                   ;zero the extruded length again
G0 F4200 X0 Y0
G0 F400 X10 Z0.4         ;move a bit while down the Z
M221 T0 S300             ;set flow is 300%
G1 F200 X30 E8          ;extrude amont filament to clean the hotend
M221 T0 S100             ;reset flow is 100%
G92 E0                   ;zero the extruded length again
;Add End

G0 Z15.0 F4200 ;move the platform down 15mm

;Put printing message on LCD screen
M117 Printing...
; Filament gcode
M107
;LAYER_CHANGE
;Layer 1
;Z:0.1
;HEIGHT:0.1
;BEFORE_LAYER_CHANGE
;0.1


G1 Z.1 F4200
;AFTER_LAYER_CHANGE
;G92 E0   ;zero the extruded length again
;0.1
G1 E-2 F1800
G92 E0
G1 X186.006 Y119.482 F4200
G1 E2 F1800
;TYPE:Skirt/Brim
;WIDTH:0.4
G1 F720
G1 X188.349 Y117.139 E2.06258
G1 X190.196 Y115.853 E2.10508
G1 X192.86 Y115.271 E2.15658
G1 X203.698 Y115.271 E2.36126
G1 X205.913 Y115.667 E2.40375
G1 X208.208 Y117.139 E2.45524
G1 X210.551 Y119.482 E2.51782
G1 X211.837 Y121.329 E2.56032
G1 X212.41 Y123.64 E2.60529
G1 X213.461 Y142.639 E2.96464
G1 X213.47 Y151.284 E3.1279
G1 X212.176 Y219.684 E4.41989
G1 X211.854 Y221.566 E4.45595
G1 X206.097 Y238.973 E4.8022
G1 X204.552 Y241.48 E4.85781
G1 X202.594 Y242.877 E4.90323
G1 X199.93 Y243.459 E4.95473
G1 X192.038 Y243.459 E5.10377
G1 X189.823 Y243.062 E5.14627
G1 X187.528 Y241.591 E5.19775
G1 X186.131 Y239.633 E5.24317
G1 X185.555 Y237.253 E5.28941
G1 X185.248 Y230.251 E5.42177
G1 X184.138 Y135.381 E7.21355
G1 X184.138 Y123.992 E7.42864
G1 X184.535 Y121.778 E7.47112
G1 X185.974 Y119.533 E7.52148
G1 E5.52148 F1800
G92 E0
G1 X191.206 Y123.722 F4200
G1 E2 F1800
G1 F720
G1 X192.59 Y122.338 E2.03696
G1 X192.932 Y122.117 E2.04465
G1 X193.317 Y121.979 E2.05237
G1 X203.149 Y121.96 E2.23805
G1 X203.433 Y122.038 E2.24361
G1 X203.949 Y122.32 E2.25472
G1 X205.352 Y123.722 E2.29218
G1 X205.578 Y124.079 E2.30016
G1 X205.745 Y124.644 E2.31129
G1 X205.745 Y142.063 E2.64026
G1 X206.49 Y142.836 E2.66053
G1 X206.703 Y143.256 E2.66942
G1 X206.786 Y143.585 E2.67583
G1 X206.795 Y150.632 E2.80892
G1 X206.629 Y151.198 E2.82006
G1 X206.402 Y151.554 E2.82803
G1 X204.999 Y152.957 E2.8655
G1 X204.375 Y153.275 E2.87873
G1 X204.066 Y153.331 E2.88466
G1 X198.515 Y153.331 E2.98949
G1 X197.949 Y153.164 E3.00063
G1 X197.593 Y152.938 E3.00859
G1 X196.158 Y151.491 E3.04708
G1 X195.982 Y151.198 E3.05353
G1 X195.825 Y150.687 E3.06363
G1 X195.816 Y137.353 E3.31545
G1 X193.538 Y137.353 E3.35847
G1 X193.126 Y137.261 E3.36644
G1 X192.608 Y136.978 E3.37759
G1 X191.187 Y135.557 E3.41554
G1 X190.852 Y134.882 E3.42977
G1 X190.813 Y134.626 E3.43466
G1 X190.813 Y124.644 E3.62317
G1 X190.98 Y124.079 E3.6343
G1 X191.174 Y123.773 E3.64114
G1 X191.487 Y123.976 F4200
G1 F720
G1 X192.844 Y122.62 E3.67737
G1 X193.081 Y122.466 E3.68271
G1 X193.414 Y122.347 E3.68939
G1 X203.079 Y122.333 E3.87192
G1 X203.278 Y122.384 E3.8758
G1 X203.703 Y122.609 E3.88488
G1 X205.07 Y123.976 E3.92139
G1 X205.225 Y124.216 E3.92679
G1 X205.366 Y124.674 E3.93584
G1 X205.366 Y142.219 E4.26718
G1 X206.166 Y143.033 E4.28873
G1 X206.356 Y143.409 E4.29669
G1 X206.408 Y143.61 E4.30061
G1 X206.417 Y150.602 E4.43266
G1 X206.275 Y151.06 E4.44172
G1 X206.121 Y151.3 E4.44711
G1 X204.754 Y152.667 E4.48362
G1 X204.235 Y152.923 E4.49455
G1 X204.052 Y152.952 E4.49805
G1 X198.544 Y152.952 E4.60207
G1 X198.087 Y152.811 E4.6111
G1 X197.847 Y152.656 E4.6165
G1 X196.467 Y151.271 E4.65342
G1 X196.336 Y151.061 E4.65809
G1 X196.195 Y150.602 E4.66716
G1 X196.195 Y136.974 E4.92453
G1 X193.558 Y136.974 E4.97433
G1 X193.278 Y136.913 E4.97974
G1 X192.855 Y136.69 E4.98877
G1 X191.477 Y135.312 E5.02557
G1 X191.221 Y134.793 E5.0365
G1 X191.192 Y134.61 E5.04
G1 X191.192 Y124.674 E5.22765
G1 X191.333 Y124.216 E5.2367
G1 X191.455 Y124.027 E5.24095
G1 X191.768 Y124.231 F4200
G1 F720
G1 X193.098 Y122.901 E5.27647
G1 X193.23 Y122.815 E5.27945
G1 X193.511 Y122.714 E5.28509
G1 X203.016 Y122.706 E5.4646
G1 X203.131 Y122.734 E5.46684
G1 X203.457 Y122.899 E5.47374
G1 X204.789 Y124.23 E5.5093
G1 X204.874 Y124.36 E5.51223
G1 X204.987 Y124.706 E5.5191
G1 X204.987 Y142.377 E5.85282
G1 X205.842 Y143.232 E5.87566
G1 X206.007 Y143.558 E5.88256
G1 X206.034 Y143.673 E5.88479
G1 X206.038 Y150.571 E6.01506
G1 X205.925 Y150.916 E6.02192
G1 X205.84 Y151.046 E6.02485
G1 X204.509 Y152.377 E6.0604
G1 X204.144 Y152.555 E6.06807
G1 X204.035 Y152.574 E6.07016
G1 X198.576 Y152.574 E6.17326
G1 X198.231 Y152.46 E6.18012
G1 X198.101 Y152.375 E6.18305
G1 X196.771 Y151.046 E6.21856
G1 X196.687 Y150.916 E6.22148
G1 X196.573 Y150.571 E6.22834
G1 X196.573 Y136.596 E6.49226
G1 X193.576 Y136.596 E6.54886
G1 X193.425 Y136.564 E6.55178
G1 X193.1 Y136.4 E6.55865
G1 X191.767 Y135.067 E6.59425
G1 X191.589 Y134.701 E6.60194
G1 X191.57 Y134.592 E6.60403
G1 X191.57 Y124.706 E6.79073
G1 X191.684 Y124.36 E6.79761
G1 X191.735 Y124.281 E6.79939
G1 X192.046 Y124.489 F4200
G1 F720
G1 X193.353 Y123.181 E6.83431
G1 X193.608 Y123.081 E6.83948
G1 X202.963 Y123.081 E7.01615
G1 X203.215 Y123.191 E7.02134
G1 X204.527 Y124.513 E7.05651
G1 X204.609 Y124.741 E7.06109
G1 X204.609 Y142.534 E7.39712
G1 X205.55 Y143.474 E7.42224
G1 X205.66 Y143.726 E7.42743
G1 X205.66 Y150.535 E7.55602
G1 X205.56 Y150.791 E7.56121
G1 X204.265 Y152.085 E7.59578
G1 X204.046 Y152.189 E7.60036
G1 X198.611 Y152.195 E7.703
G1 X198.356 Y152.095 E7.70817
G1 X197.033 Y150.764 E7.74361
G1 X196.952 Y150.535 E7.7482
G1 X196.952 Y136.217 E8.0186
G1 X193.562 Y136.211 E8.08262
G1 X193.343 Y136.107 E8.0872
G1 X192.059 Y134.823 E8.12149
G1 X191.955 Y134.604 E8.12607
G1 X191.949 Y124.741 E8.31234
G1 X192.02 Y124.543 E8.31631
G1 X192.356 Y124.714 F4200
G1 F720
G1 X193.581 Y123.489 E8.34903
G1 X193.65 Y123.46 E8.35044
G1 X202.907 Y123.46 E8.52526
G1 X202.977 Y123.489 E8.52669
G1 X204.202 Y124.714 E8.55941
G1 X204.23 Y124.783 E8.56082
G1 X204.23 Y142.69 E8.899
G1 X205.252 Y143.712 E8.9263
G1 X205.281 Y143.782 E8.92773
G1 X205.281 Y150.493 E9.05447
G1 X205.252 Y150.563 E9.0559
G1 X204.027 Y151.788 E9.08862
G1 X203.958 Y151.816 E9.09003
G1 X198.653 Y151.816 E9.19022
G1 X198.584 Y151.788 E9.19163
G1 X197.359 Y150.563 E9.22435
G1 X197.33 Y150.493 E9.22578
G1 X197.33 Y135.838 E9.50255
G1 X193.65 Y135.838 E9.57205
G1 X193.581 Y135.81 E9.57346
G1 X192.356 Y134.585 E9.60618
G1 X192.327 Y134.515 E9.60761
G1 X192.333 Y124.769 E9.79167
G1 E7.79167 F1800
G92 E0
G1 X194.651 Y205.817 F4200
G1 E2 F1800
G1 F720
G1 X199.166 Y205.821 E2.08527
G1 X199.54 Y205.91 E2.09253
G1 X200.056 Y206.191 E2.10363
G1 X201.458 Y207.594 E2.14109
G1 X201.684 Y207.95 E2.14905
G1 X201.851 Y208.516 E2.16019
G1 X201.817 Y229.718 E2.5606
G1 X201.679 Y230.103 E2.56832
G1 X201.458 Y230.446 E2.57603
G1 X200.055 Y231.849 E2.6135
G1 X199.484 Y232.15 E2.62569
G1 X199.121 Y232.223 E2.63268
G1 X194.427 Y232.189 E2.72133
G1 X194.042 Y232.051 E2.72905
G1 X193.699 Y231.83 E2.73676
G1 X192.315 Y230.446 E2.77372
G1 X192.089 Y230.09 E2.78168
G1 X191.922 Y229.524 E2.79282
G1 X191.956 Y208.322 E3.19323
G1 X192.094 Y207.936 E3.20097
G1 X192.315 Y207.594 E3.20866
G1 X193.719 Y206.19 E3.24616
G1 X194.289 Y205.89 E3.25832
G1 X194.592 Y205.829 E3.26416
G1 X194.663 Y206.197 F4200
G1 F720
G1 X199.144 Y206.199 E3.34879
G1 X199.386 Y206.256 E3.35349
G1 X199.809 Y206.48 E3.36253
G1 X201.176 Y207.847 E3.39904
G1 X201.331 Y208.088 E3.40445
G1 X201.472 Y208.545 E3.41348
G1 X201.45 Y229.621 E3.81151
G1 X201.33 Y229.955 E3.81821
G1 X201.177 Y230.192 E3.82354
G1 X199.809 Y231.56 E3.86008
G1 X199.338 Y231.8 E3.87006
G1 X199.105 Y231.844 E3.87454
G1 X194.524 Y231.822 E3.96106
G1 X194.19 Y231.702 E3.96776
G1 X193.953 Y231.548 E3.9731
G1 X192.597 Y230.192 E4.00932
G1 X192.442 Y229.952 E4.01472
G1 X192.301 Y229.494 E4.02377
G1 X192.323 Y208.419 E4.42178
G1 X192.443 Y208.085 E4.42848
G1 X192.596 Y207.848 E4.43381
G1 X193.964 Y206.48 E4.47035
G1 X194.435 Y206.24 E4.48033
G1 X194.604 Y206.208 E4.48358
G1 X194.668 Y206.577 F4200
G1 F720
G1 X199.122 Y206.578 E4.5677
G1 X199.237 Y206.605 E4.56993
G1 X199.564 Y206.77 E4.57685
G1 X200.895 Y208.102 E4.61241
G1 X200.98 Y208.231 E4.61533
G1 X201.094 Y208.577 E4.62221
G1 X201.083 Y229.524 E5.0178
G1 X200.982 Y229.806 E5.02346
G1 X200.895 Y229.938 E5.02645
G1 X199.565 Y231.269 E5.06199
G1 X199.199 Y231.447 E5.06968
G1 X199.091 Y231.465 E5.07175
G1 X194.621 Y231.454 E5.15617
G1 X194.339 Y231.353 E5.16183
G1 X194.207 Y231.267 E5.16481
G1 X192.878 Y229.938 E5.2003
G1 X192.793 Y229.808 E5.20323
G1 X192.679 Y229.463 E5.21009
G1 X192.691 Y208.515 E5.6057
G1 X192.792 Y208.234 E5.61134
G1 X192.878 Y208.102 E5.61432
G1 X194.208 Y206.771 E5.64986
G1 X194.609 Y206.587 E5.65819
G1 X194.682 Y206.957 F4200
G1 F720
G1 X199.102 Y206.959 E5.74166
G1 X199.321 Y207.063 E5.74624
G1 X200.615 Y208.357 E5.7808
G1 X200.715 Y208.612 E5.78597
G1 X200.715 Y229.427 E6.17907
G1 X200.615 Y229.683 E6.18426
G1 X199.321 Y230.977 E6.21882
G1 X199.07 Y231.087 E6.224
G1 X194.718 Y231.087 E6.30619
G1 X194.462 Y230.987 E6.31138
G1 X193.158 Y229.683 E6.34621
G1 X193.058 Y229.427 E6.3514
G1 X193.058 Y208.612 E6.7445
G1 X193.158 Y208.357 E6.74967
G1 X194.452 Y207.063 E6.78423
G1 X194.627 Y206.98 E6.78789
G1 X194.76 Y207.331 F4200
G1 F720
G1 X199.013 Y207.331 E6.86821
G1 X199.083 Y207.36 E6.86964
G1 X200.308 Y208.585 E6.90236
G1 X200.337 Y208.654 E6.90377
G1 X200.337 Y229.385 E7.29528
G1 X200.308 Y229.455 E7.29671
G1 X199.083 Y230.68 E7.32943
G1 X199.013 Y230.708 E7.33085
G1 X194.76 Y230.708 E7.41117
G1 X194.69 Y230.68 E7.41259
G1 X193.465 Y229.455 E7.44531
G1 X193.436 Y229.385 E7.44674
G1 X193.436 Y208.654 E7.83825
G1 X193.465 Y208.585 E7.83966
G1 X194.704 Y207.354 E7.87264
G1 E5.87264 F1800
G92 E0
G1 X201.38 Y147.188 F4200
G1 E2 F1800
;TYPE:Support material
G1 F720
G1 X201.381 Y147.275 E2.00164
G1 X201.307 Y147.32 E2.00328
G1 X201.232 Y147.278 E2.0049
G1 X201.23 Y147.192 E2.00652
G1 X201.304 Y147.147 E2.00816
G1 X201.33 Y147.161 E2.00872
G1 E.00872 F1800
G92 E0
G1 X198.603 Y129.649 F4200
G1 E2 F1800
G1 F720
G1 X198.56 Y129.724 E2.00163
G1 X198.473 Y129.724 E2.00327
G1 X198.43 Y129.649 E2.0049
G1 X198.473 Y129.574 E2.00653
G1 X198.56 Y129.574 E2.00817
G1 X198.575 Y129.6 E2.00874
G1 E.00874 F1800
G92 E0
G1 X200.934 Y125.982 F4200
G1 E2 F1800
;TYPE:Solid infill
;WIDTH:0.404321
G1 F432
G1 X201.538 Y126.586 E2.01632
G1 X201.538 Y127.127 E2.02665
G1 X200.563 Y126.152 E2.05299
G1 X200.022 Y126.152 E2.06332
G1 X201.538 Y127.669 E2.10429
G1 X201.538 Y128.21 E2.11462
G1 X199.48 Y126.152 E2.17021
G1 X198.939 Y126.152 E2.18054
G1 X201.538 Y128.751 E2.25075
G1 X201.538 Y129.293 E2.2611
G1 X198.397 Y126.152 E2.34595
G1 X197.856 Y126.152 E2.35628
G1 X201.538 Y129.834 E2.45574
G1 X201.538 Y130.376 E2.46609
G1 X200.238 Y129.076 E2.50121
G1 X199.543 Y127.871 E2.52778
G1 X199.034 Y127.871 E2.5375
G1 X197.314 Y126.152 E2.58395
G1 X196.773 Y126.152 E2.59428
G1 X198.492 Y127.871 E2.64072
G1 X197.951 Y127.871 E2.65105
G1 X196.232 Y126.152 E2.69749
G1 X195.69 Y126.152 E2.70784
G1 X197.461 Y127.922 E2.75567
G1 X197.262 Y128.266 E2.76326
G1 X195.149 Y126.152 E2.82035
G1 X195.019 Y126.152 E2.82283
G1 X195.019 Y126.564 E2.8307
G1 X197.064 Y128.609 E2.88594
G1 X196.866 Y128.952 E2.8935
G1 X195.019 Y127.105 E2.94339
G1 X195.019 Y127.647 E2.95374
G1 X196.668 Y129.295 E2.99827
G1 X196.47 Y129.639 E3.00585
G1 X194.849 Y128.018 E3.04964
G1 E1.04964 F1800
G92 E0
G1 X200.335 Y129.714 F4200
G1 E2 F1800
G1 F432
G1 X201.538 Y130.917 E2.0325
G1 X201.538 Y131.459 E2.04285
G1 X200.262 Y130.182 E2.07733
G1 X200.063 Y130.525 E2.0849
G1 X201.538 Y132 E2.12474
G1 X201.538 Y132.542 E2.13509
G1 X199.865 Y130.869 E2.18028
G1 X199.667 Y131.212 E2.18784
G1 X201.538 Y133.083 E2.23838
G1 X201.538 Y133.624 E2.24871
G1 X199.341 Y131.427 E2.30806
G1 X198.799 Y131.427 E2.31841
G1 X201.538 Y134.166 E2.3924
G1 X201.538 Y134.707 E2.40273
G1 X198.088 Y131.257 E2.49592
G1 E.49592 F1800
G92 E0
G1 X199.606 Y133.317 F4200
G1 E2 F1800
G1 F432
G1 X195.019 Y128.73 E2.12391
G1 X195.019 Y129.271 E2.13424
G1 X198.894 Y133.146 E2.23892
G1 X198.353 Y133.146 E2.24925
G1 X195.019 Y129.813 E2.3393
G1 X195.019 Y130.354 E2.34963
G1 X197.811 Y133.146 E2.42505
G1 X197.27 Y133.146 E2.43538
G1 X195.019 Y130.896 E2.49617
G1 X195.019 Y131.437 E2.5065
G1 X196.729 Y133.146 E2.55268
G1 X196.187 Y133.146 E2.56303
G1 X195.019 Y131.978 E2.59458
G1 X195.019 Y132.52 E2.60493
G1 X195.646 Y133.146 E2.62185
G1 X195.104 Y133.146 E2.6322
G1 X194.849 Y132.891 E2.63909
G1 E.63909 F1800
G92 E0
G1 X199.852 Y133.563 F4200
G1 E2 F1800
G1 F432
G1 X201.538 Y135.249 E2.04554
G1 X201.538 Y135.79 E2.05587
G1 X200.022 Y134.274 E2.09682
G1 X200.022 Y134.816 E2.10717
G1 X201.538 Y136.332 E2.14812
G1 X201.538 Y136.873 E2.15845
G1 X200.022 Y135.357 E2.1994
G1 X200.022 Y135.899 E2.20975
G1 X201.538 Y137.415 E2.2507
G1 X201.538 Y137.956 E2.26103
G1 X200.022 Y136.44 E2.30198
G1 X200.022 Y136.982 E2.31233
G1 X201.538 Y138.498 E2.35328
G1 X201.538 Y139.039 E2.36361
G1 X200.022 Y137.523 E2.40456
G1 X200.022 Y138.064 E2.41489
G1 X201.538 Y139.58 E2.45584
G1 X201.538 Y140.122 E2.46619
G1 X200.022 Y138.606 E2.50714
G1 X200.022 Y139.147 E2.51747
G1 X201.538 Y140.663 E2.55842
G1 X201.538 Y141.205 E2.56877
G1 X200.022 Y139.689 E2.60972
G1 X200.022 Y140.23 E2.62005
G1 X201.538 Y141.746 E2.661
G1 X201.538 Y142.288 E2.67135
G1 X200.022 Y140.772 E2.7123
G1 X200.022 Y141.313 E2.72263
G1 X201.538 Y142.829 E2.76358
G1 X201.538 Y143.371 E2.77393
G1 X200.022 Y141.855 E2.81488
G1 X200.022 Y142.396 E2.82521
G1 X201.538 Y143.912 E2.86616
G1 X201.538 Y144.453 E2.87649
G1 X199.852 Y142.767 E2.92203
G1 E.92203 F1800
G92 E0
G1 X202.065 Y144.98 F4200
G1 E2 F1800
G1 F432
G1 X202.589 Y145.504 E2.01415
G1 X202.589 Y145.91 E2.02191
G1 X202.288 Y145.745 E2.02847
G1 X200.022 Y143.479 E2.08968
G1 X200.022 Y144.02 E2.10001
G1 X201.213 Y145.211 E2.13218
G1 X200.876 Y145.415 E2.1397
G1 X200.022 Y144.562 E2.16276
G1 X200.022 Y145.103 E2.17309
G1 X200.539 Y145.619 E2.18704
G1 X200.201 Y145.824 E2.19459
G1 X199.852 Y145.474 E2.20403
G1 E.20403 F1800
G92 E0
G1 X199.852 Y148.71 F4200
G1 E2 F1800
;WIDTH:0.475707
G1 F432
G1 X200.437 Y149.295 E2.01875
G1 X200.917 Y149.198 F4200
;TYPE:Gap fill
;WIDTH:0.11125
G1 F360
G1 X201.728 Y149.189 E2.02238
G1 E.02238 F1800
G92 E0
G1 X202.759 Y149.144 F4200
G1 E2 F1800
;TYPE:Solid infill
;WIDTH:0.475707
G1 F432
G1 X202.316 Y148.7 E2.01421
G1 X202.028 Y148.874 E2.02184
G1 X202.03 Y149.057 E2.02599
G1 X202.268 Y149.295 E2.03362
G1 E.03362 F1800
G92 E0
G1 X201.841 Y144.848 F4200
G1 E2 F1800
;TYPE:External perimeter
;WIDTH:0.4
G1 F378
G1 X202.892 Y144.848 E2.01985
G1 X202.892 Y149.427 E2.10633
G1 X199.72 Y149.427 E2.16623
G1 X199.72 Y133.449 E2.46798
G1 X194.716 Y133.449 E2.56248
G1 X194.716 Y125.849 E2.70601
G1 X201.841 Y125.849 E2.84057
G1 X201.841 Y144.788 E3.19824
G1 E1.19824 F1800
G92 E0
G1 X199.368 Y131.124 F4200
G1 E2 F1800
G1 F270
G1 X197.665 Y131.124 E2.03216
G1 X197.561 Y130.944 E2.03609
G1 X196.813 Y129.649 E2.06433
G1 X197.665 Y128.174 E2.0965
G1 X199.368 Y128.174 E2.12866
G1 X200.22 Y129.649 E2.16083
G1 X199.398 Y131.072 E2.19187
G1 E.19187 F1800
G92 E0
G1 X201.271 Y145.53 F4200
G1 E2 F1800
G1 F270
G1 X202.763 Y146.352 E2.03217
G1 X202.798 Y148.054 E2.06432
G1 X201.341 Y148.936 E2.09649
G1 X199.848 Y148.115 E2.12867
G1 X199.813 Y146.412 E2.16084
