; generated by CreatWare 7.0.0 on 2022-06-19 at 04:05:38 UTC

; 

; external perimeters extrusion width = 0.40mm
; perimeters extrusion width = 0.40mm
; infill extrusion width = 0.40mm
; solid infill extrusion width = 0.40mm
; top infill extrusion width = 0.40mm
; support material extrusion width = 0.40mm

G21 ; set units to millimeters
G90 ; use absolute coordinates
M82 ; use absolute distances for extrusion
G92 E0
M107
M190 S45 ; set bed temperature and wait for it to be reached
M104 S210 ; set temperature
;TYPE:Custom
M109 S210 ; set temperature and wait for it to be reached
M6013 S0 ; set chamber temp

G28 X0 Y0  ;move X/Y to min endstops
G28 Z0     ;move Z to min endstops

;Add Clear Nozzle
G92 E0                   ;zero the extruded length again
G0 F4200 X0 Y0
G0 F400 X10 Z0.4         ;move a bit while down the Z
M221 T0 S300             ;set flow is 300%
G1 F200 X30 E8          ;extrude amont filament to clean the hotend
M221 T0 S100             ;reset flow is 100%
G92 E0                   ;zero the extruded length again
;Add End

G0 Z15.0 F4200 ;move the platform down 15mm

;Put printing message on LCD screen
M117 Printing...
; Filament gcode
M107
;LAYER_CHANGE
;Layer 1
;Z:0.2
;HEIGHT:0.2
;BEFORE_LAYER_CHANGE
;0.2


G1 Z.2 F4200
;AFTER_LAYER_CHANGE
;G92 E0   ;zero the extruded length again
;0.2
G1 E-2 F1800
G92 E0
G1 X191.005 Y138.036 F4200
G1 E2 F1800
;TYPE:Skirt/Brim
;WIDTH:0.4
G1 F720
G1 X192.762 Y136.279 E2.08853
G1 X194.606 Y134.996 E2.16857
G1 X197.257 Y134.417 E2.26525
G1 X202.743 Y134.417 E2.46071
G1 X204.954 Y134.814 E2.54075
G1 X207.238 Y136.279 E2.63743
G1 X208.995 Y138.036 E2.72596
G1 X210.278 Y139.88 E2.806
G1 X210.857 Y142.532 E2.90272
G1 X210.853 Y148.252 E3.10652
G1 X210.503 Y157.704 E3.44352
G1 X210.024 Y159.898 E3.52353
G1 X208.645 Y161.964 E3.61203
G1 X206.888 Y163.721 E3.70056
G1 X205.044 Y165.004 E3.7806
G1 X202.393 Y165.583 E3.87728
G1 X197.607 Y165.583 E4.0478
G1 X195.396 Y165.186 E4.12784
G1 X193.112 Y163.721 E4.22452
G1 X191.355 Y161.964 E4.31305
G1 X190.072 Y160.12 E4.39309
G1 X189.497 Y157.704 E4.48158
G1 X189.147 Y148.252 E4.81858
G1 X189.143 Y142.532 E5.02238
G1 X189.54 Y140.321 E5.10242
G1 X190.972 Y138.087 E5.19697
G1 E3.19697 F1800
G92 E0
G1 X196.237 Y142.293 F4200
G1 E2 F1800
G1 F720
G1 X196.866 Y141.621 E2.0328
G1 X197.758 Y141.166 E2.06848
G1 X198.187 Y141.096 E2.08397
G1 X201.869 Y141.1 E2.21516
G1 X202.365 Y141.205 E2.23322
G1 X202.868 Y141.434 E2.25291
G1 X203.632 Y142.116 E2.2894
G1 X204.027 Y142.796 E2.31742
G1 X204.169 Y143.366 E2.33835
G1 X204.178 Y147.141 E2.47285
G1 X203.964 Y147.913 E2.50139
G1 X203.828 Y148.135 E2.51067
G1 X203.828 Y156.541 E2.81017
G1 X203.774 Y156.917 E2.8237
G1 X203.304 Y157.859 E2.86121
G1 X202.682 Y158.454 E2.89188
G1 X201.942 Y158.819 E2.92128
G1 X201.464 Y158.904 E2.93858
G1 X198.535 Y158.904 E3.04294
G1 X198.159 Y158.85 E3.05647
G1 X197.368 Y158.488 E3.08746
G1 X196.702 Y157.865 E3.11995
G1 X196.324 Y157.205 E3.14705
G1 X196.192 Y156.723 E3.16486
G1 X196.175 Y152.859 E3.30253
G1 X196.267 Y152.401 E3.31917
G1 X196.35 Y152.2 E3.32692
G1 X196.263 Y151.988 E3.33508
G1 X196.172 Y151.503 E3.35266
G1 X196.172 Y148.135 E3.47266
G1 X196.036 Y147.913 E3.48194
G1 X195.822 Y147.141 E3.51048
G1 X195.822 Y143.459 E3.64167
G1 X195.875 Y143.083 E3.6552
G1 X196.212 Y142.347 E3.68404
G1 X196.535 Y142.498 F4200
G1 F720
G1 X197.101 Y141.891 E3.71361
G1 X197.889 Y141.499 E3.74497
G1 X198.199 Y141.453 E3.75614
G1 X201.849 Y141.457 E3.88619
G1 X202.268 Y141.549 E3.90147
G1 X202.693 Y141.746 E3.91816
G1 X203.37 Y142.36 E3.95072
G1 X203.703 Y142.948 E3.9748
G1 X203.817 Y143.427 E3.99234
G1 X203.821 Y147.115 E4.12374
G1 X203.63 Y147.784 E4.14853
G1 X203.471 Y148.024 E4.15879
G1 X203.471 Y156.528 E4.46178
G1 X203.425 Y156.837 E4.47291
G1 X203.033 Y157.625 E4.50427
G1 X202.498 Y158.146 E4.53088
G1 X201.809 Y158.487 E4.55827
G1 X201.45 Y158.547 E4.57124
G1 X198.548 Y158.547 E4.67464
G1 X198.238 Y158.501 E4.68581
G1 X197.547 Y158.178 E4.71299
G1 X196.969 Y157.627 E4.74144
G1 X196.647 Y157.052 E4.76492
G1 X196.543 Y156.656 E4.77951
G1 X196.532 Y152.877 E4.91415
G1 X196.612 Y152.495 E4.92806
G1 X196.742 Y152.201 E4.93951
G1 X196.609 Y151.897 E4.95133
G1 X196.529 Y151.485 E4.96628
G1 X196.529 Y148.024 E5.08959
G1 X196.37 Y147.784 E5.09985
G1 X196.179 Y147.115 E5.12464
G1 X196.179 Y143.472 E5.25444
G1 X196.225 Y143.162 E5.26561
G1 X196.51 Y142.553 E5.28957
G1 X196.831 Y142.706 F4200
G1 F720
G1 X196.856 Y142.654 E5.29163
G1 X197.335 Y142.163 E5.31607
G1 X197.971 Y141.847 E5.34137
G1 X198.213 Y141.81 E5.35009
G1 X201.828 Y141.814 E5.47889
G1 X202.168 Y141.892 E5.49132
G1 X202.514 Y142.056 E5.50496
G1 X203.105 Y142.602 E5.53363
G1 X203.377 Y143.096 E5.55372
G1 X203.464 Y143.485 E5.56792
G1 X203.464 Y147.089 E5.69633
G1 X203.297 Y147.65 E5.71719
G1 X203.114 Y147.905 E5.72837
G1 X203.114 Y156.514 E6.0351
G1 X203.077 Y156.755 E6.04379
G1 X202.762 Y157.391 E6.06908
G1 X202.271 Y157.87 E6.09352
G1 X201.68 Y158.152 E6.11685
G1 X201.438 Y158.19 E6.12558
G1 X198.562 Y158.19 E6.22805
G1 X198.32 Y158.152 E6.23678
G1 X197.729 Y157.87 E6.26011
G1 X197.238 Y157.391 E6.28455
G1 X196.972 Y156.903 E6.30435
G1 X196.894 Y156.591 E6.31581
G1 X196.89 Y152.897 E6.44743
G1 X196.956 Y152.592 E6.45855
G1 X197.136 Y152.201 E6.47389
G1 X196.954 Y151.804 E6.48945
G1 X196.886 Y151.467 E6.5017
G1 X196.886 Y147.905 E6.62861
G1 X196.703 Y147.65 E6.63979
G1 X196.536 Y147.089 E6.66065
G1 X196.536 Y143.486 E6.78902
G1 X196.573 Y143.244 E6.79774
G1 X196.805 Y142.761 E6.81683
G1 X197.124 Y142.918 F4200
G1 F720
G1 X197.162 Y142.84 E6.81992
G1 X197.565 Y142.436 E6.84025
G1 X198.055 Y142.195 E6.85971
G1 X198.227 Y142.167 E6.86592
G1 X201.807 Y142.171 E6.99347
G1 X202.032 Y142.223 E7.0017
G1 X202.335 Y142.366 E7.01364
G1 X202.837 Y142.84 E7.03824
G1 X203.05 Y143.24 E7.05439
G1 X203.107 Y143.503 E7.06398
G1 X203.107 Y147.061 E7.19075
G1 X202.968 Y147.509 E7.20746
G1 X202.757 Y147.778 E7.21964
G1 X202.757 Y156.498 E7.53033
G1 X202.729 Y156.671 E7.53657
G1 X202.488 Y157.16 E7.55599
G1 X202.085 Y157.564 E7.57632
G1 X201.595 Y157.805 E7.59578
G1 X201.423 Y157.833 E7.60199
G1 X198.577 Y157.833 E7.70339
G1 X198.405 Y157.805 E7.7096
G1 X197.915 Y157.564 E7.72906
G1 X197.511 Y157.16 E7.74942
G1 X197.3 Y156.759 E7.76556
G1 X197.247 Y156.532 E7.77387
G1 X197.247 Y152.919 E7.9026
G1 X197.299 Y152.693 E7.91086
G1 X197.445 Y152.385 E7.923
G1 X197.593 Y152.201 E7.93141
G1 X197.445 Y152.016 E7.93985
G1 X197.299 Y151.708 E7.95199
G1 X197.243 Y151.447 E7.9615
G1 X197.243 Y147.778 E8.09222
G1 X197.032 Y147.509 E8.1044
G1 X196.893 Y147.061 E8.12111
G1 X196.893 Y143.502 E8.24792
G1 X196.921 Y143.329 E8.25416
G1 X197.097 Y142.971 E8.26837
G1 X197.41 Y143.124 F4200
G1 F720
G1 X197.436 Y143.071 E8.27047
G1 X197.797 Y142.71 E8.28866
G1 X198.141 Y142.542 E8.3023
G1 X198.244 Y142.524 E8.30603
G1 X201.786 Y142.528 E8.43223
G1 X201.897 Y142.554 E8.43629
G1 X202.155 Y142.676 E8.44646
G1 X202.566 Y143.073 E8.46682
G1 X202.72 Y143.378 E8.47899
G1 X202.75 Y143.521 E8.4842
G1 X202.75 Y147.03 E8.60922
G1 X202.642 Y147.359 E8.62156
G1 X202.4 Y147.642 E8.63483
G1 X202.4 Y156.482 E8.9498
G1 X202.382 Y156.584 E8.95349
G1 X202.214 Y156.929 E8.96716
G1 X201.853 Y157.29 E8.98535
G1 X201.509 Y157.458 E8.99899
G1 X201.406 Y157.476 E9.00272
G1 X198.594 Y157.476 E9.10291
G1 X198.491 Y157.458 E9.10664
G1 X198.147 Y157.29 E9.12028
G1 X197.785 Y156.928 E9.13852
G1 X197.63 Y156.622 E9.15074
G1 X197.6 Y156.479 E9.15595
G1 X197.604 Y152.94 E9.28204
G1 X197.63 Y152.829 E9.2861
G1 X197.752 Y152.57 E9.2963
G1 X198.101 Y152.201 E9.3144
G1 X197.752 Y151.832 E9.3325
G1 X197.631 Y151.574 E9.34265
G1 X197.6 Y151.429 E9.34793
G1 X197.6 Y147.642 E9.48286
G1 X197.358 Y147.359 E9.49613
G1 X197.25 Y147.03 E9.50847
G1 X197.25 Y143.518 E9.6336
G1 X197.268 Y143.416 E9.63729
G1 X197.384 Y143.178 E9.64672
G1 X197.699 Y143.327 F4200
G1 F720
G1 X198.027 Y142.985 E9.6636
G1 X198.263 Y142.882 E9.67277
G1 X201.737 Y142.882 E9.79655
G1 X201.973 Y142.985 E9.80572
G1 X202.289 Y143.301 E9.82164
G1 X202.387 Y143.508 E9.8298
G1 X202.393 Y146.997 E9.95411
G1 X202.321 Y147.199 E9.96175
G1 X202.043 Y147.498 E9.9763
G1 X202.043 Y156.462 E10.29568
G1 X201.939 Y156.699 E10.3049
G1 X201.623 Y157.015 E10.32082
G1 X201.417 Y157.112 E10.32893
G1 X198.613 Y157.118 E10.42884
G1 X198.377 Y157.015 E10.43801
G1 X198.061 Y156.699 E10.45393
G1 X197.963 Y156.492 E10.46209
G1 X197.963 Y152.959 E10.58797
G1 X198.061 Y152.752 E10.59613
G1 X198.378 Y152.435 E10.6121
G1 X198.849 Y152.201 E10.63084
G1 X198.378 Y151.966 E10.64959
G1 X198.061 Y151.649 E10.66556
G1 X197.957 Y151.412 E10.67478
G1 X197.957 Y147.498 E10.81423
G1 X197.679 Y147.199 E10.82878
G1 X197.607 Y146.997 E10.83642
G1 X197.607 Y143.538 E10.95966
G1 X197.673 Y143.381 E10.96573
G1 X197.992 Y143.525 F4200
G1 F720
G1 X198.251 Y143.266 E10.97878
G1 X198.317 Y143.239 E10.98132
G1 X201.683 Y143.239 E11.10125
G1 X201.749 Y143.266 E11.10379
G1 X202.008 Y143.525 E11.11684
G1 X202.036 Y143.591 E11.11939
G1 X202.036 Y146.958 E11.23935
G1 X202.008 Y147.023 E11.24187
G1 X201.686 Y147.346 E11.25812
G1 X201.686 Y156.409 E11.58103
G1 X201.658 Y156.475 E11.58358
G1 X201.399 Y156.734 E11.59663
G1 X201.333 Y156.761 E11.59917
G1 X198.667 Y156.761 E11.69416
G1 X198.601 Y156.734 E11.6967
G1 X198.342 Y156.475 E11.70975
G1 X198.314 Y156.409 E11.7123
G1 X198.314 Y153.042 E11.83226
G1 X198.342 Y152.977 E11.83478
G1 X198.601 Y152.717 E11.84786
G1 X198.667 Y152.69 E11.8504
G1 X199.114 Y152.69 E11.86633
G1 X199.114 Y151.711 E11.90121
G1 X198.667 Y151.711 E11.91714
G1 X198.601 Y151.684 E11.91968
G1 X198.342 Y151.425 E11.93273
G1 X198.314 Y151.359 E11.93528
G1 X198.314 Y147.346 E12.07826
G1 X197.992 Y147.023 E12.09451
G1 X197.964 Y146.958 E12.09703
G1 X197.969 Y143.581 E12.21735
G1 X198.321 Y143.7 F4200
G1 F720
G1 X198.426 Y143.596 E12.22262
G1 X201.574 Y143.596 E12.33478
G1 X201.679 Y143.7 E12.34005
G1 X201.679 Y146.848 E12.45221
G1 X201.574 Y146.953 E12.4575
G1 X201.329 Y146.953 E12.46623
G1 X201.329 Y156.3 E12.79926
G1 X201.224 Y156.404 E12.80453
G1 X198.776 Y156.404 E12.89175
G1 X198.671 Y156.3 E12.89702
G1 X198.671 Y153.152 E13.00918
G1 X198.776 Y153.047 E13.01447
G1 X199.471 Y153.047 E13.03923
G1 X199.471 Y151.354 E13.09955
G1 X198.776 Y151.354 E13.12431
G1 X198.671 Y151.25 E13.12958
G1 X198.671 Y146.953 E13.28268
G1 X198.426 Y146.953 E13.29141
G1 X198.321 Y146.848 E13.2967
G1 X198.321 Y143.76 E13.40672
G1 E11.40672 F1800
G92 E0
G1 X199.138 Y145.772 F4200
G1 X199.749 Y148.156
G1 X199.97 Y148.838
G1 E2 F1800
G1 F720
G1 X200.13 Y148.838 E2.0057
G1 X200.204 Y148.869 E2.00856
G1 X200.317 Y148.982 E2.01425
G1 X200.358 Y149.136 E2.01993
G1 X200.348 Y149.216 E2.0228
G1 X200.268 Y149.354 E2.02848
G1 X200.13 Y149.434 E2.03416
G1 X199.97 Y149.434 E2.03986
G1 X199.832 Y149.354 E2.04554
G1 X199.783 Y149.29 E2.04841
G1 X199.742 Y149.136 E2.05409
G1 X199.752 Y149.056 E2.05696
G1 X199.832 Y148.918 E2.06264
G1 X199.915 Y148.861 E2.06623
G1 X199.778 Y148.531 F4200
G1 F720
G1 X199.877 Y148.49 E2.07005
G1 X200.05 Y148.467 E2.07627
G1 X200.223 Y148.49 E2.08249
G1 X200.384 Y148.557 E2.0887
G1 X200.523 Y148.663 E2.09493
G1 X200.629 Y148.801 E2.10113
G1 X200.696 Y148.963 E2.10738
G1 X200.719 Y149.136 E2.1136
G1 X200.696 Y149.309 E2.11982
G1 X200.629 Y149.47 E2.12603
G1 X200.523 Y149.609 E2.13226
G1 X200.384 Y149.715 E2.13849
G1 X200.223 Y149.782 E2.1447
G1 X200.05 Y149.804 E2.15091
G1 X199.877 Y149.782 E2.15712
G1 X199.716 Y149.715 E2.16333
G1 X199.577 Y149.609 E2.16956
G1 X199.471 Y149.47 E2.17579
G1 X199.404 Y149.309 E2.182
G1 X199.381 Y149.136 E2.18822
G1 X199.404 Y148.963 E2.19444
G1 X199.471 Y148.801 E2.20069
G1 X199.577 Y148.663 E2.20689
G1 X199.723 Y148.554 E2.21338
G1 E.21338 F1800
G92 E0
G1 X199.586 Y148.224 F4200
G1 X199.88 Y146.254
G1 X199.836 Y146.248
G1 X199.929 Y145.54
G1 E2 F1800
G1 F720
G1 X199.811 Y145.473 E2.00483
G1 X199.753 Y145.392 E2.00838
G1 X199.725 Y145.274 E2.0127
G1 X199.734 Y145.203 E2.01525
G1 X199.805 Y145.08 E2.02031
G1 X199.862 Y145.036 E2.02288
G1 X199.922 Y145.011 E2.0252
G1 X200.071 Y145.008 E2.03051
G1 X200.189 Y145.075 E2.03534
G1 X200.247 Y145.157 E2.03892
G1 X200.275 Y145.274 E2.04321
G1 X200.266 Y145.346 E2.0458
G1 X200.195 Y145.469 E2.05086
G1 X200.138 Y145.513 E2.05343
G1 X200.071 Y145.54 E2.056
G1 X199.989 Y145.54 E2.05892
G1 X199.941 Y145.902 F4200
G1 F720
G1 X199.836 Y145.888 E2.06269
G1 X199.682 Y145.825 E2.06862
G1 X199.551 Y145.724 E2.07451
G1 X199.438 Y145.565 E2.08146
G1 X199.386 Y145.439 E2.08632
G1 X199.364 Y145.274 E2.09225
G1 X199.386 Y145.11 E2.09815
G1 X199.45 Y144.956 E2.10409
G1 X199.551 Y144.825 E2.10998
G1 X199.682 Y144.724 E2.11587
G1 X199.836 Y144.66 E2.12181
G1 X200.029 Y144.643 E2.12871
G1 X200.164 Y144.66 E2.13356
G1 X200.318 Y144.724 E2.1395
G1 X200.449 Y144.825 E2.14539
G1 X200.562 Y144.983 E2.15231
G1 X200.614 Y145.11 E2.1572
G1 X200.636 Y145.274 E2.1631
G1 X200.614 Y145.439 E2.16903
G1 X200.55 Y145.592 E2.17494
G1 X200.449 Y145.724 E2.18086
G1 X200.318 Y145.825 E2.18675
G1 X200.164 Y145.888 E2.19268
G1 X200.001 Y145.91 E2.19854
G1 E.19854 F1800
G92 E0
G1 X200.95 Y146.574 F4200
G1 E2 F1800
;TYPE:External perimeter
G1 F270
G1 X200.95 Y148.514 E2.06912
G1 X200.575 Y148.226 E2.08597
G1 X200.322 Y148.121 E2.09573
G1 X200.05 Y148.085 E2.10551
G1 X199.791 Y148.119 E2.11482
G1 X199.526 Y148.225 E2.12499
G1 X199.307 Y148.393 E2.13482
G1 X199.195 Y148.539 E2.14138
G1 X199.05 Y148.489 E2.14684
G1 X199.05 Y146.574 E2.21507
G1 X198.7 Y146.574 E2.22754
G1 X198.7 Y143.974 E2.32018
G1 X201.3 Y143.974 E2.41282
G1 X201.3 Y146.574 E2.50546
G1 X201.01 Y146.574 E2.51579
G1 X200.595 Y146.759 F4200
G1 E.51579 F1800
G92 E0
G1 X200.584 Y146.097 F4200
G1 E2 F1800
G1 F270
G1 X200.509 Y146.155 E2.00338
G1 X200.263 Y146.257 E2.01287
G1 X200 Y146.292 E2.02232
G1 X199.737 Y146.257 E2.03177
G1 X199.491 Y146.155 E2.04126
G1 X199.281 Y145.994 E2.05069
G1 X199.119 Y145.783 E2.06017
G1 X199.015 Y145.533 E2.06982
G1 X198.99 Y145.217 E2.08111
G1 X199.017 Y145.011 E2.08851
G1 X199.119 Y144.766 E2.09797
G1 X199.281 Y144.555 E2.10745
G1 X199.496 Y144.39 E2.11711
G1 X199.794 Y144.284 E2.12838
G1 X200 Y144.257 E2.13578
G1 X200.263 Y144.292 E2.14523
G1 X200.509 Y144.393 E2.1547
G1 X200.719 Y144.555 E2.16415
G1 X200.881 Y144.766 E2.17363
G1 X200.983 Y145.011 E2.18309
G1 X201.017 Y145.274 E2.19254
G1 X200.983 Y145.538 E2.20202
G1 X200.881 Y145.783 E2.21148
G1 X200.719 Y145.994 E2.22096
G1 X200.632 Y146.061 E2.22487
G1 X200.602 Y146.191 F4200
G1 X200.593 Y146.574
;TYPE:Inner perimeter
G1 F270
G1 X200.593 Y147.847 E2.27023
G1 X200.415 Y147.773 E2.2771
G1 X200.05 Y147.725 E2.29022
G1 X199.7 Y147.771 E2.3028
G1 X199.407 Y147.888 E2.31404
G1 X199.407 Y146.507 E2.36324
G1 X199.643 Y146.605 E2.37234
G1 X200 Y146.652 E2.38517
G1 X200.357 Y146.605 E2.398
G1 X200.593 Y146.514 E2.40701
G1 E.40701 F1800
G92 E0
G1 X200.717 Y146.534 F4200
G1 X200.636 Y147.042
G1 X201.123 Y149.519
G1 X201.109 Y149.577
G1 X200.857 Y149.515
G1 E2 F1800
;TYPE:External perimeter
;WIDTH:0.223081
G1 F504
G1 X200.953 Y149.39 E2.00283
;WIDTH:0.239854
G1 X200.967 Y149.368 E2.00334
;WIDTH:0.27633
G1 X200.991 Y149.327 E2.00445
;WIDTH:0.312805
G1 X201.015 Y149.286 E2.00573
;WIDTH:0.312804
G1 X201.024 Y149.152 E2.00935
;WIDTH:0.295304
G1 X201.024 Y149.119 E2.01018
;WIDTH:0.312804
G1 X201.015 Y148.986 E2.01377
;WIDTH:0.312804
G1 X200.991 Y148.945 E2.01505
;WIDTH:0.276333
G1 X200.967 Y148.903 E2.01618
;WIDTH:0.239861
G1 X200.953 Y148.882 E2.01668
;WIDTH:0.223089
G1 X200.857 Y148.757 E2.01951
G1 E.01951 F1800
G92 E0
G1 X200.844 Y148.76 F4200
G1 X200.832 Y148.704
G1 X200.828 Y148.687
G1 X200.747 Y148.476
G1 X200.581 Y148.119
G1 X200.115 Y147.882
G1 X200.05 Y147.853
G1 X199.737 Y147.969
G1 X199.498 Y148.179
G1 X199.331 Y148.417
G1 X199.229 Y148.662
G1 X199.207 Y148.761
G1 X199.268 Y148.775
G1 E2 F1800
;WIDTH:0.361506
G1 F504
G1 X199.04 Y148.899 E2.00825
G1 X199.026 Y149.113 E2.01507
G1 X199.04 Y149.373 E2.02335
G1 X199.159 Y149.438 E2.02766
;WIDTH:0.361502
G1 X199.268 Y149.497 E2.0316
G1 E.0316 F1800
G92 E0
G1 X198.937 Y149.568 F4200
G1 X199.3 Y147.525
G1 X200.929 Y148.033
G1 X201.123 Y149.519
