; generated by CreatWare 7.0.0 on 2022-09-08 at 23:25:38 UTC

; 

; external perimeters extrusion width = 0.40mm
; perimeters extrusion width = 0.40mm
; infill extrusion width = 0.40mm
; solid infill extrusion width = 0.40mm
; top infill extrusion width = 0.40mm
; support material extrusion width = 0.40mm

; external perimeters extrusion width = 0.40mm
; perimeters extrusion width = 0.40mm
; infill extrusion width = 0.40mm
; solid infill extrusion width = 0.40mm
; top infill extrusion width = 0.40mm
; support material extrusion width = 0.40mm

; external perimeters extrusion width = 0.40mm
; perimeters extrusion width = 0.40mm
; infill extrusion width = 0.40mm
; solid infill extrusion width = 0.40mm
; top infill extrusion width = 0.40mm
; support material extrusion width = 0.40mm

; external perimeters extrusion width = 0.40mm
; perimeters extrusion width = 0.40mm
; infill extrusion width = 0.40mm
; solid infill extrusion width = 0.40mm
; top infill extrusion width = 0.40mm
; support material extrusion width = 0.40mm

; external perimeters extrusion width = 0.40mm
; perimeters extrusion width = 0.40mm
; infill extrusion width = 0.40mm
; solid infill extrusion width = 0.40mm
; top infill extrusion width = 0.40mm
; support material extrusion width = 0.40mm

; external perimeters extrusion width = 0.40mm
; perimeters extrusion width = 0.40mm
; infill extrusion width = 0.40mm
; solid infill extrusion width = 0.40mm
; top infill extrusion width = 0.40mm
; support material extrusion width = 0.40mm

; external perimeters extrusion width = 0.40mm
; perimeters extrusion width = 0.40mm
; infill extrusion width = 0.40mm
; solid infill extrusion width = 0.40mm
; top infill extrusion width = 0.40mm
; support material extrusion width = 0.40mm

; external perimeters extrusion width = 0.40mm
; perimeters extrusion width = 0.40mm
; infill extrusion width = 0.40mm
; solid infill extrusion width = 0.40mm
; top infill extrusion width = 0.40mm
; support material extrusion width = 0.40mm

; external perimeters extrusion width = 0.40mm
; perimeters extrusion width = 0.40mm
; infill extrusion width = 0.40mm
; solid infill extrusion width = 0.40mm
; top infill extrusion width = 0.40mm
; support material extrusion width = 0.40mm

; external perimeters extrusion width = 0.40mm
; perimeters extrusion width = 0.40mm
; infill extrusion width = 0.40mm
; solid infill extrusion width = 0.40mm
; top infill extrusion width = 0.40mm
; support material extrusion width = 0.40mm

; external perimeters extrusion width = 0.40mm
; perimeters extrusion width = 0.40mm
; infill extrusion width = 0.40mm
; solid infill extrusion width = 0.40mm
; top infill extrusion width = 0.40mm
; support material extrusion width = 0.40mm

; external perimeters extrusion width = 0.40mm
; perimeters extrusion width = 0.40mm
; infill extrusion width = 0.40mm
; solid infill extrusion width = 0.40mm
; top infill extrusion width = 0.40mm
; support material extrusion width = 0.40mm

; external perimeters extrusion width = 0.40mm
; perimeters extrusion width = 0.40mm
; infill extrusion width = 0.40mm
; solid infill extrusion width = 0.40mm
; top infill extrusion width = 0.40mm
; support material extrusion width = 0.40mm

G21 ; set units to millimeters
G90 ; use absolute coordinates
M82 ; use absolute distances for extrusion
G92 E0
M107
M190 S45 ; set bed temperature and wait for it to be reached
M104 S205 ; set temperature
;TYPE:Custom
M109 S205 ; set temperature and wait for it to be reached
M6013 S0 ; set chamber temp

G28 X0 Y0  ;move X/Y to min endstops
G28 Z0     ;move Z to min endstops

;Add Clear Nozzle
G92 E0                   ;zero the extruded length again
G0 F4200 X0 Y0
G0 F400 X10 Z0.4         ;move a bit while down the Z
M221 T0 S300             ;set flow is 300%
G1 F200 X30 E8          ;extrude amont filament to clean the hotend
M221 T0 S100             ;reset flow is 100%
G92 E0                   ;zero the extruded length again
;Add End

G0 Z15.0 F4200 ;move the platform down 15mm

;Put printing message on LCD screen
M117 Printing...
; Filament gcode
M107
;LAYER_CHANGE
;Layer 1
;Z:0.2
;HEIGHT:0.2
;BEFORE_LAYER_CHANGE
;0.2


G1 Z.2 F4200
;AFTER_LAYER_CHANGE
;G92 E0   ;zero the extruded length again
;0.2
G1 E-2 F1800
G92 E0
G1 X74.421 Y76.05 F4200
G1 E2 F1800
;TYPE:Skirt/Brim
;WIDTH:0.4
G1 F720
G1 X76.265 Y74.768 E2.08002
G1 X78.739 Y74.191 E2.17053
G1 X315.516 Y67.656 E10.61
G1 X335.465 Y67.654 E11.32077
G1 X337.676 Y68.05 E11.4008
G1 X339.961 Y69.516 E11.49753
G1 X342.304 Y71.859 E11.61559
G1 X343.587 Y73.703 E11.69563
G1 X344.164 Y76.217 E11.78753
G1 X345.847 Y154.406 E14.57401
G1 X345.848 Y177.813 E15.40799
G1 X345.726 Y179.052 E15.45235
G1 X333.231 Y241.935 E17.73665
G1 X332.411 Y244.026 E17.81668
G1 X331.491 Y245.191 E17.86957
G1 X329.148 Y247.534 E17.98763
G1 X327.304 Y248.817 E18.06767
G1 X324.956 Y249.389 E18.15377
G1 X308.256 Y250.187 E18.74946
G1 X299.97 Y250.195 E19.04469
G1 X115.508 Y248.959 E25.61714
G1 X59.267 Y248.044 E27.62125
G1 X57.063 Y247.611 E27.70128
G1 X54.875 Y246.183 E27.79437
G1 X52.532 Y243.84 E27.91243
G1 X51.249 Y241.996 E27.99247
G1 X50.67 Y239.345 E28.08915
G1 X50.67 Y230.031 E28.421
G1 X50.725 Y229.194 E28.45089
G1 X70.271 Y82.052 E33.73955
G1 X70.956 Y79.912 E33.81961
G1 X72.078 Y78.394 E33.88687
G1 X74.379 Y76.093 E34.00281
G1 E32.00281 F1800
G92 E0
G1 X313.74 Y77.016 F4200
G1 E2 F1800
G1 F720
G1 X313.942 Y76.391 E2.0234
G1 X314.112 Y76.145 E2.03405
G1 X315.5 Y74.757 E2.10399
G1 X315.989 Y74.491 E2.12382
G1 X316.377 Y74.404 E2.13799
G1 X334.816 Y74.407 E2.79496
G1 X335.169 Y74.492 E2.8079
G1 X335.656 Y74.757 E2.82765
G1 X337.063 Y76.164 E2.89855
G1 X337.378 Y76.801 E2.92387
G1 X337.416 Y77.043 E2.9326
G1 X337.407 Y84.772 E3.20798
G1 X337.328 Y85.084 E3.21945
G1 X337.063 Y85.57 E3.23917
G1 X335.655 Y86.978 E3.31012
G1 X335.116 Y87.261 E3.33181
G1 X334.775 Y87.33 E3.34421
G1 X331.081 Y87.33 E3.47583
G1 X331.081 Y97.219 E3.82817
G1 X330.9 Y97.801 E3.84989
G1 X330.729 Y98.064 E3.86107
G1 X329.321 Y99.477 E3.93214
G1 X328.835 Y99.742 E3.95186
G1 X328.523 Y99.821 E3.96333
G1 X322.679 Y99.83 E4.17155
G1 X322.054 Y99.628 E4.19495
G1 X321.808 Y99.458 E4.2056
G1 X320.42 Y98.07 E4.27554
G1 X320.155 Y97.582 E4.29533
G1 X320.081 Y97.315 E4.3052
G1 X320.067 Y87.33 E4.66096
G1 X316.381 Y87.33 E4.79229
G1 X316.039 Y87.261 E4.80472
G1 X315.501 Y86.978 E4.82638
G1 X314.094 Y85.57 E4.8973
G1 X313.811 Y85.038 E4.91877
G1 X313.74 Y84.694 E4.93128
G1 X313.74 Y77.076 E5.20271
G1 X314.097 Y77.076 F4200
G1 F720
G1 X314.252 Y76.57 E5.22157
G1 X314.377 Y76.385 E5.22953
G1 X315.733 Y75.029 E5.29786
G1 X316.132 Y74.818 E5.31394
G1 X316.396 Y74.761 E5.32356
G1 X334.796 Y74.764 E5.97914
G1 X335.024 Y74.818 E5.98749
G1 X335.423 Y75.029 E6.00357
G1 X336.789 Y76.396 E6.07242
G1 X337.031 Y76.885 E6.09186
G1 X337.058 Y77.058 E6.0981
G1 X337.05 Y84.749 E6.37213
G1 X337.002 Y84.936 E6.37901
G1 X336.79 Y85.337 E6.39517
G1 X335.423 Y86.704 E6.46405
G1 X334.979 Y86.931 E6.48182
G1 X334.759 Y86.972 E6.48979
G1 X330.724 Y86.972 E6.63356
G1 X330.724 Y97.19 E6.99762
G1 X330.57 Y97.664 E7.01538
G1 X330.444 Y97.848 E7.02333
G1 X329.088 Y99.204 E7.09166
G1 X328.688 Y99.416 E7.10779
G1 X328.5 Y99.464 E7.1147
G1 X322.707 Y99.472 E7.3211
G1 X322.233 Y99.318 E7.33886
G1 X322.048 Y99.193 E7.34682
G1 X320.693 Y97.837 E7.41512
G1 X320.481 Y97.436 E7.43128
G1 X320.433 Y97.249 E7.43816
G1 X320.424 Y86.972 E7.80433
G1 X316.397 Y86.972 E7.94781
G1 X316.177 Y86.931 E7.95578
G1 X315.733 Y86.704 E7.97355
G1 X314.366 Y85.337 E8.04243
G1 X314.155 Y84.938 E8.05851
G1 X314.097 Y84.674 E8.06814
G1 X314.097 Y77.136 E8.33672
G1 X314.454 Y77.136 F4200
G1 F720
G1 X314.454 Y77.075 E8.33889
G1 X314.58 Y76.713 E8.35255
G1 X314.639 Y76.628 E8.35624
G1 X315.964 Y75.303 E8.423
G1 X316.27 Y75.148 E8.43522
G1 X316.414 Y75.118 E8.44046
G1 X334.775 Y75.121 E9.09465
G1 X334.883 Y75.147 E9.09861
G1 X335.192 Y75.303 E9.11094
G1 X336.516 Y76.627 E9.17765
G1 X336.683 Y76.971 E9.19127
G1 X336.701 Y77.074 E9.195
G1 X336.698 Y84.689 E9.46632
G1 X336.672 Y84.797 E9.47028
G1 X336.517 Y85.106 E9.4826
G1 X335.193 Y86.43 E9.54931
G1 X334.848 Y86.598 E9.56298
G1 X334.745 Y86.615 E9.5667
G1 X330.367 Y86.615 E9.72269
G1 X330.367 Y97.158 E10.09833
G1 X330.242 Y97.521 E10.11201
G1 X330.182 Y97.606 E10.11572
G1 X328.857 Y98.931 E10.18248
G1 X328.549 Y99.086 E10.19477
G1 X328.44 Y99.112 E10.19876
G1 X322.739 Y99.115 E10.40188
G1 X322.376 Y98.99 E10.41556
G1 X322.291 Y98.931 E10.41925
G1 X320.966 Y97.606 E10.48601
G1 X320.81 Y97.297 E10.49834
G1 X320.785 Y97.189 E10.50229
G1 X320.781 Y86.615 E10.87904
G1 X316.41 Y86.615 E11.03478
G1 X316.308 Y86.598 E11.03846
G1 X315.963 Y86.43 E11.05213
G1 X314.639 Y85.106 E11.11884
G1 X314.484 Y84.799 E11.13109
G1 X314.454 Y84.656 E11.1363
G1 X314.454 Y77.196 E11.4021
G1 X314.812 Y77.196 F4200
G1 F720
G1 X314.812 Y77.107 E11.40527
G1 X314.906 Y76.866 E11.41449
G1 X316.193 Y75.579 E11.47934
G1 X316.43 Y75.475 E11.48856
G1 X334.726 Y75.475 E12.14044
G1 X334.963 Y75.579 E12.14966
G1 X336.241 Y76.857 E12.21406
G1 X336.344 Y77.094 E12.22327
G1 X336.344 Y84.64 E12.49213
G1 X336.241 Y84.877 E12.50134
G1 X334.963 Y86.155 E12.56574
G1 X334.756 Y86.252 E12.57388
G1 X330.01 Y86.258 E12.74298
G1 X330.01 Y97.126 E13.1302
G1 X329.916 Y97.367 E13.13942
G1 X328.628 Y98.655 E13.20432
G1 X328.391 Y98.758 E13.21353
G1 X322.771 Y98.758 E13.41377
G1 X322.53 Y98.664 E13.42299
G1 X321.242 Y97.377 E13.48786
G1 X321.139 Y97.14 E13.49707
G1 X321.139 Y86.258 E13.88479
G1 X316.4 Y86.252 E14.05364
G1 X316.193 Y86.155 E14.06178
G1 X314.915 Y84.877 E14.12618
G1 X314.812 Y84.64 E14.13539
G1 X314.812 Y77.256 E14.39848
G1 X315.169 Y77.256 F4200
G1 F720
G1 X315.169 Y77.147 E14.40236
G1 X315.196 Y77.081 E14.4049
G1 X316.418 Y75.859 E14.46647
G1 X316.483 Y75.832 E14.46898
G1 X334.673 Y75.832 E15.11708
G1 X334.738 Y75.859 E15.11959
G1 X335.96 Y77.081 E15.18116
G1 X335.987 Y77.147 E15.1837
G1 X335.987 Y84.587 E15.44878
G1 X335.96 Y84.652 E15.45129
G1 X334.738 Y85.874 E15.51286
G1 X334.673 Y85.901 E15.51537
G1 X329.653 Y85.901 E15.69423
G1 X329.653 Y97.087 E16.09278
G1 X329.626 Y97.152 E16.09529
G1 X328.404 Y98.374 E16.15686
G1 X328.338 Y98.401 E16.1594
G1 X322.81 Y98.401 E16.35636
G1 X322.745 Y98.374 E16.35887
G1 X321.523 Y97.152 E16.42044
G1 X321.496 Y97.087 E16.42295
G1 X321.496 Y85.901 E16.8215
G1 X316.483 Y85.901 E17.00011
G1 X316.418 Y85.874 E17.00262
G1 X315.196 Y84.652 E17.06419
G1 X315.169 Y84.587 E17.0667
G1 X315.169 Y77.316 E17.32576
G1 E15.32576 F1800
G92 E0
G1 X261.03 Y79.176 F4200
G1 E2 F1800
G1 F720
G1 X261.022 Y86.905 E2.27538
G1 X260.942 Y87.217 E2.28686
G1 X260.677 Y87.703 E2.30658
G1 X259.27 Y89.111 E2.3775
G1 X258.731 Y89.394 E2.39919
G1 X258.39 Y89.463 E2.41159
G1 X254.696 Y89.463 E2.54321
G1 X254.696 Y99.352 E2.89555
G1 X254.515 Y99.934 E2.91727
G1 X254.344 Y100.198 E2.92848
G1 X252.936 Y101.61 E2.99953
G1 X252.45 Y101.875 E3.01925
G1 X252.138 Y101.955 E3.03073
G1 X246.294 Y101.963 E3.23895
G1 X245.669 Y101.761 E3.26235
G1 X245.423 Y101.591 E3.273
G1 X244.035 Y100.203 E3.34294
G1 X243.769 Y99.716 E3.36271
G1 X243.696 Y99.448 E3.37261
G1 X243.682 Y89.463 E3.72837
G1 X239.995 Y89.463 E3.85974
G1 X239.654 Y89.394 E3.87214
G1 X239.116 Y89.111 E3.8938
G1 X237.709 Y87.704 E3.9647
G1 X237.426 Y87.171 E3.9862
G1 X237.355 Y86.827 E3.99871
G1 X237.355 Y79.149 E4.27227
G1 X237.557 Y78.524 E4.29567
G1 X237.727 Y78.278 E4.30632
G1 X239.115 Y76.89 E4.37626
G1 X239.604 Y76.624 E4.39609
G1 X239.992 Y76.537 E4.41026
G1 X258.431 Y76.541 E5.06723
G1 X258.784 Y76.625 E5.08016
G1 X259.271 Y76.89 E5.09991
G1 X260.678 Y78.297 E5.17081
G1 X260.993 Y78.934 E5.19613
G1 X261.021 Y79.117 E5.20273
G1 X260.671 Y79.173 F4200
G1 F720
G1 X260.665 Y86.882 E5.4774
G1 X260.617 Y87.07 E5.48431
G1 X260.405 Y87.47 E5.50044
G1 X259.038 Y88.837 E5.56932
G1 X258.594 Y89.064 E5.58709
G1 X258.374 Y89.106 E5.59507
G1 X254.339 Y89.106 E5.73884
G1 X254.339 Y99.323 E6.10287
G1 X254.185 Y99.797 E6.12063
G1 X254.059 Y99.982 E6.12861
G1 X252.703 Y101.338 E6.19694
G1 X252.303 Y101.549 E6.21305
G1 X252.115 Y101.597 E6.21996
G1 X246.322 Y101.606 E6.42636
G1 X245.848 Y101.452 E6.44412
G1 X245.663 Y101.326 E6.4521
G1 X244.308 Y99.97 E6.5204
G1 X244.096 Y99.57 E6.53653
G1 X244.048 Y99.382 E6.54344
G1 X244.039 Y89.106 E6.90957
G1 X240.011 Y89.106 E7.05309
G1 X239.792 Y89.064 E7.06104
G1 X239.348 Y88.837 E7.07881
G1 X237.981 Y87.47 E7.14769
G1 X237.77 Y87.071 E7.16377
G1 X237.712 Y86.807 E7.1734
G1 X237.712 Y79.177 E7.44525
G1 X237.866 Y78.703 E7.46301
G1 X237.992 Y78.518 E7.47099
G1 X239.348 Y77.162 E7.53932
G1 X239.747 Y76.951 E7.5554
G1 X240.011 Y76.894 E7.56502
G1 X258.411 Y76.898 E8.2206
G1 X258.639 Y76.952 E8.22895
G1 X259.038 Y77.162 E8.24501
G1 X260.404 Y78.529 E8.31386
G1 X260.645 Y79.018 E8.33328
G1 X260.661 Y79.114 E8.33675
G1 X260.311 Y79.175 F4200
G1 F720
G1 X260.313 Y86.822 E8.60921
G1 X260.287 Y86.931 E8.6132
G1 X260.131 Y87.239 E8.6255
G1 X258.808 Y88.563 E8.69219
G1 X258.463 Y88.731 E8.70586
G1 X258.36 Y88.749 E8.70959
G1 X253.982 Y88.749 E8.86558
G1 X253.982 Y99.291 E9.24119
G1 X253.857 Y99.654 E9.25487
G1 X253.797 Y99.739 E9.25858
G1 X252.472 Y101.064 E9.32534
G1 X252.164 Y101.22 E9.33764
G1 X252.055 Y101.245 E9.34162
G1 X246.354 Y101.249 E9.54474
G1 X245.991 Y101.124 E9.55842
G1 X245.906 Y101.064 E9.56213
G1 X244.581 Y99.739 E9.62889
G1 X244.425 Y99.431 E9.64119
G1 X244.4 Y99.322 E9.64517
G1 X244.396 Y88.749 E10.02188
G1 X240.025 Y88.749 E10.17762
G1 X239.923 Y88.731 E10.18131
G1 X239.578 Y88.563 E10.19498
G1 X238.254 Y87.239 E10.26169
G1 X238.099 Y86.933 E10.27391
G1 X238.069 Y86.79 E10.27912
G1 X238.069 Y79.208 E10.54926
G1 X238.194 Y78.846 E10.56291
G1 X238.254 Y78.761 E10.56662
G1 X239.579 Y77.436 E10.63338
G1 X239.885 Y77.281 E10.6456
G1 X240.028 Y77.251 E10.65081
G1 X258.39 Y77.255 E11.30504
G1 X258.498 Y77.28 E11.30899
G1 X258.807 Y77.436 E11.32132
G1 X260.131 Y78.76 E11.38803
G1 X260.3 Y79.116 E11.40207
G1 X259.953 Y79.197 F4200
G1 F720
G1 X259.959 Y86.773 E11.672
G1 X259.855 Y87.01 E11.68122
G1 X258.578 Y88.288 E11.74559
G1 X258.371 Y88.386 E11.75375
G1 X253.625 Y88.392 E11.92285
G1 X253.625 Y99.26 E12.31007
G1 X253.548 Y99.475 E12.31821
G1 X252.243 Y100.788 E12.38417
G1 X252.006 Y100.892 E12.39339
G1 X246.386 Y100.892 E12.59363
G1 X246.17 Y100.814 E12.60181
G1 X244.857 Y99.51 E12.66774
G1 X244.754 Y99.273 E12.67695
G1 X244.754 Y88.392 E13.06464
G1 X240.015 Y88.386 E13.23349
G1 X239.808 Y88.288 E13.24165
G1 X238.53 Y87.01 E13.30605
G1 X238.427 Y86.773 E13.31526
G1 X238.427 Y79.24 E13.58366
G1 X238.504 Y79.025 E13.5918
G1 X239.808 Y77.712 E13.65773
G1 X240.045 Y77.608 E13.66695
G1 X258.341 Y77.608 E14.31883
G1 X258.578 Y77.712 E14.32805
G1 X259.855 Y78.99 E14.39242
G1 X259.928 Y79.142 E14.39843
G1 X259.601 Y79.278 F4200
G1 F720
G1 X259.602 Y86.72 E14.66359
G1 X259.575 Y86.785 E14.6661
G1 X258.353 Y88.007 E14.72767
G1 X258.288 Y88.034 E14.73018
G1 X253.268 Y88.034 E14.90904
G1 X253.268 Y99.22 E15.30759
G1 X253.24 Y99.285 E15.31011
G1 X252.019 Y100.507 E15.37166
G1 X251.953 Y100.534 E15.3742
G1 X246.425 Y100.534 E15.57116
G1 X246.36 Y100.507 E15.57367
G1 X245.138 Y99.285 E15.63524
G1 X245.111 Y99.22 E15.63775
G1 X245.111 Y88.034 E16.0363
G1 X240.098 Y88.034 E16.21491
G1 X240.033 Y88.007 E16.21742
G1 X238.811 Y86.785 E16.27899
G1 X238.784 Y86.72 E16.2815
G1 X238.784 Y79.28 E16.54658
G1 X238.811 Y79.214 E16.54912
G1 X240.033 Y77.993 E16.61067
G1 X240.098 Y77.965 E16.61319
G1 X258.288 Y77.965 E17.26129
G1 X258.353 Y77.993 E17.26381
G1 X259.578 Y79.222 E17.32564
G1 E15.32564 F1800
G92 E0
G1 X244.52 Y155.869 F4200
G1 E2 F1800
G1 F720
G1 X244.787 Y155.943 E2.00987
G1 X245.275 Y156.208 E2.02966
G1 X246.682 Y157.615 E2.10056
G1 X246.947 Y158.103 E2.12035
G1 X247.021 Y158.37 E2.13022
G1 X247.035 Y172.784 E2.64378
G1 X246.877 Y173.318 E2.66362
G1 X246.664 Y173.654 E2.67779
G1 X245.275 Y175.043 E2.74778
G1 X244.787 Y175.309 E2.76758
G1 X244.52 Y175.382 E2.77744
G1 X236.433 Y175.396 E3.06558
G1 X235.899 Y175.239 E3.08541
G1 X235.563 Y175.026 E3.09958
G1 X234.174 Y173.636 E3.16959
G1 X233.908 Y173.148 E3.18939
