; generated by CreatWare 7.0.0 on 2022-09-09 at 17:47:34 UTC

; 

; external perimeters extrusion width = 0.40mm
; perimeters extrusion width = 0.40mm
; infill extrusion width = 0.40mm
; solid infill extrusion width = 0.40mm
; top infill extrusion width = 0.40mm
; support material extrusion width = 0.40mm

; external perimeters extrusion width = 0.40mm
; perimeters extrusion width = 0.40mm
; infill extrusion width = 0.40mm
; solid infill extrusion width = 0.40mm
; top infill extrusion width = 0.40mm
; support material extrusion width = 0.40mm

; external perimeters extrusion width = 0.40mm
; perimeters extrusion width = 0.40mm
; infill extrusion width = 0.40mm
; solid infill extrusion width = 0.40mm
; top infill extrusion width = 0.40mm
; support material extrusion width = 0.40mm

; external perimeters extrusion width = 0.40mm
; perimeters extrusion width = 0.40mm
; infill extrusion width = 0.40mm
; solid infill extrusion width = 0.40mm
; top infill extrusion width = 0.40mm
; support material extrusion width = 0.40mm

; external perimeters extrusion width = 0.40mm
; perimeters extrusion width = 0.40mm
; infill extrusion width = 0.40mm
; solid infill extrusion width = 0.40mm
; top infill extrusion width = 0.40mm
; support material extrusion width = 0.40mm

; external perimeters extrusion width = 0.40mm
; perimeters extrusion width = 0.40mm
; infill extrusion width = 0.40mm
; solid infill extrusion width = 0.40mm
; top infill extrusion width = 0.40mm
; support material extrusion width = 0.40mm

; external perimeters extrusion width = 0.40mm
; perimeters extrusion width = 0.40mm
; infill extrusion width = 0.40mm
; solid infill extrusion width = 0.40mm
; top infill extrusion width = 0.40mm
; support material extrusion width = 0.40mm

; external perimeters extrusion width = 0.40mm
; perimeters extrusion width = 0.40mm
; infill extrusion width = 0.40mm
; solid infill extrusion width = 0.40mm
; top infill extrusion width = 0.40mm
; support material extrusion width = 0.40mm

G21 ; set units to millimeters
G90 ; use absolute coordinates
M82 ; use absolute distances for extrusion
G92 E0
M107
M190 S45 ; set bed temperature and wait for it to be reached
M104 S220 ; set temperature
;TYPE:Custom
M109 S220 ; set temperature and wait for it to be reached
M6013 S0 ; set chamber temp

G28 X0 Y0  ;move X/Y to min endstops
G28 Z0     ;move Z to min endstops

;Add Clear Nozzle
G92 E0                   ;zero the extruded length again
G0 F4200 X0 Y0
G0 F400 X10 Z0.4         ;move a bit while down the Z
M221 T0 S300             ;set flow is 300%
G1 F200 X30 E8          ;extrude amont filament to clean the hotend
M221 T0 S100             ;reset flow is 100%
G92 E0                   ;zero the extruded length again
;Add End

G0 Z15.0 F4200 ;move the platform down 15mm

;Put printing message on LCD screen
M117 Printing...
; Filament gcode
M107
;LAYER_CHANGE
;Layer 1
;Z:0.2
;HEIGHT:0.2
;BEFORE_LAYER_CHANGE
;0.2


G1 E-2 F1800
G92 E0
G1 Z.2 F4200
;AFTER_LAYER_CHANGE
;G92 E0   ;zero the extruded length again
;0.2
G1 X73.546 Y78.997
G1 E2 F1800
;TYPE:Skirt/Brim
;WIDTH:0.4
G1 F720
G1 X75.39 Y77.714 E2.08004
G1 X77.065 Y77.21 E2.14236
G1 X88.442 Y75.494 E2.5523
G1 X325.219 Y68.959 E10.99177
G1 X340.155 Y68.956 E11.52393
G1 X342.366 Y69.353 E11.60397
G1 X344.755 Y70.923 E11.70582
G1 X346.038 Y72.767 E11.78586
G1 X346.617 Y75.418 E11.88254
G1 X346.617 Y98.75 E12.71385
G1 X345.848 Y177.875 E15.53317
G1 X345.43 Y180.082 E15.6132
G1 X344.351 Y181.922 E15.6892
G1 X342.688 Y183.432 E15.76923
G1 X340.604 Y184.27 E15.84926
G1 X339.329 Y184.402 E15.89493
G1 X90.583 Y185.003 E24.75766
G1 X89.612 Y184.929 E24.79236
G1 X79.033 Y183.292 E25.17377
G1 X76.909 Y182.562 E25.25379
G1 X75.51 Y181.505 E25.31626
G1 X72.788 Y178.748 E25.4543
G1 X71.212 Y176.865 E25.54179
G1 X70.097 Y174.915 E25.62182
G1 X69.731 Y172.955 E25.69286
G1 X67.767 Y99.764 E28.30156
G1 X67.765 Y87.71 E28.73104
G1 X68.161 Y85.499 E28.81107
G1 X69.255 Y83.619 E28.88857
G1 X71.203 Y81.34 E28.99539
G1 X73.503 Y79.039 E29.11131
;WIPE_START
G1 F3360
G1 X75.39 Y77.714 E27.93786
G1 X76.945 Y77.246 E27.11131
;WIPE_END
G92 E0
G1 X312.253 Y158.554 F4200
G1 E2 F1800
G1 F720
G1 X312.467 Y158.218 E2.01419
G1 X313.856 Y156.828 E2.0842
G1 X314.343 Y156.562 E2.10397
G1 X314.611 Y156.489 E2.11387
G1 X322.795 Y156.489 E2.40546
G1 X323.063 Y156.562 E2.41536
G1 X323.55 Y156.828 E2.43513
G1 X324.957 Y158.235 E2.50603
G1 X325.223 Y158.722 E2.5258
G1 X325.296 Y158.99 E2.5357
G1 X325.31 Y173.404 E3.04926
G1 X325.153 Y173.938 E3.06909
G1 X324.94 Y174.274 E3.08326
G1 X323.55 Y175.663 E3.15327
G1 X323.063 Y175.929 E3.17304
G1 X322.795 Y176.002 E3.18294
G1 X314.709 Y176.016 E3.47104
G1 X314.175 Y175.859 E3.49087
G1 X313.839 Y175.645 E3.50506
G1 X312.449 Y174.256 E3.57507
G1 X312.183 Y173.768 E3.59487
G1 X312.1 Y173.416 E3.60776
G1 X312.096 Y159.087 E4.1183
G1 X312.236 Y158.611 E4.13598
G1 X312.577 Y158.716 F4200
G1 F720
G1 X312.732 Y158.457 E4.14673
G1 X314.089 Y157.1 E4.21511
G1 X314.489 Y156.889 E4.23122
G1 X314.677 Y156.841 E4.23813
G1 X322.729 Y156.841 E4.52502
G1 X322.917 Y156.889 E4.53193
G1 X323.317 Y157.1 E4.54804
G1 X324.685 Y158.468 E4.61697
G1 X324.896 Y158.868 E4.63308
G1 X324.945 Y159.056 E4.64
G1 X324.953 Y173.376 E5.15022
G1 X324.82 Y173.808 E5.16632
G1 X324.674 Y174.034 E5.17591
G1 X323.317 Y175.391 E5.24429
G1 X322.917 Y175.602 E5.2604
G1 X322.729 Y175.651 E5.26732
G1 X314.736 Y175.659 E5.55211
G1 X314.305 Y175.526 E5.56818
G1 X314.078 Y175.38 E5.5778
G1 X312.722 Y174.023 E5.64615
G1 X312.51 Y173.623 E5.66228
G1 X312.457 Y173.396 E5.67059
G1 X312.453 Y159.115 E6.17942
G1 X312.559 Y158.773 E6.19218
G1 X312.896 Y158.884 F4200
G1 F720
G1 X312.997 Y158.697 E6.19975
G1 X314.32 Y157.374 E6.26641
G1 X314.628 Y157.218 E6.27871
G1 X314.737 Y157.193 E6.28269
G1 X322.669 Y157.193 E6.5653
G1 X322.778 Y157.218 E6.56928
G1 X323.086 Y157.374 E6.58158
G1 X324.411 Y158.699 E6.64834
G1 X324.567 Y159.007 E6.66064
G1 X324.592 Y159.116 E6.66462
G1 X324.596 Y173.346 E7.17163
G1 X324.489 Y173.672 E7.18385
G1 X324.409 Y173.794 E7.18905
G1 X323.086 Y175.117 E7.25571
G1 X322.778 Y175.273 E7.26801
G1 X322.669 Y175.298 E7.27199
G1 X314.766 Y175.302 E7.55357
G1 X314.44 Y175.195 E7.56579
G1 X314.318 Y175.115 E7.57099
G1 X312.995 Y173.792 E7.63765
G1 X312.84 Y173.486 E7.64987
G1 X312.81 Y173.343 E7.65508
G1 X312.81 Y159.145 E8.16095
G1 X312.877 Y158.941 E8.1686
G1 X313.21 Y159.06 F4200
G1 F720
G1 X313.262 Y158.938 E8.17333
G1 X314.549 Y157.65 E8.2382
G1 X314.786 Y157.546 E8.24742
G1 X322.62 Y157.546 E8.52654
G1 X322.857 Y157.65 E8.53576
G1 X324.135 Y158.928 E8.60016
G1 X324.239 Y159.165 E8.60938
G1 X324.239 Y173.313 E9.11347
G1 X324.145 Y173.554 E9.12269
G1 X322.857 Y174.841 E9.18756
G1 X322.62 Y174.945 E9.19678
G1 X314.8 Y174.945 E9.4754
G1 X314.559 Y174.85 E9.48463
G1 X313.271 Y173.563 E9.5495
G1 X313.168 Y173.326 E9.55871
G1 X313.168 Y159.178 E10.0628
G1 X313.19 Y159.117 E10.06511
G1 X313.525 Y159.218 F4200
G1 F720
G1 X313.552 Y159.153 E10.06762
G1 X314.774 Y157.931 E10.12919
G1 X314.839 Y157.904 E10.1317
G1 X322.567 Y157.904 E10.40705
G1 X322.633 Y157.931 E10.40959
G1 X323.854 Y159.153 E10.47114
G1 X323.882 Y159.218 E10.47366
G1 X323.882 Y173.273 E10.97443
G1 X323.854 Y173.339 E10.97698
G1 X322.633 Y174.56 E11.0385
G1 X322.567 Y174.588 E11.04105
G1 X314.839 Y174.588 E11.3164
G1 X314.774 Y174.56 E11.31892
G1 X313.552 Y173.339 E11.38047
G1 X313.525 Y173.273 E11.38301
G1 X313.525 Y159.278 E11.88165
;WIPE_START
G1 F3360
G1 X313.552 Y159.153 E11.81657
G1 X314.774 Y157.931 E10.93706
G1 X314.839 Y157.904 E10.90124
G1 X316.842 Y157.904 E9.88165
;WIPE_END
G92 E0
G1 X247.022 Y159.342 F4200
G1 E2 F1800
G1 F720
G1 X247.035 Y172.784 E2.47893
G1 X246.877 Y173.318 E2.49877
G1 X246.664 Y173.654 E2.51294
G1 X245.275 Y175.043 E2.58293
G1 X244.787 Y175.309 E2.60273
G1 X244.52 Y175.382 E2.61259
G1 X236.433 Y175.396 E2.90073
G1 X235.899 Y175.239 E2.92056
G1 X235.563 Y175.026 E2.93473
G1 X234.174 Y173.636 E3.00474
G1 X233.908 Y173.148 E3.02454
G1 X233.825 Y172.796 E3.03743
G1 X233.821 Y158.468 E3.54793
G1 X233.978 Y157.934 E3.56776
G1 X234.191 Y157.598 E3.58193
G1 X235.581 Y156.208 E3.65197
G1 X236.068 Y155.943 E3.67172
G1 X236.336 Y155.869 E3.68163
G1 X244.52 Y155.869 E3.97322
G1 X244.787 Y155.943 E3.98309
G1 X245.275 Y156.208 E4.00288
G1 X246.682 Y157.615 E4.07378
G1 X246.947 Y158.103 E4.09357
G1 X247.021 Y158.37 E4.10344
G1 X247.022 Y159.282 E4.13593
G1 X246.67 Y159.282 F4200
G1 F720
G1 X246.678 Y172.756 E4.616
G1 X246.544 Y173.188 E4.63212
G1 X246.398 Y173.414 E4.64171
G1 X245.042 Y174.771 E4.71006
G1 X244.641 Y174.983 E4.72622
G1 X244.454 Y175.031 E4.7331
G1 X236.461 Y175.039 E5.01789
G1 X236.029 Y174.906 E5.03399
G1 X235.803 Y174.76 E5.04358
G1 X234.446 Y173.404 E5.11193
G1 X234.235 Y173.003 E5.12807
G1 X234.182 Y172.776 E5.13638
G1 X234.178 Y158.495 E5.64521
G1 X234.311 Y158.064 E5.66128
G1 X234.457 Y157.837 E5.6709
G1 X235.813 Y156.481 E5.73923
G1 X236.214 Y156.269 E5.75539
G1 X236.402 Y156.221 E5.7623
G1 X244.454 Y156.221 E6.04919
G1 X244.641 Y156.269 E6.05607
G1 X245.042 Y156.481 E6.07223
G1 X246.409 Y157.848 E6.14111
G1 X246.621 Y158.249 E6.15727
G1 X246.669 Y158.436 E6.16415
G1 X246.67 Y159.222 E6.19215
G1 X246.317 Y159.222 F4200
G1 F720
G1 X246.32 Y172.726 E6.67329
G1 X246.213 Y173.052 E6.68551
G1 X246.133 Y173.175 E6.69074
G1 X244.811 Y174.497 E6.75735
G1 X244.502 Y174.653 E6.76968
G1 X244.394 Y174.679 E6.77364
G1 X236.491 Y174.682 E7.05522
G1 X236.165 Y174.575 E7.06744
G1 X236.042 Y174.495 E7.07267
G1 X234.72 Y173.172 E7.13931
G1 X234.565 Y172.866 E7.15153
G1 X234.535 Y172.723 E7.15674
G1 X234.535 Y158.526 E7.66257
G1 X234.642 Y158.199 E7.67483
G1 X234.722 Y158.077 E7.68003
G1 X236.045 Y156.754 E7.74669
G1 X236.353 Y156.599 E7.75898
G1 X236.461 Y156.573 E7.76294
G1 X244.394 Y156.573 E8.04559
G1 X244.502 Y156.599 E8.04955
G1 X244.811 Y156.754 E8.06187
G1 X246.136 Y158.079 E8.12863
G1 X246.291 Y158.388 E8.14095
G1 X246.317 Y158.496 E8.14491
G1 X246.317 Y159.162 E8.16864
G1 X245.963 Y159.162 F4200
G1 F720
G1 X245.963 Y172.693 E8.65074
G1 X245.886 Y172.908 E8.65888
G1 X244.582 Y174.221 E8.72481
G1 X244.345 Y174.325 E8.73403
G1 X236.524 Y174.325 E9.01269
G1 X236.309 Y174.248 E9.02083
G1 X234.996 Y172.943 E9.08679
G1 X234.892 Y172.706 E9.09601
G1 X234.892 Y158.559 E9.60006
G1 X234.969 Y158.343 E9.60823
G1 X236.274 Y157.03 E9.67419
G1 X236.511 Y156.927 E9.6834
G1 X244.345 Y156.927 E9.96252
G1 X244.582 Y157.03 E9.97173
G1 X245.86 Y158.308 E10.03613
G1 X245.963 Y158.545 E10.04534
G1 X245.963 Y159.102 E10.06519
G1 X245.606 Y159.102 F4200
G1 F720
G1 X245.606 Y172.653 E10.54801
G1 X245.579 Y172.719 E10.55055
G1 X244.357 Y173.941 E10.61212
G1 X244.292 Y173.968 E10.61463
G1 X236.564 Y173.968 E10.88998
G1 X236.498 Y173.941 E10.89252
G1 X235.276 Y172.719 E10.95409
G1 X235.249 Y172.653 E10.95663
G1 X235.249 Y158.598 E11.4574
G1 X235.276 Y158.533 E11.45991
G1 X236.498 Y157.311 E11.52148
G1 X236.564 Y157.284 E11.52402
G1 X244.292 Y157.284 E11.79937
G1 X244.357 Y157.311 E11.80188
G1 X245.579 Y158.533 E11.86345
G1 X245.606 Y158.598 E11.86596
G1 X245.606 Y159.042 E11.88178
;WIPE_START
G1 F3360
G1 X245.606 Y162.972 E9.88178
;WIPE_END
G92 E0
G1 X245.503 Y99.013 F4200
G1 E2 F1800
G1 F720
G1 X239.092 Y99.024 E2.22842
G1 X238.558 Y98.867 E2.24825
G1 X238.222 Y98.654 E2.26242
G1 X236.833 Y97.264 E2.33243
G1 X236.567 Y96.776 E2.35223
G1 X236.484 Y96.424 E2.36512
G1 X236.48 Y82.095 E2.87566
G1 X236.637 Y81.562 E2.89546
G1 X236.851 Y81.226 E2.90965
G1 X238.24 Y79.836 E2.97966
G1 X238.727 Y79.571 E2.99941
G1 X238.995 Y79.497 E3.00932
G1 X247.179 Y79.497 E3.30091
G1 X247.447 Y79.571 E3.31082
G1 X247.934 Y79.836 E3.33057
G1 X249.341 Y81.243 E3.40147
G1 X249.607 Y81.73 E3.42124
G1 X249.68 Y81.998 E3.43114
G1 X249.694 Y96.412 E3.9447
G1 X249.537 Y96.946 E3.96453
G1 X249.323 Y97.282 E3.97872
G1 X247.934 Y98.671 E4.04871
G1 X247.447 Y98.937 E4.06848
G1 X247.179 Y99.01 E4.07838
G1 X245.563 Y99.013 E4.13596
G1 X245.563 Y98.66 F4200
G1 F720
G1 X239.12 Y98.667 E4.36552
G1 X238.688 Y98.534 E4.38162
G1 X238.462 Y98.388 E4.39121
G1 X237.105 Y97.031 E4.45959
G1 X236.894 Y96.631 E4.4757
G1 X236.841 Y96.404 E4.48401
G1 X236.837 Y82.123 E4.99284
G1 X236.97 Y81.692 E5.00891
G1 X237.116 Y81.465 E5.01853
G1 X238.473 Y80.109 E5.08688
G1 X238.873 Y79.897 E5.10301
G1 X239.061 Y79.849 E5.10992
G1 X247.113 Y79.849 E5.39681
G1 X247.301 Y79.897 E5.40372
G1 X247.701 Y80.109 E5.41985
G1 X249.068 Y81.476 E5.48873
G1 X249.28 Y81.876 E5.50486
G1 X249.328 Y82.064 E5.51177
G1 X249.337 Y96.384 E6.02199
G1 X249.203 Y96.816 E6.03811
G1 X249.058 Y97.042 E6.04768
G1 X247.701 Y98.399 E6.11606
G1 X247.301 Y98.61 E6.13217
G1 X247.113 Y98.659 E6.13909
G1 X245.623 Y98.66 E6.19218
G1 X245.623 Y98.307 F4200
G1 F720
G1 X239.15 Y98.31 E6.42281
G1 X238.824 Y98.203 E6.43503
G1 X238.702 Y98.123 E6.44023
G1 X237.379 Y96.8 E6.50689
G1 X237.224 Y96.494 E6.51911
G1 X237.194 Y96.351 E6.52432
G1 X237.194 Y82.153 E7.03019
G1 X237.301 Y81.827 E7.04241
G1 X237.381 Y81.705 E7.04761
G1 X238.704 Y80.382 E7.11427
G1 X239.012 Y80.226 E7.12657
G1 X239.121 Y80.201 E7.13055
G1 X247.053 Y80.201 E7.41316
G1 X247.162 Y80.226 E7.41714
G1 X247.47 Y80.382 E7.42944
G1 X248.795 Y81.707 E7.4962
G1 X248.951 Y82.015 E7.5085
G1 X248.976 Y82.124 E7.51248
G1 X248.98 Y96.354 E8.01949
G1 X248.873 Y96.68 E8.03171
G1 X248.793 Y96.802 E8.03691
G1 X247.47 Y98.125 E8.10357
G1 X247.162 Y98.281 E8.11587
G1 X247.053 Y98.306 E8.11985
G1 X245.683 Y98.307 E8.16866
G1 X245.683 Y97.953 F4200
G1 F720
G1 X239.183 Y97.953 E8.40025
G1 X238.942 Y97.859 E8.40947
G1 X237.655 Y96.571 E8.47434
G1 X237.557 Y96.364 E8.4825
G1 X237.551 Y82.187 E8.98762
G1 X237.645 Y81.946 E8.99684
G1 X238.933 Y80.658 E9.06174
G1 X239.14 Y80.561 E9.06988
G1 X247.004 Y80.555 E9.35007
G1 X247.241 Y80.658 E9.35928
G1 X248.519 Y81.936 E9.42368
G1 X248.616 Y82.143 E9.43182
G1 X248.622 Y96.321 E9.93698
G1 X248.528 Y96.562 E9.9462
G1 X247.241 Y97.849 E10.01105
G1 X247.004 Y97.953 E10.02027
G1 X245.743 Y97.953 E10.0652
G1 X245.743 Y97.596 F4200
G1 F720
G1 X239.223 Y97.596 E10.2975
G1 X239.157 Y97.569 E10.30004
G1 X237.936 Y96.347 E10.36159
G1 X237.908 Y96.281 E10.36414
G1 X237.908 Y82.226 E10.86491
G1 X237.936 Y82.161 E10.86743
G1 X239.157 Y80.939 E10.92898
G1 X239.223 Y80.912 E10.93152
G1 X246.951 Y80.912 E11.20687
G1 X247.016 Y80.939 E11.20938
G1 X248.238 Y82.161 E11.27095
G1 X248.265 Y82.226 E11.27346
G1 X248.265 Y96.281 E11.77423
G1 X248.238 Y96.347 E11.77677
G1 X247.016 Y97.569 E11.83834
G1 X246.951 Y97.596 E11.84085
G1 X245.803 Y97.596 E11.88175
;WIPE_START
G1 F3360
G1 X241.873 Y97.596 E9.88175
;WIPE_END
G92 E0
G1 X312.869 Y94.291 F4200
G1 E2 F1800
G1 F720
G1 X312.865 Y79.962 E2.51054
G1 X313.022 Y79.428 E2.53037
G1 X313.236 Y79.092 E2.54456
G1 X314.625 Y77.703 E2.61455
G1 X315.112 Y77.437 E2.63432
G1 X315.38 Y77.364 E2.64422
G1 X323.564 Y77.364 E2.93581
G1 X323.832 Y77.437 E2.94571
G1 X324.319 Y77.703 E2.96548
G1 X325.726 Y79.11 E3.03638
G1 X325.992 Y79.597 E3.05615
G1 X326.065 Y79.865 E3.06605
G1 X326.079 Y94.279 E3.57961
G1 X325.922 Y94.813 E3.59944
G1 X325.708 Y95.148 E3.6136
G1 X324.319 Y96.538 E3.68361
G1 X323.832 Y96.804 E3.70338
G1 X323.564 Y96.877 E3.71328
G1 X315.477 Y96.891 E4.00142
G1 X314.943 Y96.734 E4.02125
G1 X314.607 Y96.52 E4.03544
G1 X313.218 Y95.131 E4.10543
G1 X312.952 Y94.643 E4.12523
G1 X312.883 Y94.349 E4.13599
G1 X313.226 Y94.271 F4200
G1 F720
G1 X313.222 Y79.99 E4.64482
G1 X313.355 Y79.558 E4.66092
G1 X313.501 Y79.332 E4.67051
G1 X314.858 Y77.975 E4.73889
G1 X315.258 Y77.764 E4.755
G1 X315.446 Y77.715 E4.76192
G1 X323.498 Y77.715 E5.04881
G1 X323.686 Y77.764 E5.05573
G1 X324.086 Y77.975 E5.07184
G1 X325.454 Y79.343 E5.14077
G1 X325.665 Y79.743 E5.15688
G1 X325.714 Y79.931 E5.1638
G1 X325.722 Y94.251 E5.67402
G1 X325.588 Y94.682 E5.6901
G1 X325.443 Y94.909 E5.6997
G1 X324.086 Y96.266 E5.76808
G1 X323.686 Y96.477 E5.78419
G1 X323.498 Y96.526 E5.79111
G1 X315.505 Y96.534 E6.0759
G1 X315.073 Y96.4 E6.09202
G1 X314.847 Y96.255 E6.10159
G1 X313.49 Y94.898 E6.16997
G1 X313.279 Y94.498 E6.18608
G1 X313.24 Y94.329 E6.19226
G1 X313.587 Y94.256 F4200
G1 F720
