; generated by CreatWare 7.0.0 on 2022-07-21 at 22:49:14 UTC

; 

; external perimeters extrusion width = 0.40mm
; perimeters extrusion width = 0.40mm
; infill extrusion width = 0.40mm
; solid infill extrusion width = 0.40mm
; top infill extrusion width = 0.40mm

; external perimeters extrusion width = 0.40mm
; perimeters extrusion width = 0.40mm
; infill extrusion width = 0.40mm
; solid infill extrusion width = 0.40mm
; top infill extrusion width = 0.40mm

; external perimeters extrusion width = 0.40mm
; perimeters extrusion width = 0.40mm
; infill extrusion width = 0.40mm
; solid infill extrusion width = 0.40mm
; top infill extrusion width = 0.40mm

; external perimeters extrusion width = 0.40mm
; perimeters extrusion width = 0.40mm
; infill extrusion width = 0.40mm
; solid infill extrusion width = 0.40mm
; top infill extrusion width = 0.40mm

; external perimeters extrusion width = 0.40mm
; perimeters extrusion width = 0.40mm
; infill extrusion width = 0.40mm
; solid infill extrusion width = 0.40mm
; top infill extrusion width = 0.40mm

; external perimeters extrusion width = 0.40mm
; perimeters extrusion width = 0.40mm
; infill extrusion width = 0.40mm
; solid infill extrusion width = 0.40mm
; top infill extrusion width = 0.40mm

; external perimeters extrusion width = 0.40mm
; perimeters extrusion width = 0.40mm
; infill extrusion width = 0.40mm
; solid infill extrusion width = 0.40mm
; top infill extrusion width = 0.40mm

; external perimeters extrusion width = 0.40mm
; perimeters extrusion width = 0.40mm
; infill extrusion width = 0.40mm
; solid infill extrusion width = 0.40mm
; top infill extrusion width = 0.40mm

; external perimeters extrusion width = 0.40mm
; perimeters extrusion width = 0.40mm
; infill extrusion width = 0.40mm
; solid infill extrusion width = 0.40mm
; top infill extrusion width = 0.40mm

G21 ; set units to millimeters
G90 ; use absolute coordinates
M82 ; use absolute distances for extrusion
G92 E0
M107
M190 S45 ; set bed temperature and wait for it to be reached
M104 S210 ; set temperature
;TYPE:Custom
M109 S210 ; set temperature and wait for it to be reached
M6013 S0 ; set chamber temp

G28 X0 Y0  ;move X/Y to min endstops
G28 Z0     ;move Z to min endstops

;Add Clear Nozzle
G92 E0                   ;zero the extruded length again
G0 F4200 X0 Y0
G0 F400 X10 Z0.4         ;move a bit while down the Z
M221 T0 S300             ;set flow is 300%
G1 F200 X30 E8          ;extrude amont filament to clean the hotend
M221 T0 S100             ;reset flow is 100%
G92 E0                   ;zero the extruded length again
;Add End

G0 Z15.0 F4200 ;move the platform down 15mm

;Put printing message on LCD screen
M117 Printing...
; Filament gcode
M107
;LAYER_CHANGE
;Layer 1
;Z:0.2
;HEIGHT:0.2
;BEFORE_LAYER_CHANGE
;0.2


G1 Z.2 F4200
;AFTER_LAYER_CHANGE
;G92 E0   ;zero the extruded length again
;0.2
G1 E-2 F1800
G92 E0
G1 X73.27 Y52.481 F4200
G1 E2 F1800
;TYPE:Skirt/Brim
;WIDTH:0.4
G1 F720
G1 X75.613 Y50.138 E2.11806
G1 X77.457 Y48.855 E2.1981
G1 X80.108 Y48.276 E2.29478
G1 X103.346 Y48.277 E3.12274
G1 X162.298 Y49.556 E5.22367
G1 X164.5 Y50.001 E5.30371
G1 X166.655 Y51.416 E5.39556
G1 X168.998 Y53.76 E5.51364
G1 X170.281 Y55.604 E5.59368
G1 X170.86 Y58.255 E5.69036
G1 X170.86 Y66.568 E5.98655
G1 X170.609 Y110.79 E7.56219
G1 X169.838 Y212.027 E11.16932
G1 X169.424 Y214.235 E11.24936
G1 X167.976 Y216.474 E11.34436
G1 X165.633 Y218.817 E11.46242
G1 X163.94 Y220.028 E11.53658
G1 X106.407 Y248.282 E13.8203
G1 X103.604 Y248.933 E13.92283
G1 X80.505 Y248.933 E14.74584
G1 X78.294 Y248.536 E14.82588
G1 X76.01 Y247.071 E14.92256
G1 X73.667 Y244.728 E15.04062
G1 X72.384 Y242.884 E15.12066
G1 X71.808 Y240.45 E15.20978
G1 X69.921 Y185.335 E17.17465
G1 X69.115 Y133.564 E19.01945
G1 X69.122 Y108.96 E19.89608
G1 X71.414 Y56.697 E21.75998
G1 X71.908 Y54.506 E21.84
G1 X73.237 Y52.53 E21.92485
G1 E19.92485 F1800
G92 E0
G1 X95.472 Y213.958 F4200
G1 E2 F1800
G1 F720
G1 X102.955 Y213.961 E2.26662
G1 X103.308 Y214.045 E2.27955
G1 X103.794 Y214.311 E2.29929
G1 X105.201 Y215.717 E2.37016
G1 X105.468 Y216.206 E2.39001
G1 X105.554 Y216.594 E2.40417
G1 X105.54 Y239.668 E3.22629
G1 X105.467 Y239.936 E3.23619
G1 X105.201 Y240.423 E3.25596
G1 X103.794 Y241.83 E3.32686
G1 X103.306 Y242.096 E3.34666
G1 X102.917 Y242.183 E3.36086
G1 X98.806 Y242.169 E3.50733
G1 X98.539 Y242.096 E3.51719
G1 X98.051 Y241.83 E3.53699
G1 X96.644 Y240.423 E3.60789
G1 X96.328 Y239.786 E3.63323
G1 X96.291 Y239.544 E3.64195
G1 X96.291 Y226.174 E4.11832
G1 X95.39 Y226.162 E4.15043
G1 X94.772 Y225.945 E4.17377
G1 X94.575 Y225.8 E4.18249
G1 X93.187 Y224.412 E4.25243
G1 X92.904 Y223.879 E4.27393
G1 X92.834 Y223.536 E4.2864
G1 X92.847 Y216.472 E4.53809
G1 X92.921 Y216.205 E4.54796
G1 X93.186 Y215.717 E4.56775
G1 X94.594 Y214.31 E4.63867
G1 X95.231 Y213.995 E4.66399
G1 X95.413 Y213.967 E4.67055
G1 X95.47 Y214.317 F4200
G1 F720
G1 X102.935 Y214.318 E4.93652
G1 X103.163 Y214.372 E4.94487
G1 X103.562 Y214.583 E4.96095
G1 X104.929 Y215.95 E5.02983
G1 X105.14 Y216.35 E5.04594
G1 X105.197 Y216.613 E5.05553
G1 X105.189 Y239.602 E5.87462
G1 X105.141 Y239.79 E5.88153
G1 X104.929 Y240.19 E5.89766
G1 X103.562 Y241.558 E5.96657
G1 X103.162 Y241.769 E5.98268
G1 X102.899 Y241.826 E5.99227
G1 X98.872 Y241.818 E6.13575
G1 X98.685 Y241.769 E6.14264
G1 X98.284 Y241.558 E6.15878
G1 X96.917 Y240.191 E6.22766
G1 X96.676 Y239.702 E6.24708
G1 X96.648 Y239.529 E6.25332
G1 X96.648 Y225.814 E6.74198
G1 X95.475 Y225.814 E6.78377
G1 X94.958 Y225.639 E6.80322
G1 X94.816 Y225.536 E6.80947
G1 X93.459 Y224.179 E6.87785
G1 X93.248 Y223.779 E6.89396
G1 X93.191 Y223.516 E6.90355
G1 X93.199 Y216.538 E7.15217
G1 X93.247 Y216.351 E7.15905
G1 X93.459 Y215.95 E7.17521
G1 X94.825 Y214.584 E7.24404
G1 X95.314 Y214.343 E7.26346
G1 X95.41 Y214.327 E7.26693
G1 X95.472 Y214.677 F4200
G1 F720
G1 X102.914 Y214.675 E7.53209
G1 X103.022 Y214.701 E7.53605
G1 X103.331 Y214.857 E7.54838
G1 X104.655 Y216.181 E7.61509
G1 X104.81 Y216.488 E7.62734
G1 X104.84 Y216.631 E7.63255
G1 X104.837 Y239.542 E8.44886
G1 X104.811 Y239.651 E8.45285
G1 X104.655 Y239.959 E8.46515
G1 X103.331 Y241.284 E8.53189
G1 X103.024 Y241.439 E8.54414
G1 X102.881 Y241.469 E8.54935
G1 X98.932 Y241.465 E8.69005
G1 X98.823 Y241.44 E8.69403
G1 X98.515 Y241.284 E8.70633
G1 X97.191 Y239.96 E8.77304
G1 X97.023 Y239.615 E8.78671
G1 X97.006 Y239.513 E8.79039
G1 X97.006 Y225.457 E9.2912
G1 X95.505 Y225.457 E9.34468
G1 X95.142 Y225.332 E9.35836
G1 X95.057 Y225.272 E9.36207
G1 X93.732 Y223.947 E9.42883
G1 X93.578 Y223.641 E9.44104
G1 X93.548 Y223.498 E9.44625
G1 X93.551 Y216.598 E9.69209
G1 X93.577 Y216.49 E9.69605
G1 X93.732 Y216.181 E9.70837
G1 X95.056 Y214.857 E9.77508
G1 X95.412 Y214.688 E9.78912
G1 X95.493 Y215.035 F4200
G1 F720
G1 X102.865 Y215.029 E10.05178
G1 X103.102 Y215.133 E10.061
G1 X104.379 Y216.41 E10.12535
G1 X104.477 Y216.617 E10.13351
G1 X104.483 Y239.493 E10.94857
G1 X104.379 Y239.73 E10.95779
G1 X103.102 Y241.008 E11.02216
G1 X102.895 Y241.106 E11.03032
G1 X98.951 Y241.106 E11.17084
G1 X98.744 Y241.008 E11.179
G1 X97.466 Y239.73 E11.2434
G1 X97.369 Y239.523 E11.25154
G1 X97.363 Y225.1 E11.76543
G1 X95.537 Y225.1 E11.83049
G1 X95.321 Y225.023 E11.83866
G1 X94.008 Y223.718 E11.90462
G1 X93.905 Y223.481 E11.91383
G1 X93.905 Y216.647 E12.15732
G1 X94.008 Y216.41 E12.16653
G1 X95.286 Y215.133 E12.2309
G1 X95.439 Y215.06 E12.23694
G1 X95.574 Y215.387 F4200
G1 F720
G1 X102.811 Y215.386 E12.49479
G1 X102.877 Y215.413 E12.49733
G1 X104.099 Y216.635 E12.5589
G1 X104.126 Y216.7 E12.56141
G1 X104.126 Y239.44 E13.37163
G1 X104.099 Y239.506 E13.37417
G1 X102.877 Y240.727 E13.43572
G1 X102.811 Y240.755 E13.43827
G1 X99.034 Y240.755 E13.57284
G1 X98.969 Y240.727 E13.57536
G1 X97.747 Y239.506 E13.63691
G1 X97.72 Y239.44 E13.63945
G1 X97.72 Y224.743 E14.1631
G1 X95.576 Y224.743 E14.23949
G1 X95.511 Y224.716 E14.242
G1 X94.289 Y223.494 E14.30357
G1 X94.262 Y223.428 E14.30611
G1 X94.262 Y216.7 E14.54583
G1 X94.289 Y216.635 E14.54834
G1 X95.519 Y215.41 E14.61019
G1 E12.61019 F1800
G92 E0
G1 X91.239 Y216.355 F4200
G1 E2 F1800
G1 F720
G1 X91.276 Y216.596 E2.00869
G1 X91.276 Y223.534 E2.25589
G1 X91.189 Y223.923 E2.27009
G1 X90.923 Y224.411 E2.28989
G1 X89.485 Y225.841 E2.36215
G1 X89.249 Y225.99 E2.37209
G1 X88.78 Y226.152 E2.38977
G1 X87.818 Y226.172 E2.42405
G1 X87.818 Y239.544 E2.90049
G1 X87.781 Y239.786 E2.90921
G1 X87.465 Y240.423 E2.93455
G1 X86.057 Y241.831 E3.0055
G1 X85.519 Y242.114 E3.02716
G1 X85.178 Y242.183 E3.03956
G1 X81.194 Y242.183 E3.18151
G1 X80.952 Y242.146 E3.19023
G1 X80.315 Y241.83 E3.21557
G1 X78.908 Y240.423 E3.28647
G1 X78.642 Y239.935 E3.30627
G1 X78.555 Y239.546 E3.32047
G1 X78.555 Y216.596 E4.13817
G1 X78.592 Y216.355 E4.14686
G1 X78.908 Y215.718 E4.1722
G1 X80.315 Y214.31 E4.24312
G1 X80.952 Y213.995 E4.26844
G1 X81.194 Y213.958 E4.27716
G1 X88.677 Y213.961 E4.54378
G1 X89.03 Y214.045 E4.55671
G1 X89.516 Y214.311 E4.57645
G1 X90.923 Y215.718 E4.64735
G1 X91.212 Y216.301 E4.67053
G1 X90.891 Y216.439 F4200
G1 F720
G1 X90.919 Y216.611 E4.67674
G1 X90.919 Y223.516 E4.92276
G1 X90.862 Y223.779 E4.93235
G1 X90.651 Y224.179 E4.94846
G1 X89.272 Y225.553 E5.01782
G1 X89.11 Y225.661 E5.02476
G1 X88.692 Y225.805 E5.04051
G1 X87.461 Y225.816 E5.08437
G1 X87.461 Y239.529 E5.57296
G1 X87.433 Y239.702 E5.5792
G1 X87.192 Y240.191 E5.59862
G1 X85.825 Y241.558 E5.6675
G1 X85.381 Y241.784 E5.68525
G1 X85.162 Y241.826 E5.6932
G1 X81.209 Y241.826 E5.83404
G1 X81.036 Y241.798 E5.84028
G1 X80.547 Y241.557 E5.8597
G1 X79.18 Y240.19 E5.92858
G1 X78.969 Y239.791 E5.94466
G1 X78.912 Y239.528 E5.95425
G1 X78.912 Y216.611 E6.77077
G1 X78.94 Y216.439 E6.77698
G1 X79.181 Y215.949 E6.79644
G1 X80.547 Y214.584 E6.86524
G1 X81.036 Y214.343 E6.88466
G1 X81.209 Y214.315 E6.8909
G1 X88.656 Y214.318 E7.15623
G1 X88.884 Y214.372 E7.16458
G1 X89.283 Y214.583 E7.18066
G1 X90.65 Y215.949 E7.24951
G1 X90.864 Y216.385 E7.26681
G1 X90.544 Y216.525 F4200
G1 F720
G1 X90.562 Y216.628 E7.27054
G1 X90.562 Y223.498 E7.51532
G1 X90.532 Y223.641 E7.52053
G1 X90.377 Y223.947 E7.53275
G1 X89.052 Y225.272 E7.59951
G1 X88.967 Y225.332 E7.60322
G1 X88.604 Y225.457 E7.6169
G1 X87.104 Y225.457 E7.67034
G1 X87.104 Y239.513 E8.17115
G1 X87.086 Y239.615 E8.17484
G1 X86.918 Y239.96 E8.18851
G1 X85.595 Y241.283 E8.25517
G1 X85.25 Y241.451 E8.26884
G1 X85.148 Y241.469 E8.27253
G1 X81.225 Y241.469 E8.4123
G1 X81.123 Y241.451 E8.41599
G1 X80.778 Y241.283 E8.42966
G1 X79.454 Y239.959 E8.49637
G1 X79.299 Y239.653 E8.50859
G1 X79.269 Y239.51 E8.5138
G1 X79.269 Y216.628 E9.32908
G1 X79.287 Y216.525 E9.33281
G1 X79.455 Y216.18 E9.34648
G1 X80.778 Y214.857 E9.41314
G1 X81.123 Y214.69 E9.4268
G1 X81.225 Y214.672 E9.43049
G1 X88.635 Y214.675 E9.69451
G1 X88.744 Y214.701 E9.6985
G1 X89.052 Y214.857 E9.7108
G1 X90.376 Y216.18 E9.77749
G1 X90.518 Y216.471 E9.78903
G1 X90.199 Y216.617 F4200
G1 F720
G1 X90.199 Y223.512 E10.0347
G1 X90.101 Y223.718 E10.04283
G1 X88.788 Y225.023 E10.10879
G1 X88.573 Y225.1 E10.11693
G1 X86.747 Y225.1 E10.18199
G1 X86.741 Y239.523 E10.69588
G1 X86.643 Y239.73 E10.70404
G1 X85.365 Y241.008 E10.76844
G1 X85.158 Y241.106 E10.7766
G1 X81.215 Y241.106 E10.91709
G1 X81.008 Y241.008 E10.92525
G1 X79.73 Y239.73 E10.98965
G1 X79.626 Y239.493 E10.99887
G1 X79.632 Y216.617 E11.81393
G1 X79.73 Y216.41 E11.82209
G1 X81.008 Y215.133 E11.88646
G1 X81.245 Y215.029 E11.89568
G1 X88.586 Y215.029 E12.15724
G1 X88.823 Y215.133 E12.16646
G1 X90.101 Y216.41 E12.23083
G1 X90.173 Y216.563 E12.23685
G1 X89.847 Y216.698 F4200
G1 F720
G1 X89.847 Y223.428 E12.47664
G1 X89.82 Y223.494 E12.47918
G1 X88.599 Y224.716 E12.54073
G1 X88.533 Y224.743 E12.54327
G1 X86.39 Y224.743 E12.61962
G1 X86.39 Y239.44 E13.14327
G1 X86.362 Y239.506 E13.14582
G1 X85.141 Y240.727 E13.20734
G1 X85.075 Y240.755 E13.20989
G1 X81.298 Y240.755 E13.34446
G1 X81.232 Y240.727 E13.34701
G1 X80.01 Y239.506 E13.40856
G1 X79.983 Y239.44 E13.4111
G1 X79.983 Y216.7 E14.22132
G1 X80.01 Y216.635 E14.22383
G1 X81.232 Y215.413 E14.2854
G1 X81.298 Y215.386 E14.28794
G1 X88.533 Y215.386 E14.54572
G1 X88.599 Y215.413 E14.54826
G1 X89.824 Y216.643 E14.61011
G1 E12.61011 F1800
G92 E0
G1 X83.632 Y186.998 F4200
G1 E2 F1800
G1 F720
G1 X83.291 Y187.067 E2.0124
G1 X79.306 Y187.067 E2.15438
G1 X79.065 Y187.03 E2.16307
G1 X78.428 Y186.714 E2.18841
G1 X77.021 Y185.307 E2.25931
G1 X76.754 Y184.819 E2.27913
G1 X76.668 Y184.43 E2.29332
G1 X76.668 Y161.48 E3.11102
G1 X76.705 Y161.239 E3.11971
G1 X77.02 Y160.602 E3.14503
G1 X78.428 Y159.195 E3.21595
G1 X79.065 Y158.879 E3.24129
G1 X79.307 Y158.842 E3.25001
G1 X86.789 Y158.845 E3.51659
G1 X87.142 Y158.93 E3.52953
G1 X87.629 Y159.195 E3.54928
G1 X89.036 Y160.602 E3.62018
G1 X89.352 Y161.239 E3.64552
G1 X89.389 Y161.48 E3.65421
G1 X89.389 Y168.419 E3.90144
G1 X89.302 Y168.807 E3.91561
G1 X89.036 Y169.296 E3.93544
G1 X87.598 Y170.725 E4.00767
G1 X87.362 Y170.875 E4.01763
G1 X86.893 Y171.036 E4.0353
G1 X85.931 Y171.056 E4.06958
G1 X85.931 Y184.429 E4.54605
G1 X85.894 Y184.67 E4.55474
G1 X85.578 Y185.307 E4.58008
G1 X84.17 Y186.715 E4.65103
G1 X83.685 Y186.97 E4.67055
G1 X83.523 Y186.653 F4200
G1 F720
G1 X83.275 Y186.71 E4.67962
G1 X79.321 Y186.71 E4.8205
G1 X79.149 Y186.682 E4.82671
G1 X78.659 Y186.441 E4.84617
G1 X77.293 Y185.075 E4.915
G1 X77.082 Y184.675 E4.93111
G1 X77.025 Y184.412 E4.9407
G1 X77.025 Y161.495 E5.75722
G1 X77.053 Y161.323 E5.76343
G1 X77.294 Y160.833 E5.78289
G1 X78.659 Y159.468 E5.85167
G1 X79.149 Y159.227 E5.87113
G1 X79.321 Y159.199 E5.87734
G1 X86.769 Y159.202 E6.14271
G1 X86.997 Y159.256 E6.15106
G1 X87.396 Y159.467 E6.16714
G1 X88.762 Y160.833 E6.23597
G1 X89.004 Y161.323 E6.25544
G1 X89.032 Y161.495 E6.26165
G1 X89.032 Y168.4 E6.50767
G1 X88.974 Y168.663 E6.51727
G1 X88.763 Y169.063 E6.53338
G1 X87.385 Y170.438 E6.60274
G1 X87.222 Y170.545 E6.60969
G1 X86.805 Y170.689 E6.62541
G1 X85.574 Y170.7 E6.66927
G1 X85.574 Y184.414 E7.15789
G1 X85.546 Y184.586 E7.1641
G1 X85.305 Y185.075 E7.18352
G1 X83.938 Y186.442 E7.2524
G1 X83.577 Y186.626 E7.26684
G1 X83.421 Y186.307 F4200
G1 F720
G1 X83.261 Y186.353 E7.27277
G1 X79.338 Y186.353 E7.41254
G1 X79.235 Y186.335 E7.41627
G1 X78.891 Y186.167 E7.42991
G1 X77.567 Y184.843 E7.49662
G1 X77.412 Y184.537 E7.50884
G1 X77.382 Y184.394 E7.51405
G1 X77.382 Y161.512 E8.32933
G1 X77.4 Y161.409 E8.33306
G1 X77.568 Y161.065 E8.3467
G1 X78.891 Y159.742 E8.41336
G1 X79.235 Y159.574 E8.427
G1 X79.338 Y159.556 E8.43073
G1 X86.748 Y159.559 E8.69475
G1 X86.857 Y159.585 E8.69874
G1 X87.165 Y159.741 E8.71104
G1 X88.489 Y161.065 E8.77775
G1 X88.657 Y161.409 E8.79139
G1 X88.674 Y161.512 E8.79511
G1 X88.674 Y168.382 E9.03989
G1 X88.644 Y168.525 E9.0451
G1 X88.49 Y168.832 E9.05734
G1 X87.165 Y170.156 E9.12408
G1 X87.08 Y170.216 E9.12779
G1 X86.717 Y170.341 E9.14147
G1 X85.217 Y170.341 E9.19491
G1 X85.217 Y184.397 E9.69572
G1 X85.199 Y184.5 E9.69945
G1 X85.031 Y184.844 E9.71309
G1 X83.708 Y186.167 E9.77975
G1 X83.475 Y186.281 E9.78899
G1 X83.326 Y185.964 F4200
G1 F720
G1 X83.241 Y185.996 E9.79223
G1 X79.327 Y185.99 E9.93168
G1 X79.121 Y185.892 E9.93981
G1 X77.843 Y184.614 E10.00421
G1 X77.739 Y184.377 E10.01343
G1 X77.739 Y161.532 E10.82739
G1 X77.843 Y161.295 E10.83661
G1 X79.121 Y160.017 E10.90101
G1 X79.358 Y159.913 E10.91023
G1 X86.699 Y159.913 E11.17179
G1 X86.936 Y160.017 E11.18101
G1 X88.214 Y161.295 E11.24541
G1 X88.317 Y161.532 E11.25462
G1 X88.311 Y168.396 E11.49918
G1 X88.214 Y168.603 E11.50732
G1 X86.901 Y169.907 E11.57325
G1 X86.685 Y169.984 E11.58142
G1 X84.859 Y169.984 E11.64648
G1 X84.859 Y184.377 E12.1593
G1 X84.756 Y184.614 E12.16851
G1 X83.478 Y185.892 E12.23291
G1 X83.38 Y185.939 E12.23678
G1 X83.246 Y185.615 F4200
G1 F720
G1 X83.188 Y185.639 E12.23902
G1 X79.411 Y185.639 E12.37359
G1 X79.345 Y185.612 E12.37613
G1 X78.123 Y184.39 E12.4377
G1 X78.096 Y184.324 E12.44024
G1 X78.096 Y161.585 E13.25042
G1 X78.123 Y161.519 E13.25296
G1 X79.345 Y160.297 E13.31453
G1 X79.411 Y160.27 E13.31707
G1 X86.646 Y160.27 E13.57485
G1 X86.711 Y160.297 E13.57736
G1 X87.933 Y161.519 E13.63893
G1 X87.96 Y161.585 E13.64147
G1 X87.96 Y168.313 E13.88119
