; generated by CreatWare 7.0.0 on 2022-06-29 at 21:44:24 UTC

; 

; external perimeters extrusion width = 0.60mm
; perimeters extrusion width = 0.60mm
; infill extrusion width = 0.60mm
; solid infill extrusion width = 0.60mm
; top infill extrusion width = 0.60mm
; support material extrusion width = 0.60mm

G21 ; set units to millimeters
G90 ; use absolute coordinates
M82 ; use absolute distances for extrusion
G92 E0
M107
M190 S45 ; set bed temperature and wait for it to be reached
M104 S210 T1 ; set temperature
;TYPE:Custom
M109 S210 T1 ; set temperature and wait for it to be reached
M6013 S0 ; set chamber temp

G28 X0 Y0  ;move X/Y to min endstops
G28 Z0     ;move Z to min endstops

;Add Clear Nozzle
G92 E0                   ;zero the extruded length again
G0 F4200 X0 Y0
G0 F400 X10 Z0.4         ;move a bit while down the Z
M221 T0 S300             ;set flow is 300%
G1 F200 X30 E8          ;extrude amont filament to clean the hotend
M221 T0 S100             ;reset flow is 100%
G92 E0                   ;zero the extruded length again
;Add End

G0 Z15.0 F4200 ;move the platform down 15mm

;Put printing message on LCD screen
M117 Printing...
T1
G92 E0
; Filament gcode
M107
;LAYER_CHANGE
;Layer 1
;Z:0.1
;HEIGHT:0.1
;BEFORE_LAYER_CHANGE
;0.1


G1 Z.1 F4200
;AFTER_LAYER_CHANGE
;G92 E0   ;zero the extruded length again
;0.1
G1 E-2 F1800
G92 E0
G1 X106.756 Y133.004 F4200
G1 E2 F1800
;TYPE:Skirt/Brim
;WIDTH:0.6
G1 F720
G1 X108.797 Y131.523 E2.07279
G1 X111.263 Y130.915 E2.1461
G1 X130.337 Y130.011 E2.69726
G1 X138.63 Y130.011 E2.93662
G1 X140.881 Y130.408 E3.00259
G1 X143.282 Y131.938 E3.08477
G1 X145.625 Y134.281 E3.18041
G1 X146.936 Y136.153 E3.24637
G1 X147.552 Y138.905 E3.32777
G1 X147.584 Y161.06 E3.96724
G1 X147.187 Y163.311 E4.03321
G1 X145.658 Y165.712 E4.11537
G1 X143.314 Y168.055 E4.21103
G1 X141.442 Y169.366 E4.27699
G1 X138.665 Y169.982 E4.35909
G1 X115.341 Y169.99 E5.0323
G1 X113.812 Y169.811 E5.07673
G1 X110.05 Y168.913 E5.18837
G1 X107.953 Y168.005 E5.25433
G1 X106.925 Y167.166 E5.29263
G1 X105.445 Y165.124 E5.36542
G1 X104.829 Y162.345 E5.44758
G1 X104.829 Y137.655 E6.16022
G1 X105.226 Y135.405 E6.22617
G1 X106.707 Y133.08 E6.30574
G1 E4.30574 F1800
G92 E0
G1 X113.85 Y139.911 F4200
G1 E2 F1800
G1 F720
G1 X115.306 Y138.462 E2.05929
G1 X115.45 Y138.371 E2.06421
G1 X115.774 Y138.236 E2.07434
G1 X115.941 Y138.199 E2.07928
G1 X129.515 Y138.194 E2.47107
G1 X130.305 Y137.412 E2.50315
G1 X130.45 Y137.32 E2.50811
G1 X130.774 Y137.186 E2.51823
G1 X130.941 Y137.149 E2.52317
G1 X138.027 Y137.149 E2.7277
G1 X138.193 Y137.186 E2.73261
G1 X138.518 Y137.32 E2.74276
G1 X138.662 Y137.412 E2.74769
G1 X140.118 Y138.86 E2.80696
G1 X140.244 Y139.049 E2.81352
G1 X140.376 Y139.366 E2.82343
G1 X140.42 Y139.589 E2.82999
G1 X140.42 Y145.162 E2.99085
G1 X140.376 Y145.385 E2.99741
G1 X140.243 Y145.706 E3.00744
G1 X140.15 Y145.852 E3.01244
G1 X139.742 Y146.274 E3.02938
G1 X140.15 Y146.682 E3.04603
G1 X140.276 Y146.871 E3.05259
G1 X140.408 Y147.189 E3.06253
G1 X140.452 Y147.411 E3.06906
G1 X140.452 Y160.404 E3.44408
G1 X140.408 Y160.626 E3.45061
G1 X140.276 Y160.944 E3.46055
G1 X140.15 Y161.132 E3.46708
G1 X138.694 Y162.581 E3.52637
G1 X138.55 Y162.672 E3.53129
G1 X138.229 Y162.805 E3.54132
G1 X138.007 Y162.849 E3.54785
G1 X115.995 Y162.857 E4.18319
G1 X115.772 Y162.813 E4.18975
G1 X115.454 Y162.682 E4.19968
G1 X115.266 Y162.556 E4.20621
G1 X113.817 Y161.1 E4.2655
G1 X113.725 Y160.955 E4.27046
G1 X113.592 Y160.634 E4.28049
G1 X113.548 Y160.411 E4.28705
G1 X113.548 Y154.753 E4.45036
G1 X113.592 Y154.531 E4.45689
G1 X113.725 Y154.209 E4.46695
G1 X113.915 Y153.907 E4.47725
G1 X113.725 Y153.606 E4.48752
G1 X113.592 Y153.284 E4.49758
G1 X113.548 Y153.061 E4.50414
G1 X113.548 Y147.404 E4.66742
G1 X113.592 Y147.181 E4.67398
G1 X113.724 Y146.863 E4.68392
G1 X113.85 Y146.674 E4.69048
G1 X114.242 Y146.283 E4.70646
G1 X113.847 Y145.889 E4.72256
G1 X113.748 Y145.748 E4.72753
G1 X113.59 Y145.38 E4.73909
G1 X113.553 Y145.215 E4.74397
G1 X113.548 Y140.639 E4.87605
G1 X113.592 Y140.417 E4.88258
G1 X113.724 Y140.099 E4.89252
G1 X113.8 Y139.986 E4.89645
G1 X114.276 Y140.304 F4200
G1 F720
G1 X115.654 Y138.925 E4.95272
G1 X116.022 Y138.772 E4.96422
G1 X129.756 Y138.772 E5.36063
G1 X130.654 Y137.874 E5.39729
G1 X131.022 Y137.722 E5.40878
G1 X137.945 Y137.722 E5.6086
G1 X138.314 Y137.874 E5.62012
G1 X139.689 Y139.249 E5.67625
G1 X139.841 Y139.617 E5.68774
G1 X139.841 Y145.134 E5.84698
G1 X139.689 Y145.502 E5.85847
G1 X138.92 Y146.27 E5.88984
G1 X139.721 Y147.071 E5.92254
G1 X139.874 Y147.44 E5.93407
G1 X139.874 Y160.375 E6.30742
G1 X139.721 Y160.744 E6.31895
G1 X138.346 Y162.118 E6.37506
G1 X137.978 Y162.271 E6.38656
G1 X116.023 Y162.279 E7.02026
G1 X115.655 Y162.126 E7.03176
G1 X114.279 Y160.752 E7.08789
G1 X114.126 Y160.383 E7.09942
G1 X114.126 Y154.782 E7.26108
G1 X114.279 Y154.413 E7.27261
G1 X114.785 Y153.907 E7.29326
G1 X114.279 Y153.402 E7.31389
G1 X114.126 Y153.033 E7.32542
G1 X114.126 Y147.432 E7.48708
G1 X114.279 Y147.063 E7.49861
G1 X115.06 Y146.283 E7.53047
G1 X114.279 Y145.502 E7.56235
G1 X114.126 Y145.134 E7.57385
G1 X114.126 Y140.668 E7.70275
G1 X114.233 Y140.382 E7.71156
G1 X114.749 Y140.648 F4200
G1 F720
G1 X116.002 Y139.395 E7.76271
G1 X116.108 Y139.351 E7.76602
G1 X129.995 Y139.351 E8.16685
G1 X131.002 Y138.344 E8.20795
G1 X131.108 Y138.3 E8.21126
G1 X137.859 Y138.3 E8.40612
G1 X137.966 Y138.344 E8.40946
G1 X139.219 Y139.597 E8.46061
G1 X139.263 Y139.703 E8.46392
G1 X139.263 Y145.047 E8.61817
G1 X139.219 Y145.154 E8.62151
G1 X138.102 Y146.27 E8.66708
G1 X139.251 Y147.419 E8.71398
G1 X139.295 Y147.526 E8.71732
G1 X139.295 Y160.289 E9.0857
G1 X139.251 Y160.395 E9.08901
G1 X137.998 Y161.648 E9.14016
G1 X137.892 Y161.692 E9.14347
G1 X116.109 Y161.7 E9.7722
G1 X116.003 Y161.656 E9.77551
G1 X114.749 Y160.403 E9.82668
G1 X114.705 Y160.297 E9.82999
G1 X114.705 Y154.868 E9.98669
G1 X114.749 Y154.762 E9.99
G1 X115.603 Y153.907 E10.02488
G1 X114.749 Y153.053 E10.05974
G1 X114.705 Y152.947 E10.06305
G1 X114.705 Y147.518 E10.21975
G1 X114.749 Y147.412 E10.22306
G1 X115.878 Y146.283 E10.26914
G1 X114.749 Y145.154 E10.31522
G1 X114.705 Y145.047 E10.31856
G1 X114.715 Y140.731 E10.44314
G1 E8.44314 F1800
G92 E0
G1 X114.304 Y138.276 F4200
G1 E2 F1800
;TYPE:Support material
G1 F720
G1 X113.112 Y139.773 E2.05523
G1 X112.694 Y141.606 E2.10949
G1 X112.694 Y144.179 E2.18376
G1 X112.804 Y145.144 E2.21179
G1 X113.34 Y146.252 E2.24732
G1 X113.112 Y146.538 E2.25788
G1 X112.694 Y148.371 E2.31214
G1 X112.694 Y152.078 E2.41914
G1 X112.804 Y153.043 E2.44717
G1 X113.174 Y153.809 E2.47172
G1 X113.112 Y153.887 E2.4746
G1 X112.694 Y155.72 E2.52886
G1 X112.694 Y159.428 E2.63589
G1 X112.804 Y160.395 E2.66398
G1 X113.631 Y162.103 E2.71875
G1 X113.785 Y162.225 E2.72442
G1 X111.697 Y162.225 E2.78469
G1 X111.697 Y137.775 E3.4904
G1 X115.339 Y137.775 E3.59552
G1 X114.382 Y138.238 E3.62621
G1 X113.501 Y138.867 F4200
G1 F720
G1 X113.501 Y138.036 E3.6502
G1 E1.6502 F1800
G92 E0
G1 X135.128 Y142.375 F4200
G1 E2 F1800
G1 F720
G1 X134.854 Y142.85 E2.01583
G1 X134.305 Y142.85 E2.03168
G1 X134.031 Y142.375 E2.04751
G1 X134.305 Y141.9 E2.06334
G1 X134.854 Y141.9 E2.07919
G1 X135.085 Y142.3 E2.09252
G1 E.09252 F1800
G92 E0
G1 X136.532 Y155.963 F4200
G1 E2 F1800
;TYPE:Solid infill
;WIDTH:0.611077
G1 F288
G1 X135.6 Y155.03 E2.03879
G1 X134.766 Y155.03 E2.06332
G1 X135.102 Y155.366 E2.0773
G1 X134.268 Y155.366 E2.10183
G1 X133.932 Y155.03 E2.11581
G1 X133.098 Y155.03 E2.14034
G1 X133.434 Y155.366 E2.15432
G1 X133.345 Y155.366 E2.15694
G1 X133.073 Y155.838 E2.17296
G1 X132.74 Y155.505 E2.18681
G1 X132.74 Y156.339 E2.21134
G1 X132.958 Y156.557 E2.22041
G1 E.22041 F1800
G92 E0
G1 X132.653 Y157.086 F4200
G1 E2 F1800
G1 F288
G1 X132.054 Y156.488 E2.0249
G1 X131.221 Y156.488 E2.0494
G1 X132.291 Y157.559 E2.09393
G1 X132.934 Y158.671 E2.13172
G1 X132.57 Y158.671 E2.14243
G1 X130.387 Y156.488 E2.23324
G1 X129.553 Y156.488 E2.25777
G1 X131.736 Y158.671 E2.34858
G1 X130.903 Y158.672 E2.37308
G1 X128.719 Y156.488 E2.46394
G1 X127.885 Y156.488 E2.48847
G1 X130.069 Y158.672 E2.57933
G1 X129.236 Y158.672 E2.60383
G1 X127.051 Y156.488 E2.69471
G1 X126.218 Y156.488 E2.71921
G1 X128.402 Y158.673 E2.81009
G1 X127.569 Y158.673 E2.83459
G1 X125.384 Y156.488 E2.92549
G1 X124.55 Y156.488 E2.95002
G1 X126.735 Y158.673 E3.04092
G1 X125.902 Y158.673 E3.06542
G1 X123.716 Y156.488 E3.15634
G1 X122.882 Y156.488 E3.18087
G1 X125.068 Y158.674 E3.27181
G1 X124.235 Y158.674 E3.29631
G1 X122.048 Y156.488 E3.38727
G1 X121.214 Y156.488 E3.4118
G1 X123.401 Y158.674 E3.50276
G1 X122.568 Y158.675 E3.52726
G1 X120.381 Y156.488 E3.61824
G1 X119.547 Y156.488 E3.64277
G1 X121.734 Y158.675 E3.73375
G1 X120.9 Y158.675 E3.75828
G1 X118.713 Y156.488 E3.84926
G1 X117.879 Y156.488 E3.87379
G1 X120.067 Y158.676 E3.96481
G1 X119.233 Y158.676 E3.98934
G1 X117.728 Y157.171 E4.05195
G1 X117.728 Y158.004 E4.07645
G1 X118.66 Y158.936 E4.11522
G1 E2.11522 F1800
G92 E0
G1 X132.306 Y156.054 F4200
G1 E2 F1800
;TYPE:External perimeter
;WIDTH:0.6
G1 F252
G1 X132.306 Y154.596 E2.04208
G1 X136.706 Y154.596 E2.16908
G1 X136.706 Y159.103 E2.29917
G1 X117.294 Y159.111 E2.85947
G1 X117.294 Y156.054 E2.94771
G1 X132.216 Y156.054 E3.37841
G1 E1.37841 F1800
G92 E0
G1 X132.686 Y157.375 F4200
G1 E2 F1800
G1 F270
G1 X133.596 Y155.8 E2.0525
G1 X135.414 Y155.8 E2.10497
G1 X136.324 Y157.375 E2.15747
G1 X135.414 Y158.95 E2.20997
G1 X133.596 Y158.95 E2.26244
G1 X132.731 Y157.453 E2.31234
G1 E.31234 F1800
G92 E0
G1 X136.532 Y152.048 F4200
G1 E2 F1800
;TYPE:Solid infill
;WIDTH:0.607958
G1 F288
G1 X136.129 Y151.645 E2.01668
G1 X135.826 Y152.171 E2.03444
G1 X136.272 Y152.617 E2.0529
G1 X136.272 Y152.785 E2.05782
G1 X135.611 Y152.785 E2.07716
G1 X135.275 Y152.449 E2.09106
G1 X134.445 Y152.449 E2.11535
G1 X134.781 Y152.785 E2.12925
G1 X133.952 Y152.785 E2.15351
G1 X132.74 Y151.573 E2.20366
G1 X132.74 Y152.402 E2.22792
G1 X133.383 Y153.045 E2.25453
G1 E.25453 F1800
G92 E0
G1 X133.075 Y149.42 F4200
G1 E2 F1800
G1 F288
G1 X132.801 Y149.146 E2.01134
G1 X131.971 Y149.146 E2.03563
G1 X132.581 Y149.755 E2.06085
G1 X132.277 Y150.281 E2.07863
G1 X131.141 Y149.145 E2.12564
G1 X130.312 Y149.145 E2.1499
G1 X132.494 Y151.327 E2.24019
G1 X131.665 Y151.327 E2.26445
G1 X129.482 Y149.144 E2.35478
G1 X128.652 Y149.144 E2.37907
G1 X130.835 Y151.327 E2.4694
G1 X130.006 Y151.327 E2.49366
G1 X127.822 Y149.144 E2.58401
G1 X126.992 Y149.143 E2.6083
G1 X129.176 Y151.327 E2.69868
G1 X128.347 Y151.327 E2.72294
G1 X126.162 Y149.143 E2.81334
G1 X125.333 Y149.142 E2.8376
G1 X127.517 Y151.327 E2.928
G1 X126.688 Y151.327 E2.95226
G1 X124.503 Y149.142 E3.04268
G1 X123.673 Y149.142 E3.06697
G1 X125.859 Y151.327 E3.15741
G1 X125.029 Y151.327 E3.1817
G1 X122.843 Y149.141 E3.27216
G1 X122.013 Y149.141 E3.29645
G1 X124.2 Y151.327 E3.38693
G1 X123.37 Y151.327 E3.41122
G1 X121.183 Y149.14 E3.50172
G1 X120.353 Y149.14 E3.52601
G1 X122.541 Y151.327 E3.61653
G1 X121.711 Y151.327 E3.64082
G1 X119.524 Y149.139 E3.73134
G1 X118.694 Y149.139 E3.75563
G1 X120.882 Y151.327 E3.84617
G1 X120.052 Y151.327 E3.87046
G1 X117.864 Y149.139 E3.961
G1 X117.728 Y149.139 E3.96498
G1 X117.728 Y149.832 E3.98526
G1 X119.223 Y151.327 E4.04712
G1 X118.394 Y151.327 E4.07138
G1 X117.468 Y150.401 E4.1097
G1 E2.1097 F1800
G92 E0
G1 X132.306 Y151.761 F4200
G1 E2 F1800
;TYPE:External perimeter
;WIDTH:0.6
G1 F252
G1 X117.294 Y151.761 E2.4333
G1 X117.294 Y148.704 E2.52154
G1 X136.706 Y148.712 E3.08184
G1 X136.706 Y153.219 E3.21193
G1 X132.306 Y153.219 E3.33893
G1 X132.306 Y151.851 E3.37842
G1 E1.37842 F1800
G92 E0
G1 X133.469 Y151.797 F4200
G1 E2 F1800
G1 F270
G1 X132.686 Y150.44 E2.04522
G1 X133.596 Y148.865 E2.09772
G1 X135.414 Y148.865 E2.15019
G1 X136.324 Y150.44 E2.20269
G1 X135.414 Y152.015 E2.25519
G1 X133.596 Y152.015 E2.30766
G1 X133.514 Y151.874 E2.31237
G1 E.31237 F1800
G92 E0
G1 X131.487 Y142.113 F4200
G1 E2 F1800
;TYPE:Solid infill
;WIDTH:0.619691
G1 F288
G1 X132.801 Y143.428 E2.05548
G1 X131.955 Y143.428 E2.08073
G1 X130.901 Y142.374 E2.12522
G1 X130.055 Y142.374 E2.15047
G1 X131.109 Y143.428 E2.19496
G1 X130.263 Y143.428 E2.22021
G1 X129.209 Y142.374 E2.2647
G1 X128.363 Y142.374 E2.28995
G1 X129.417 Y143.428 E2.33444
G1 X128.571 Y143.428 E2.35969
G1 X127.517 Y142.374 E2.40418
G1 X126.671 Y142.374 E2.42943
G1 X127.725 Y143.428 E2.47392
G1 X126.879 Y143.428 E2.49917
G1 X125.825 Y142.374 E2.54366
G1 X124.979 Y142.374 E2.56891
G1 X126.033 Y143.428 E2.6134
G1 X125.187 Y143.428 E2.63865
G1 X124.133 Y142.374 E2.68314
G1 X123.287 Y142.374 E2.70839
G1 X124.341 Y143.428 E2.75288
G1 X123.495 Y143.428 E2.77813
G1 X122.441 Y142.374 E2.82262
G1 X121.595 Y142.374 E2.84787
G1 X122.649 Y143.428 E2.89236
G1 X121.803 Y143.428 E2.91761
G1 X120.749 Y142.374 E2.9621
G1 X119.903 Y142.374 E2.98735
G1 X120.957 Y143.428 E3.03184
G1 X120.111 Y143.428 E3.05709
G1 X119.057 Y142.374 E3.10158
G1 X118.211 Y142.374 E3.12683
G1 X119.265 Y143.428 E3.17132
G1 X118.418 Y143.428 E3.1966
G1 X117.468 Y142.477 E3.23672
G1 E1.23672 F1800
G92 E0
G1 X135.54 Y143.862 F4200
G1 E2 F1800
;TYPE:External perimeter
;WIDTH:0.6
G1 F270
G1 X136.398 Y142.375 E2.04955
G1 X135.54 Y140.889 E2.09908
G1 X136.673 Y140.889 E2.13178
G1 X136.673 Y143.862 E2.21759
G1 X135.63 Y143.862 E2.24769
G1 E.24769 F1800
G92 E0
G1 X133.619 Y143.862 F4200
G1 E2 F1800
G1 F270
G1 X117.294 Y143.862 E2.4712
G1 X117.294 Y141.94 E2.52668
G1 X132.294 Y141.94 E2.95963
G1 X132.294 Y140.889 E2.98997
G1 X133.619 Y140.889 E3.02821
G1 X132.761 Y142.375 E3.07774
G1 X133.574 Y143.784 E3.12469
;LAYER_CHANGE
;Layer 2
;Z:0.2
;HEIGHT:0.1
;BEFORE_LAYER_CHANGE
;0.2


G1 Z.2 F4200
;AFTER_LAYER_CHANGE
;G92 E0   ;zero the extruded length again
;0.2
G1 E1.12469 F1800
G92 E0
G1 X136.532 Y155.767 F4200
G1 E2 F1800
;TYPE:Solid infill
;WIDTH:0.607957
G1 F960
G1 X136.129 Y156.17 E2.0139
G1 X135.826 Y155.644 E2.0287
G1 X136.272 Y155.198 E2.04408
G1 X136.272 Y155.03 E2.04818
G1 X135.611 Y155.03 E2.0643
G1 X135.275 Y155.366 E2.07589
G1 X134.445 Y155.366 E2.09613
G1 X134.781 Y155.03 E2.10772
G1 X133.952 Y155.03 E2.12793
G1 X132.74 Y156.242 E2.16972
G1 X132.74 Y155.413 E2.18993
G1 X133.383 Y154.77 E2.2121
G1 E.2121 F1800
G92 E0
G1 X133.075 Y158.395 F4200
G1 E2 F1800
G1 F960
G1 X132.799 Y158.671 E2.00952
G1 X131.969 Y158.671 E2.02976
G1 X132.581 Y158.06 E2.05085
G1 X132.277 Y157.534 E2.06566
G1 X131.14 Y158.671 E2.10487
G1 X130.31 Y158.672 E2.12511
G1 X132.494 Y156.488 E2.20042
G1 X131.665 Y156.488 E2.22063
G1 X129.48 Y158.672 E2.29596
G1 X128.65 Y158.672 E2.3162
G1 X130.835 Y156.488 E2.39153
G1 X130.006 Y156.488 E2.41174
G1 X127.821 Y158.673 E2.48709
G1 X126.991 Y158.673 E2.50733
G1 X129.176 Y156.488 E2.58268
G1 X128.347 Y156.488 E2.60289
G1 X126.161 Y158.673 E2.67825
G1 X125.332 Y158.674 E2.69846
G1 X127.517 Y156.488 E2.77382
G1 X126.688 Y156.488 E2.79403
G1 X124.502 Y158.674 E2.86941
G1 X123.672 Y158.674 E2.88965
G1 X125.859 Y156.488 E2.96505
G1 X125.029 Y156.488 E2.98529
G1 X122.842 Y158.675 E3.06071
G1 X122.013 Y158.675 E3.08092
G1 X124.2 Y156.488 E3.15634
G1 X123.37 Y156.488 E3.17658
G1 X121.183 Y158.675 E3.252
G1 X120.353 Y158.676 E3.27224
G1 X122.541 Y156.488 E3.34769
G1 X121.711 Y156.488 E3.36793
G1 X119.523 Y158.676 E3.44338
G1 X118.694 Y158.676 E3.46359
G1 X120.882 Y156.488 E3.53904
G1 X120.052 Y156.488 E3.55928
G1 X117.864 Y158.676 E3.63473
G1 X117.728 Y158.676 E3.63805
G1 X117.728 Y157.983 E3.65495
G1 X119.223 Y156.488 E3.7065
G1 X118.394 Y156.488 E3.72671
G1 X117.468 Y157.414 E3.75864
G1 E1.75864 F1800
G92 E0
G1 X135.414 Y155.8 F4200
G1 E2 F1800
;TYPE:External perimeter
;WIDTH:0.6
G1 F900
G1 X136.324 Y157.375 E2.04375
G1 X135.414 Y158.95 E2.0875
G1 X133.596 Y158.95 E2.13123
G1 X132.686 Y157.375 E2.17498
G1 X133.596 Y155.8 E2.21873
G1 X135.324 Y155.8 E2.26029
G1 E.26029 F1800
G92 E0
G1 X132.306 Y156.054 F4200
G1 E2 F1800
G1 F840
G1 X132.306 Y154.596 E2.03507
G1 X136.706 Y154.596 E2.1409
G1 X136.706 Y159.103 E2.24931
G1 X117.294 Y159.111 E2.71622
G1 X117.294 Y156.054 E2.78975
G1 X132.216 Y156.054 E3.14867
G1 E1.14867 F1800
G92 E0
G1 X136.532 Y151.852 F4200
G1 E2 F1800
;TYPE:Solid infill
;WIDTH:0.611075
G1 F960
