; generated by CreatWare 7.0.0 on 2022-06-25 at 04:11:18 UTC

; 

; external perimeters extrusion width = 0.40mm
; perimeters extrusion width = 0.40mm
; infill extrusion width = 0.40mm
; solid infill extrusion width = 0.40mm
; top infill extrusion width = 0.40mm

G21 ; set units to millimeters
G90 ; use absolute coordinates
M82 ; use absolute distances for extrusion
G92 E0
M107
M190 S45 ; set bed temperature and wait for it to be reached
M104 S210 ; set temperature
;TYPE:Custom
M109 S210 ; set temperature and wait for it to be reached
M6013 S0 ; set chamber temp

G28 X0 Y0  ;move X/Y to min endstops
G28 Z0     ;move Z to min endstops

;Add Clear Nozzle
G92 E0                   ;zero the extruded length again
G0 F4200 X0 Y0
G0 F400 X10 Z0.4         ;move a bit while down the Z
M221 T0 S300             ;set flow is 300%
G1 F200 X30 E8          ;extrude amont filament to clean the hotend
M221 T0 S100             ;reset flow is 100%
G92 E0                   ;zero the extruded length again
;Add End

G0 Z15.0 F4200 ;move the platform down 15mm

;Put printing message on LCD screen
M117 Printing...
; Filament gcode
M107
;LAYER_CHANGE
;Layer 1
;Z:0.2
;HEIGHT:0.2
;BEFORE_LAYER_CHANGE
;0.2


G1 Z.2 F4200
;AFTER_LAYER_CHANGE
;G92 E0   ;zero the extruded length again
;0.2
G1 E-2 F1800
G92 E0
G1 X189.355 Y135.172 F4200
G1 E2 F1800
;TYPE:Skirt/Brim
;WIDTH:0.4
G1 F360
G1 X191.698 Y132.829 E2.11806
G1 X193.542 Y131.546 E2.1981
G1 X196.193 Y130.967 E2.29478
G1 X203.807 Y130.967 E2.56606
G1 X206.018 Y131.364 E2.6461
G1 X208.302 Y132.829 E2.74278
G1 X210.645 Y135.172 E2.86084
G1 X211.928 Y137.016 E2.94088
G1 X212.507 Y139.667 E3.03756
G1 X212.489 Y150.366 E3.41876
G1 X211.689 Y160.818 E3.79225
G1 X211.124 Y162.992 E3.87228
G1 X209.845 Y164.828 E3.952
G1 X207.502 Y167.171 E4.07006
G1 X205.658 Y168.454 E4.1501
G1 X203.007 Y169.033 E4.24678
G1 X196.693 Y169.033 E4.47174
G1 X194.482 Y168.636 E4.55178
G1 X192.198 Y167.171 E4.64846
G1 X189.855 Y164.828 E4.76652
G1 X188.572 Y162.984 E4.84656
G1 X188.023 Y160.953 E4.92152
G1 X187.493 Y155.233 E5.12619
G1 X187.493 Y139.667 E5.6808
G1 X187.89 Y137.456 E5.76084
G1 X189.322 Y135.222 E5.85539
G1 E3.85539 F1800
G92 E0
G1 X194.596 Y139.477 F4200
G1 E2 F1800
G1 F360
G1 X196.003 Y138.07 E2.0709
G1 X196.64 Y137.754 E2.09624
G1 X196.882 Y137.717 E2.10496
G1 X203.158 Y137.72 E2.32857
G1 X203.511 Y137.805 E2.34151
G1 X203.997 Y138.07 E2.36123
G1 X205.404 Y139.477 E2.43213
G1 X205.67 Y139.965 E2.45193
G1 X205.757 Y140.354 E2.46613
G1 X205.757 Y149.194 E2.7811
G1 X205.671 Y149.581 E2.79522
G1 X205.469 Y149.981 E2.81119
G1 X204.957 Y150.518 E2.83763
G1 X204.957 Y159.645 E3.16282
G1 X204.92 Y159.886 E3.17151
G1 X204.604 Y160.523 E3.19685
G1 X203.197 Y161.93 E3.26775
G1 X202.56 Y162.246 E3.29309
G1 X202.318 Y162.283 E3.30181
G1 X197.382 Y162.283 E3.47768
G1 X197.14 Y162.246 E3.4864
G1 X196.503 Y161.93 E3.51174
G1 X195.096 Y160.523 E3.58264
G1 X194.83 Y160.036 E3.60241
G1 X194.757 Y159.768 E3.61231
G1 X194.743 Y155.563 E3.76213
G1 X194.489 Y155.272 E3.77589
G1 X194.324 Y154.922 E3.78968
G1 X194.243 Y154.547 E3.80335
G1 X194.243 Y140.355 E4.309
G1 X194.28 Y140.114 E4.31769
G1 X194.569 Y139.531 E4.34087
G1 X194.869 Y139.709 F4200
G1 F360
G1 X196.235 Y138.343 E4.4097
G1 X196.724 Y138.102 E4.42912
G1 X196.897 Y138.074 E4.43536
G1 X203.137 Y138.077 E4.65769
G1 X203.365 Y138.131 E4.66604
G1 X203.764 Y138.342 E4.68212
G1 X205.132 Y139.709 E4.75103
G1 X205.343 Y140.109 E4.76714
G1 X205.4 Y140.372 E4.77673
G1 X205.4 Y149.175 E5.09038
G1 X205.342 Y149.44 E5.10005
G1 X205.163 Y149.794 E5.11418
G1 X204.6 Y150.371 E5.1429
G1 X204.6 Y159.629 E5.47276
G1 X204.572 Y159.802 E5.479
G1 X204.331 Y160.291 E5.49842
G1 X202.965 Y161.657 E5.56725
G1 X202.476 Y161.898 E5.58667
G1 X202.303 Y161.926 E5.59291
G1 X197.397 Y161.926 E5.76771
G1 X197.224 Y161.898 E5.77395
G1 X196.735 Y161.657 E5.79337
G1 X195.368 Y160.291 E5.86222
G1 X195.157 Y159.89 E5.87836
G1 X195.108 Y159.702 E5.88528
G1 X195.1 Y155.422 E6.03777
G1 X194.8 Y155.093 E6.05363
G1 X194.656 Y154.789 E6.06562
G1 X194.6 Y154.528 E6.07513
G1 X194.6 Y140.371 E6.57954
G1 X194.628 Y140.198 E6.58578
G1 X194.843 Y139.762 E6.6031
G1 X195.143 Y139.94 F4200
G1 F360
G1 X196.466 Y138.617 E6.66976
G1 X196.811 Y138.449 E6.68343
G1 X196.913 Y138.431 E6.68712
G1 X203.116 Y138.434 E6.90813
G1 X203.225 Y138.46 E6.91212
G1 X203.533 Y138.616 E6.92442
G1 X204.858 Y139.941 E6.99118
G1 X205.013 Y140.247 E7.0034
G1 X205.043 Y140.39 E7.00861
G1 X205.043 Y149.157 E7.32097
G1 X205.013 Y149.301 E7.32621
G1 X204.858 Y149.607 E7.33843
G1 X204.243 Y150.222 E7.36942
G1 X204.243 Y159.613 E7.70402
G1 X204.225 Y159.716 E7.70775
G1 X204.057 Y160.06 E7.72139
G1 X202.734 Y161.383 E7.78805
G1 X202.389 Y161.551 E7.80172
G1 X202.287 Y161.569 E7.80541
G1 X197.413 Y161.569 E7.97907
G1 X197.311 Y161.551 E7.98276
G1 X196.966 Y161.383 E7.99643
G1 X195.642 Y160.059 E8.06314
G1 X195.486 Y159.751 E8.07544
G1 X195.461 Y159.643 E8.07939
G1 X195.457 Y155.277 E8.23495
G1 X195.109 Y154.913 E8.25289
G1 X194.988 Y154.655 E8.26304
G1 X194.957 Y154.51 E8.26832
G1 X194.957 Y140.387 E8.77152
G1 X194.975 Y140.284 E8.77525
G1 X195.117 Y139.994 E8.78675
G1 X195.418 Y140.17 F4200
G1 F360
G1 X196.696 Y138.892 E8.85115
G1 X196.933 Y138.788 E8.86037
G1 X203.067 Y138.788 E9.07892
G1 X203.304 Y138.892 E9.08814
G1 X204.582 Y140.17 E9.15254
G1 X204.68 Y140.377 E9.1607
G1 X204.686 Y149.141 E9.47296
G1 X204.582 Y149.378 E9.48218
G1 X203.886 Y150.074 E9.51725
G1 X203.886 Y159.593 E9.85641
G1 X203.782 Y159.83 E9.86563
G1 X202.504 Y161.108 E9.93003
G1 X202.297 Y161.206 E9.93819
G1 X197.403 Y161.206 E10.11256
G1 X197.196 Y161.108 E10.12072
G1 X195.918 Y159.83 E10.18512
G1 X195.82 Y159.623 E10.19328
G1 X195.814 Y155.127 E10.35347
G1 X195.418 Y154.73 E10.37345
G1 X195.314 Y154.493 E10.38267
G1 X195.314 Y140.407 E10.88455
G1 X195.392 Y140.224 E10.89164
G1 X195.699 Y140.394 F4200
G1 F360
G1 X196.92 Y139.172 E10.95319
G1 X196.986 Y139.145 E10.95573
G1 X203.014 Y139.145 E11.1705
G1 X203.08 Y139.172 E11.17304
G1 X204.301 Y140.394 E11.23459
G1 X204.329 Y140.46 E11.23714
G1 X204.329 Y149.088 E11.54455
G1 X204.301 Y149.153 E11.54707
G1 X203.529 Y149.926 E11.58599
G1 X203.529 Y159.54 E11.92853
G1 X203.501 Y159.606 E11.93108
G1 X202.28 Y160.828 E11.99263
G1 X202.214 Y160.855 E11.99517
G1 X197.486 Y160.855 E12.16363
G1 X197.42 Y160.828 E12.16617
G1 X196.199 Y159.606 E12.22772
G1 X196.171 Y159.54 E12.23027
G1 X196.171 Y154.979 E12.39278
G1 X195.699 Y154.506 E12.41659
G1 X195.671 Y154.44 E12.41914
G1 X195.676 Y140.45 E12.9176
G1 E10.9176 F1800
G92 E0
G1 X200.95 Y157.391 F4200
G1 E2 F1800
;TYPE:External perimeter
G1 F270
G1 X201.15 Y157.404 E2.00714
G1 X201.15 Y158.476 E2.04533
G1 X200.074 Y158.476 E2.08367
G1 X200.061 Y158.277 E2.09078
G1 X200.288 Y158.245 E2.09895
G1 X200.501 Y158.157 E2.10716
G1 X200.688 Y158.013 E2.11557
G1 X200.833 Y157.822 E2.12411
G1 X200.921 Y157.61 E2.13229
G1 X200.942 Y157.451 E2.138
G1 X201.109 Y157.513 F4200
G1 X200.95 Y157.366
G1 F378
G1 X200.919 Y157.138 E2.1462
G1 X200.831 Y156.925 E2.15441
G1 X200.688 Y156.739 E2.16277
G1 X200.501 Y156.595 E2.17118
G1 X200.283 Y156.505 E2.17958
G1 X200.045 Y156.475 E2.18813
G1 X199.817 Y156.505 E2.19632
G1 X199.599 Y156.595 E2.20472
G1 X199.412 Y156.739 E2.21313
G1 X199.269 Y156.925 E2.22149
G1 X199.179 Y157.143 E2.22989
G1 X199.148 Y157.377 E2.2383
G1 X199.181 Y157.614 E2.24683
G1 X199.269 Y157.827 E2.25504
G1 X199.412 Y158.014 E2.26343
G1 X199.599 Y158.157 E2.27182
G1 X199.817 Y158.247 E2.28022
G1 X200.035 Y158.276 E2.28806
G1 X200.022 Y158.476 E2.2952
G1 X198.55 Y158.476 E2.34765
G1 X198.55 Y155.876 E2.44029
G1 X199.3 Y155.876 E2.46701
G1 X199.3 Y153.376 E2.55608
G1 X198.05 Y153.376 E2.60062
G1 X198.05 Y141.524 E3.0229
G1 X201.95 Y141.524 E3.16186
G1 X201.95 Y148.024 E3.39345
G1 X201.15 Y148.024 E3.42195
G1 X201.15 Y157.352 E3.7543
G1 X201.01 Y157.362 E3.7593
G1 X200.931 Y157.137 F4200
G1 E1.7593 F1800
G92 E0
G1 X200.917 Y157.373 F4200
G1 X200.9 Y157.149
G1 X200.842 Y156.919
G1 X200.737 Y156.69
G1 X200.572 Y156.472
G1 X200.342 Y156.285
G1 X200.05 Y156.156
G1 X199.976 Y156.151
G1 X199.737 Y156.207
G1 X199.671 Y156.235
G1 X199.453 Y156.342
G1 X199.398 Y156.384
G1 X199.345 Y156.433
G1 X199.295 Y156.379
G1 E2 F1800
;TYPE:Inner perimeter
G1 F270
G1 X199.158 Y156.484 E2.00615
G1 X199.052 Y156.621 E2.01232
G1 X198.907 Y156.572 E2.01777
G1 X198.907 Y156.233 E2.02985
G1 X199.246 Y156.233 E2.04193
G1 X199.276 Y156.322 E2.04528
G1 E.04528 F1800
G92 E0
G1 X199.267 Y156.186 F4200
G1 X199.59 Y156.166
G1 X199.636 Y155.408
G1 X199.636 Y153.041
G1 X198.293 Y143.056
G1 X198.34 Y142.708
G1 X198.552 Y142.736
G1 E2 F1800
G1 F270
G1 X198.407 Y142.687 E2.00545
G1 X198.407 Y141.881 E2.03417
G1 X199.521 Y141.881 E2.07386
G1 X199.534 Y142.081 E2.081
G1 X199.352 Y142.105 E2.08754
G1 X199.047 Y142.231 E2.0993
G1 X198.786 Y142.432 E2.11104
G1 X198.589 Y142.689 E2.12258
G1 E.12258 F1800
G92 E0
G1 X198.661 Y142.722 F4200
G1 X198.655 Y142.733
G1 X198.63 Y142.797
G1 X198.571 Y143.027
G1 X198.563 Y143.091
G1 X198.544 Y143.324
G1 X198.571 Y143.621
G1 X198.655 Y143.915
G1 X198.803 Y144.199
G1 X198.862 Y144.247
G1 X199.058 Y144.398
G1 X199.357 Y144.522
G1 X199.678 Y144.564
G1 X199.723 Y144.558
G1 X199.679 Y144.226
G1 E2 F1800
;TYPE:External perimeter
G1 F270
G1 X199.445 Y144.195 E2.00841
G1 X199.228 Y144.105 E2.01678
G1 X199.041 Y143.962 E2.02517
G1 X198.897 Y143.775 E2.03358
G1 X198.81 Y143.564 E2.04171
G1 X198.777 Y143.325 E2.05031
G1 X198.807 Y143.091 E2.05872
G1 X198.897 Y142.873 E2.06712
G1 X199.041 Y142.686 E2.07553
G1 X199.228 Y142.543 E2.08392
G1 X199.445 Y142.453 E2.09229
G1 X199.672 Y142.423 E2.10045
G1 X199.911 Y142.453 E2.10903
G1 X200.129 Y142.543 E2.11743
G1 X200.316 Y142.686 E2.12582
G1 X200.459 Y142.873 E2.13421
G1 X200.547 Y143.084 E2.14236
G1 X200.58 Y143.323 E2.15096
G1 X200.549 Y143.557 E2.15937
G1 X200.459 Y143.775 E2.16777
G1 X200.316 Y143.962 E2.17616
G1 X200.129 Y144.105 E2.18455
G1 X199.918 Y144.192 E2.19268
G1 X199.739 Y144.218 E2.19912
G1 X199.561 Y144.43 F4200
G1 X199.681 Y144.586
;TYPE:Inner perimeter
G1 F270
G1 X200.013 Y144.54 E2.21106
G1 X200.309 Y144.417 E2.22248
G1 X200.571 Y144.216 E2.23425
G1 X200.771 Y143.955 E2.24597
G1 X200.897 Y143.651 E2.25769
G1 X200.941 Y143.322 E2.26952
G1 X200.894 Y142.99 E2.28147
G1 X200.771 Y142.693 E2.29292
G1 X200.571 Y142.432 E2.30464
G1 X200.309 Y142.231 E2.31641
G1 X200.003 Y142.104 E2.32821
G1 X199.822 Y142.082 E2.33471
G1 X199.835 Y141.881 E2.34189
G1 X201.593 Y141.881 E2.40453
G1 X201.593 Y147.667 E2.61068
G1 X200.793 Y147.667 E2.63918
G1 X200.793 Y156.33 E2.94784
G1 X200.375 Y156.157 E2.96396
G1 X200.044 Y156.115 E2.97585
G1 X199.657 Y156.166 E2.98976
G1 X199.657 Y153.019 E3.10189
G1 X198.407 Y153.019 E3.14643
G1 X198.407 Y143.961 E3.46916
G1 X198.552 Y143.912 E3.47461
G1 X198.786 Y144.216 E3.48828
G1 X199.047 Y144.417 E3.50002
G1 X199.352 Y144.543 E3.51178
G1 X199.621 Y144.578 E3.52145
G1 E1.52145 F1800
G92 E0
G1 X198.819 Y144.493 F4200
G1 E2 F1800
;TYPE:Gap fill
;WIDTH:0.14031
G1 F360
G1 X198.634 Y144.386 E2.00208
;WIDTH:0.14031
G1 X198.631 Y144.38 E2.00215
;WIDTH:0.133856
G1 X198.597 Y144.298 E2.00296
G1 X198.442 Y143.761 F4200
;WIDTH:0.439827
G1 F360
G1 X198.413 Y143.301 E2.02121
G1 X198.44 Y142.887 E2.03764
G1 X198.597 Y142.35 F4200
;WIDTH:0.133851
G1 F360
G1 X198.718 Y142.059 E2.0405
G1 E.0405 F1800
G92 E0
G1 X200.427 Y142.076 F4200
G1 E2 F1800
;WIDTH:0.119274
G1 F360
G1 X200.491 Y142.098 E2.00052
;WIDTH:0.119274
G1 X200.585 Y142.191 E2.00153
G1 X200.776 Y142.152 F4200
;TYPE:Solid infill
;WIDTH:0.471415
G1 F432
G1 X201.192 Y142.567 E2.02665
G1 X201.195 Y142.676 F4200
;TYPE:Gap fill
;WIDTH:0.391278
G1 F360
G1 X201.254 Y143.109 E2.04184
;WIDTH:0.364614
G1 X201.267 Y143.3 E2.04799
;WIDTH:0.33795
G1 X201.267 Y143.34 E2.04917
;WIDTH:0.387536
G1 X201.242 Y143.72 E2.06226
;WIDTH:0.409764
G1 X201.195 Y143.972 E2.07164
G1 E.07164 F1800
G92 E0
G1 X201.486 Y144.868 F4200
G1 E2 F1800
;TYPE:Solid infill
;WIDTH:0.401629
G1 F432
G1 X200.876 Y144.258 E2.03088
G1 X200.762 Y144.407 E2.03759
G1 X200.624 Y144.513 E2.04382
G1 X201.325 Y145.215 E2.07933
G1 X201.325 Y145.722 E2.09748
G1 X200.31 Y144.706 E2.14888
G1 X200.084 Y144.8 E2.15764
G1 X199.919 Y144.823 E2.1636
G1 X201.325 Y146.229 E2.23477
G1 X201.325 Y146.736 E2.25292
G1 X199.409 Y144.821 E2.34988
G1 X199.282 Y144.804 E2.35447
G1 X199.013 Y144.692 E2.3649
G1 X198.925 Y144.844 E2.37119
G1 X201.325 Y147.244 E2.49267
G1 X201.325 Y147.399 E2.49822
G1 X200.973 Y147.399 E2.51082
G1 X198.675 Y145.101 E2.62714
G1 X198.675 Y145.608 E2.64529
G1 X200.525 Y147.458 E2.73893
G1 X200.525 Y147.966 E2.75711
G1 X198.675 Y146.115 E2.85078
G1 X198.675 Y146.623 E2.86896
G1 X200.525 Y148.473 E2.9626
G1 X200.525 Y148.98 E2.98075
G1 X198.675 Y147.13 E3.07439
G1 X198.675 Y147.637 E3.09254
G1 X200.525 Y149.487 E3.18618
G1 X200.525 Y149.995 E3.20436
G1 X198.675 Y148.144 E3.29803
G1 X198.675 Y148.652 E3.31621
G1 X200.525 Y150.502 E3.40985
G1 X200.525 Y151.009 E3.428
G1 X198.675 Y149.159 E3.52164
G1 X198.675 Y149.666 E3.53979
G1 X200.525 Y151.517 E3.63346
G1 X200.525 Y152.024 E3.65161
G1 X198.675 Y150.174 E3.74525
G1 X198.675 Y150.681 E3.7634
G1 X200.525 Y152.531 E3.85704
G1 X200.525 Y153.039 E3.87522
G1 X198.675 Y151.188 E3.96889
G1 X198.675 Y151.696 E3.98707
G1 X200.525 Y153.546 E4.08071
G1 X200.525 Y154.053 E4.09886
G1 X199.925 Y153.453 E4.12923
G1 X199.925 Y153.96 E4.14738
G1 X200.525 Y154.56 E4.17775
G1 X200.525 Y155.068 E4.19593
G1 X199.925 Y154.467 E4.22633
G1 X199.925 Y154.975 E4.24451
G1 X200.525 Y155.575 E4.27488
G1 X200.525 Y155.929 E4.28755
G1 X200.444 Y155.895 E4.29069
G1 X200.323 Y155.88 E4.29505
G1 X199.764 Y155.321 E4.32335
G1 E2.32335 F1800
G92 E0
G1 X199.427 Y156.055 F4200
G1 E2 F1800
;TYPE:Gap fill
;WIDTH:0.130624
G1 F360
G1 X199.458 Y156.243 E2.00167
G1 E.00167 F1800
G92 E0
G1 X198.909 Y156.761 F4200
G1 E2 F1800
;WIDTH:0.330378
G1 F360
G1 X198.867 Y157.078 E2.00917
;WIDTH:0.320626
G1 X198.849 Y157.362 E2.01706
;WIDTH:0.28355
G1 X198.849 Y157.394 E2.01783
;WIDTH:0.322962
G1 X198.869 Y157.681 E2.02587
;WIDTH:0.332676
G1 X198.951 Y158.298 E2.04387
G1 E.04387 F1800
G92 E0
G1 X200.661 Y158.288 F4200
G1 E2 F1800
;WIDTH:0.226156
G1 F360
G1 X200.88 Y158.206 E2.00428
;WIDTH:0.226157
G1 X200.963 Y157.986 E2.00858
G1 E.00858 F1800
G92 E0
G1 X200.971 Y156.671 F4200
G1 E2 F1800
;WIDTH:0.121256
G1 F360
G1 X200.838 Y156.582 E2.00125
;WIDTH:0.117275
G1 X200.729 Y156.519 E2.00218
G1 E.00218 F1800
G92 E0
G1 X199.384 Y152.912 F4200
G1 E2 F1800
;TYPE:Solid infill
;WIDTH:0.401629
G1 F432
G1 X198.675 Y152.203 E2.03589
G1 X198.675 Y152.71 E2.05404
G1 X198.877 Y152.912 E2.06426
G1 E.06426 F1800
G92 E0
G1 X198.877 Y153.041 F4200
G1 X200.814 Y149.723
G1 X201.85 Y148.019
G1 E2 F1800
;TYPE:Ironing
;WIDTH:0.400805
;HEIGHT:0.00375
G1 F270
G1 X201.85 Y141.574 E2.00482
G1 X201.75 Y141.574 E2.00489
G1 X201.75 Y147.974 E2.00968
G1 X201.65 Y147.974 E2.00975
G1 X201.65 Y141.574 E2.01454
G1 X201.55 Y141.574 E2.01461
G1 X201.55 Y147.974 E2.0194
G1 X201.45 Y147.974 E2.01947
G1 X201.45 Y141.574 E2.02426
G1 X201.35 Y141.574 E2.02433
G1 X201.35 Y147.974 E2.02912
G1 X201.25 Y147.974 E2.02919
G1 X201.25 Y141.574 E2.03398
G1 X201.15 Y141.574 E2.03405
G1 X201.15 Y148.019 E2.03887
G1 E.03887 F1800
G92 E0
G1 X201.05 Y158.471 F4200
G1 E2 F1800
G1 F270
G1 X201.05 Y141.574 E2.01264
G1 X200.95 Y141.574 E2.01271
G1 X200.95 Y157.082 E2.02432
G1 X200.85 Y156.868 E2.0245
G1 X200.85 Y141.574 E2.03595
G1 X200.75 Y141.574 E2.03602
G1 X200.75 Y156.738 E2.04737
G1 X200.65 Y156.647 E2.04747
G1 X200.65 Y141.574 E2.05875
G1 X200.55 Y141.574 E2.05882
G1 X200.55 Y142.961 E2.05986
G1 X200.503 Y142.848 E2.05995
G1 X200.45 Y142.779 E2.06002
G1 X200.45 Y141.574 E2.06092
G1 X200.35 Y141.574 E2.06099
G1 X200.35 Y142.649 E2.06179
G1 X200.25 Y142.573 E2.06188
G1 X200.25 Y141.574 E2.06263
G1 X200.15 Y141.574 E2.0627
G1 X200.15 Y142.498 E2.06339
G1 X200.05 Y142.456 E2.06347
G1 X200.05 Y141.574 E2.06413
G1 X199.95 Y141.574 E2.0642
G1 X199.95 Y142.415 E2.06483
G1 X199.85 Y142.394 E2.06491
G1 X199.85 Y141.574 E2.06552
G1 X199.75 Y141.574 E2.06559
G1 X199.75 Y142.381 E2.06619
