; generated by CreatWare 7.0.0 on 2022-06-30 at 01:38:14 UTC

; 

; external perimeters extrusion width = 0.40mm
; perimeters extrusion width = 0.40mm
; infill extrusion width = 0.40mm
; solid infill extrusion width = 0.40mm
; top infill extrusion width = 0.40mm
; support material extrusion width = 0.40mm

; external perimeters extrusion width = 0.40mm
; perimeters extrusion width = 0.40mm
; infill extrusion width = 0.40mm
; solid infill extrusion width = 0.40mm
; top infill extrusion width = 0.40mm
; support material extrusion width = 0.40mm

; external perimeters extrusion width = 0.40mm
; perimeters extrusion width = 0.40mm
; infill extrusion width = 0.40mm
; solid infill extrusion width = 0.40mm
; top infill extrusion width = 0.40mm
; support material extrusion width = 0.40mm

; external perimeters extrusion width = 0.40mm
; perimeters extrusion width = 0.40mm
; infill extrusion width = 0.40mm
; solid infill extrusion width = 0.40mm
; top infill extrusion width = 0.40mm
; support material extrusion width = 0.40mm

G21 ; set units to millimeters
G90 ; use absolute coordinates
M82 ; use absolute distances for extrusion
G92 E0
M107
M190 S45 ; set bed temperature and wait for it to be reached
M104 S210 ; set temperature
;TYPE:Custom
M109 S210 ; set temperature and wait for it to be reached
M6013 S0 ; set chamber temp

G28 X0 Y0  ;move X/Y to min endstops
G28 Z0     ;move Z to min endstops

;Add Clear Nozzle
G92 E0                   ;zero the extruded length again
G0 F4200 X0 Y0
G0 F400 X10 Z0.4         ;move a bit while down the Z
M221 T0 S300             ;set flow is 300%
G1 F200 X30 E8          ;extrude amont filament to clean the hotend
M221 T0 S100             ;reset flow is 100%
G92 E0                   ;zero the extruded length again
;Add End

G0 Z15.0 F4200 ;move the platform down 15mm

;Put printing message on LCD screen
M117 Printing...
; Filament gcode
M107
;LAYER_CHANGE
;Layer 1
;Z:0.1
;HEIGHT:0.1
;BEFORE_LAYER_CHANGE
;0.1


G1 Z.1 F4200
;AFTER_LAYER_CHANGE
;G92 E0   ;zero the extruded length again
;0.1
G1 E-2 F1800
G92 E0
G1 X178.494 Y89.332 F4200
G1 E2 F1800
;TYPE:Skirt/Brim
;WIDTH:0.4
G1 F720
G1 X180.076 Y86.836 E2.05581
G1 X181.723 Y85.574 E2.095
G1 X184.642 Y83.978 E2.15783
G1 X187.134 Y83.191 E2.20718
G1 X198.608 Y81.909 E2.42522
G1 X256.53 Y81.78 E3.5191
G1 X258.812 Y82.177 E3.56284
G1 X261.419 Y83.87 E3.62155
G1 X262.752 Y85.765 E3.66531
G1 X263.396 Y88.477 E3.71795
G1 X264.568 Y134.629 E4.58983
G1 X264.57 Y146.557 E4.8151
G1 X263.875 Y160.776 E5.08395
G1 X263.366 Y163.036 E5.1277
G1 X261.904 Y165.22 E5.17733
G1 X259.561 Y167.563 E5.23991
G1 X257.667 Y168.896 E5.28365
G1 X254.88 Y169.542 E5.33768
G1 X211.759 Y170.16 E6.15212
G1 X188.341 Y170.169 E6.59438
G1 X185.096 Y169.34 E6.65763
G1 X182.176 Y167.743 E6.72048
G1 X180.64 Y166.592 E6.75673
G1 X179.196 Y164.587 E6.80339
G1 X178.551 Y161.769 E6.85799
G1 X178.098 Y115.086 E7.73966
G1 X178.097 Y91.614 E8.18294
G1 X178.484 Y89.391 E8.22555
G1 X178.862 Y89.458 F4200
G1 F720
G1 X178.873 Y89.399 E8.22668
G1 X180.344 Y87.103 E8.27818
G1 X181.905 Y85.907 E8.31532
G1 X184.824 Y84.31 E8.37816
G1 X187.176 Y83.567 E8.42474
G1 X198.65 Y82.285 E8.64278
G1 X256.53 Y82.159 E9.73587
G1 X258.745 Y82.556 E9.77837
G1 X261.151 Y84.138 E9.83275
G1 X262.437 Y85.985 E9.87525
G1 X263.017 Y88.486 E9.92374
G1 X264.19 Y134.638 E10.79562
G1 X264.192 Y146.557 E11.02072
G1 X263.497 Y160.757 E11.28921
G1 X262.991 Y162.95 E11.33171
G1 X261.636 Y164.952 E11.37736
G1 X259.293 Y167.296 E11.43995
G1 X257.447 Y168.581 E11.48243
G1 X254.874 Y169.163 E11.53225
G1 X211.754 Y169.781 E12.34667
G1 X188.341 Y169.79 E12.78883
G1 X185.278 Y169.008 E12.84853
G1 X182.357 Y167.41 E12.91141
G1 X180.908 Y166.324 E12.94561
G1 X179.512 Y164.367 E12.99101
G1 X178.929 Y161.765 E13.04137
G1 X178.476 Y115.082 E13.92304
G1 X178.476 Y91.614 E14.36624
G1 X178.851 Y89.518 E14.40645
G1 E12.40645 F1800
G92 E0
G1 X188.989 Y136.886 F4200
G1 E2 F1800
G1 F720
G1 X206.013 Y136.89 E2.32151
G1 X206.387 Y136.979 E2.32877
G1 X206.903 Y137.26 E2.33987
G1 X208.33 Y138.694 E2.37808
G1 X208.53 Y139.016 E2.38524
G1 X208.688 Y139.525 E2.39531
G1 X208.694 Y144.131 E2.4823
G1 X208.566 Y144.708 E2.49346
G1 X210.985 Y144.708 E2.53914
G1 X211.396 Y144.8 E2.54709
G1 X211.914 Y145.083 E2.55824
G1 X213.335 Y146.504 E2.59619
G1 X213.67 Y147.179 E2.61042
G1 X213.709 Y147.435 E2.61531
G1 X213.709 Y160.408 E2.86031
G1 X213.543 Y160.973 E2.87143
G1 X213.398 Y161.228 E2.87697
G1 X211.869 Y162.765 E2.91791
G1 X211.578 Y162.94 E2.92432
G1 X211.011 Y163.107 E2.93548
G1 X188.991 Y163.115 E3.35134
G1 X188.426 Y162.949 E3.36246
G1 X188.17 Y162.803 E3.36803
G1 X186.666 Y161.32 E3.40792
G1 X186.383 Y160.801 E3.41908
G1 X186.291 Y160.39 E3.42703
G1 X186.291 Y154.775 E3.53307
G1 X186.377 Y154.377 E3.54076
G1 X186.606 Y153.891 E3.55091
G1 X186.483 Y153.686 E3.55542
G1 X186.291 Y153.067 E3.56766
G1 X186.291 Y147.425 E3.67421
G1 X186.382 Y147.015 E3.68214
G1 X186.597 Y146.589 E3.69115
G1 X187.41 Y145.759 E3.71309
G1 X186.635 Y144.978 E3.73387
G1 X186.384 Y144.506 E3.74397
G1 X186.299 Y144.174 E3.75044
G1 X186.291 Y139.585 E3.83711
G1 X186.457 Y139.02 E3.84823
G1 X186.602 Y138.765 E3.85377
G1 X188.131 Y137.228 E3.89471
G1 X188.423 Y137.053 E3.90114
G1 X188.932 Y136.903 E3.91116
G1 X189.019 Y137.264 F4200
G1 F720
G1 X205.991 Y137.268 E4.23168
G1 X206.233 Y137.325 E4.23638
G1 X206.656 Y137.549 E4.24542
G1 X208.047 Y138.946 E4.28265
G1 X208.178 Y139.157 E4.28734
G1 X208.31 Y139.557 E4.29529
G1 X208.315 Y144.108 E4.38124
G1 X208.258 Y144.349 E4.38592
G1 X207.861 Y145.086 E4.40173
G1 X210.965 Y145.087 E4.46035
G1 X211.244 Y145.148 E4.46574
G1 X211.667 Y145.371 E4.47477
G1 X213.046 Y146.749 E4.51159
G1 X213.301 Y147.268 E4.52251
G1 X213.331 Y147.451 E4.52601
G1 X213.331 Y160.378 E4.77014
G1 X213.189 Y160.837 E4.77921
G1 X213.085 Y161.014 E4.78309
G1 X211.65 Y162.456 E4.82151
G1 X211.44 Y162.586 E4.82617
G1 X210.981 Y162.728 E4.83524
G1 X189.02 Y162.736 E5.24998
G1 X188.561 Y162.594 E5.25905
G1 X188.384 Y162.49 E5.26293
G1 X186.954 Y161.073 E5.30095
G1 X186.73 Y160.649 E5.31001
G1 X186.669 Y160.37 E5.3154
G1 X186.669 Y154.795 E5.42069
G1 X186.728 Y154.518 E5.42604
G1 X186.881 Y154.194 E5.43281
G1 X187.133 Y153.908 E5.44001
G1 X186.947 Y153.713 E5.4451
G1 X186.833 Y153.54 E5.44901
G1 X186.669 Y153.036 E5.45902
G1 X186.669 Y147.445 E5.56461
G1 X186.73 Y147.164 E5.57004
G1 X186.921 Y146.788 E5.578
G1 X187.949 Y145.757 E5.6055
G1 X186.955 Y144.774 E5.6319
G1 X186.729 Y144.348 E5.64101
G1 X186.678 Y144.149 E5.64489
G1 X186.669 Y139.614 E5.73054
G1 X186.811 Y139.155 E5.73961
G1 X186.915 Y138.978 E5.74349
G1 X188.351 Y137.537 E5.78191
G1 X188.56 Y137.406 E5.78657
G1 X188.962 Y137.282 E5.79451
G1 X189.051 Y137.643 F4200
G1 F720
G1 X205.969 Y137.647 E6.11401
G1 X206.084 Y137.674 E6.11624
G1 X206.411 Y137.839 E6.12316
G1 X207.742 Y139.171 E6.15872
G1 X207.827 Y139.3 E6.16164
G1 X207.941 Y139.646 E6.16852
G1 X207.937 Y144.085 E6.25235
G1 X207.91 Y144.201 E6.2546
G1 X207.745 Y144.527 E6.2615
G1 X206.808 Y145.464 E6.28653
G1 X210.946 Y145.465 E6.36468
G1 X211.098 Y145.497 E6.36761
G1 X211.422 Y145.661 E6.37447
G1 X212.755 Y146.994 E6.41007
G1 X212.933 Y147.36 E6.41776
G1 X212.952 Y147.469 E6.41985
G1 X212.952 Y160.347 E6.66306
G1 X212.838 Y160.694 E6.66996
G1 X212.776 Y160.795 E6.6722
G1 X211.424 Y162.151 E6.70836
G1 X211.295 Y162.236 E6.71128
G1 X210.949 Y162.349 E6.71815
G1 X189.052 Y162.357 E7.13168
G1 X188.704 Y162.243 E7.1386
G1 X188.603 Y162.181 E7.14084
G1 X187.244 Y160.827 E7.17707
G1 X187.08 Y160.503 E7.18393
G1 X187.048 Y160.351 E7.18686
G1 X187.048 Y154.814 E7.29143
G1 X187.08 Y154.66 E7.2944
G1 X187.209 Y154.387 E7.3001
G1 X187.671 Y153.905 E7.31271
G1 X187.244 Y153.477 E7.32413
G1 X187.18 Y153.387 E7.32622
G1 X187.048 Y153.003 E7.33389
G1 X187.048 Y147.464 E7.4385
G1 X187.08 Y147.312 E7.44143
G1 X187.245 Y146.987 E7.44831
G1 X188.488 Y145.758 E7.48132
G1 X187.244 Y144.528 E7.51436
G1 X187.079 Y144.2 E7.52129
G1 X187.051 Y144.085 E7.52353
G1 X187.048 Y139.646 E7.60736
G1 X187.162 Y139.298 E7.61428
G1 X187.224 Y139.198 E7.6165
G1 X188.576 Y137.841 E7.65268
G1 X188.705 Y137.756 E7.6556
G1 X188.994 Y137.662 E7.66134
G1 X189.086 Y138.022 F4200
G1 F720
G1 X205.917 Y138.022 E7.9792
G1 X206.168 Y138.131 E7.98437
G1 X207.462 Y139.426 E8.01894
G1 X207.562 Y139.681 E8.02411
G1 X207.556 Y144.065 E8.1069
G1 X207.452 Y144.285 E8.1115
G1 X205.894 Y145.842 E8.1531
G1 X210.96 Y145.85 E8.24877
G1 X211.179 Y145.954 E8.25335
G1 X212.464 Y147.238 E8.28766
G1 X212.574 Y147.489 E8.29284
G1 X212.574 Y160.311 E8.53499
G1 X212.474 Y160.567 E8.54018
G1 X211.169 Y161.871 E8.57502
G1 X210.914 Y161.971 E8.58019
G1 X189.087 Y161.979 E8.9924
G1 X188.832 Y161.879 E8.99757
G1 X187.536 Y160.585 E9.03216
G1 X187.426 Y160.333 E9.03735
G1 X187.426 Y154.832 E9.14124
G1 X187.536 Y154.58 E9.14643
G1 X188.209 Y153.907 E9.1644
G1 X187.526 Y153.225 E9.18263
G1 X187.426 Y152.969 E9.18782
G1 X187.426 Y147.482 E9.29144
G1 X187.536 Y147.231 E9.29662
G1 X189.027 Y145.758 E9.3362
G1 X187.536 Y144.284 E9.3758
G1 X187.433 Y144.065 E9.38037
G1 X187.426 Y139.681 E9.46316
G1 X187.526 Y139.426 E9.46833
G1 X188.831 Y138.121 E9.50318
G1 X189.03 Y138.042 E9.50722
G1 X189.128 Y138.4 F4200
G1 F720
G1 X205.86 Y138.4 E9.82321
G1 X205.93 Y138.429 E9.82464
G1 X207.155 Y139.654 E9.85736
G1 X207.183 Y139.723 E9.85877
G1 X207.183 Y143.977 E9.93911
G1 X207.155 Y144.047 E9.94053
G1 X205.93 Y145.271 E9.97323
G1 X205.86 Y145.3 E9.97466
G1 X189.128 Y145.3 E10.29065
G1 X189.059 Y145.271 E10.29206
G1 X187.834 Y144.047 E10.32476
G1 X187.805 Y143.977 E10.32619
G1 X187.805 Y139.723 E10.40653
G1 X187.834 Y139.654 E10.40794
G1 X189.073 Y138.423 E10.44092
G1 E8.44092 F1800
G92 E0
G1 X189.129 Y146.215 F4200
G1 E2 F1800
G1 F720
G1 X210.872 Y146.222 E2.41063
G1 X210.941 Y146.251 E2.41204
G1 X212.166 Y147.476 E2.44476
G1 X212.195 Y147.546 E2.44619
G1 X212.195 Y160.269 E2.68647
G1 X212.166 Y160.339 E2.6879
G1 X210.941 Y161.564 E2.72062
G1 X210.872 Y161.592 E2.72203
G1 X189.129 Y161.6 E3.13266
G1 X189.059 Y161.572 E3.13408
G1 X187.834 Y160.347 E3.1668
G1 X187.805 Y160.277 E3.16823
G1 X187.805 Y154.888 E3.27
G1 X187.834 Y154.818 E3.27143
G1 X188.744 Y153.907 E3.29575
G1 X187.834 Y152.997 E3.32005
G1 X187.805 Y152.927 E3.32148
G1 X187.805 Y147.538 E3.42325
G1 X187.834 Y147.468 E3.42468
G1 X189.073 Y146.238 E3.45765
G1 E1.45765 F1800
G92 E0
G1 X229.411 Y146.807 F4200
G1 E2 F1800
G1 F720
G1 X229.502 Y146.397 E2.00793
G1 X229.718 Y145.971 E2.01695
G1 X230.53 Y145.141 E2.03888
G1 X229.755 Y144.36 E2.05966
G1 X229.505 Y143.888 E2.06975
G1 X229.42 Y143.556 E2.07622
G1 X229.411 Y138.967 E2.16289
G1 X229.577 Y138.402 E2.17401
G1 X229.723 Y138.147 E2.17956
G1 X231.251 Y136.61 E2.22049
G1 X231.543 Y136.435 E2.22692
G1 X232.11 Y136.268 E2.23808
G1 X249.133 Y136.272 E2.55957
G1 X249.507 Y136.361 E2.56683
G1 X250.023 Y136.642 E2.57793
G1 X251.45 Y138.076 E2.61614
G1 X251.65 Y138.398 E2.6233
G1 X251.808 Y138.907 E2.63337
G1 X251.814 Y143.513 E2.72036
G1 X251.686 Y144.09 E2.73152
G1 X254.105 Y144.091 E2.7772
G1 X254.517 Y144.182 E2.78517
G1 X255.034 Y144.465 E2.7963
G1 X256.456 Y145.886 E2.83427
G1 X256.79 Y146.561 E2.84849
G1 X256.83 Y146.817 E2.85338
G1 X256.83 Y159.79 E3.09838
G1 X256.663 Y160.355 E3.10951
G1 X256.518 Y160.61 E3.11505
G1 X254.99 Y162.147 E3.15598
G1 X254.698 Y162.322 E3.16241
G1 X254.132 Y162.489 E3.17355
G1 X232.111 Y162.497 E3.58943
G1 X231.546 Y162.331 E3.60055
G1 X231.291 Y162.185 E3.6061
G1 X229.786 Y160.702 E3.646
G1 X229.503 Y160.184 E3.65715
G1 X229.411 Y159.772 E3.66512
G1 X229.411 Y154.157 E3.77116
G1 X229.497 Y153.759 E3.77885
G1 X229.726 Y153.274 E3.78898
G1 X229.603 Y153.068 E3.79351
G1 X229.411 Y152.449 E3.80575
G1 X229.411 Y146.867 E3.91117
G1 X229.79 Y146.867 F4200
G1 F720
G1 X229.851 Y146.546 E3.91734
G1 X230.041 Y146.17 E3.9253
G1 X231.069 Y145.139 E3.9528
G1 X230.076 Y144.157 E3.97917
G1 X229.85 Y143.73 E3.98829
G1 X229.798 Y143.531 E3.99217
G1 X229.79 Y138.996 E4.07782
G1 X229.931 Y138.537 E4.08689
G1 X230.036 Y138.361 E4.09076
G1 X231.471 Y136.919 E4.12918
G1 X231.68 Y136.788 E4.13384
G1 X232.139 Y136.647 E4.14291
G1 X249.111 Y136.65 E4.46343
G1 X249.353 Y136.707 E4.46813
G1 X249.776 Y136.931 E4.47717
G1 X251.167 Y138.328 E4.5144
G1 X251.299 Y138.539 E4.5191
G1 X251.43 Y138.939 E4.52705
G1 X251.436 Y143.49 E4.613
G1 X251.379 Y143.731 E4.61768
G1 X250.982 Y144.468 E4.63349
G1 X254.085 Y144.469 E4.69209
G1 X254.364 Y144.53 E4.69748
G1 X254.788 Y144.753 E4.70653
G1 X256.166 Y146.131 E4.74333
G1 X256.421 Y146.65 E4.75425
G1 X256.451 Y146.833 E4.75775
G1 X256.451 Y159.76 E5.00188
G1 X256.309 Y160.219 E5.01095
G1 X256.205 Y160.396 E5.01483
G1 X254.77 Y161.838 E5.05325
G1 X254.56 Y161.968 E5.05791
G1 X254.102 Y162.11 E5.06697
G1 X232.14 Y162.118 E5.48173
G1 X231.681 Y161.977 E5.4908
G1 X231.504 Y161.872 E5.49469
G1 X230.074 Y160.455 E5.53271
G1 X229.85 Y160.031 E5.54177
G1 X229.79 Y159.752 E5.54716
G1 X229.79 Y154.177 E5.65245
G1 X229.849 Y153.901 E5.65778
G1 X230.002 Y153.576 E5.66456
G1 X230.253 Y153.29 E5.67175
G1 X230.067 Y153.095 E5.67684
G1 X229.953 Y152.922 E5.68075
G1 X229.79 Y152.418 E5.69075
G1 X229.79 Y146.927 E5.79445
G1 X230.168 Y146.927 F4200
G1 F720
G1 X230.2 Y146.694 E5.79889
G1 X230.365 Y146.369 E5.80577
G1 X231.609 Y145.14 E5.8388
G1 X230.365 Y143.91 E5.87184
G1 X230.199 Y143.583 E5.87877
G1 X230.172 Y143.468 E5.881
G1 X230.168 Y139.028 E5.96485
G1 X230.282 Y138.68 E5.97177
G1 X230.345 Y138.58 E5.974
G1 X231.696 Y137.223 E6.01016
G1 X231.826 Y137.139 E6.01308
G1 X232.171 Y137.025 E6.01994
G1 X249.089 Y137.029 E6.33944
G1 X249.204 Y137.056 E6.34167
G1 X249.531 Y137.221 E6.34859
G1 X250.863 Y138.553 E6.38417
G1 X250.947 Y138.682 E6.38708
G1 X251.061 Y139.028 E6.39396
G1 X251.057 Y143.468 E6.47781
G1 X251.03 Y143.583 E6.48004
G1 X250.865 Y143.909 E6.48694
G1 X249.928 Y144.846 E6.51197
G1 X254.066 Y144.848 E6.59012
G1 X254.218 Y144.879 E6.59305
G1 X254.542 Y145.043 E6.59991
G1 X255.876 Y146.377 E6.63554
G1 X256.054 Y146.742 E6.64321
G1 X256.072 Y146.851 E6.6453
G1 X256.072 Y159.729 E6.88851
G1 X255.958 Y160.077 E6.89543
G1 X255.896 Y160.177 E6.89765
G1 X254.545 Y161.533 E6.9338
G1 X254.415 Y161.618 E6.93673
G1 X254.07 Y161.732 E6.94359
G1 X232.172 Y161.74 E7.35714
G1 X231.824 Y161.625 E7.36406
G1 X231.724 Y161.563 E7.36628
G1 X230.364 Y160.209 E7.40252
G1 X230.2 Y159.885 E7.40938
G1 X230.168 Y159.733 E7.41231
G1 X230.168 Y154.196 E7.51688
G1 X230.2 Y154.042 E7.51985
G1 X230.329 Y153.769 E7.52555
G1 X230.791 Y153.287 E7.53816
G1 X230.364 Y152.86 E7.54956
G1 X230.301 Y152.769 E7.55165
G1 X230.168 Y152.385 E7.55932
G1 X230.168 Y146.987 E7.66126
G1 X230.547 Y146.987 F4200
G1 F720
G1 X230.553 Y146.832 E7.66419
G1 X230.656 Y146.613 E7.66876
G1 X232.147 Y145.14 E7.70834
G1 X230.656 Y143.666 E7.74794
G1 X230.547 Y143.415 E7.75311
G1 X230.547 Y139.063 E7.8353
G1 X230.647 Y138.808 E7.84047
G1 X231.978 Y137.485 E7.87591
G1 X232.206 Y137.404 E7.88048
G1 X249.037 Y137.404 E8.19834
G1 X249.288 Y137.514 E8.20352
G1 X250.582 Y138.808 E8.23808
G1 X250.682 Y139.063 E8.24325
G1 X250.682 Y143.415 E8.32544
G1 X250.572 Y143.667 E8.33063
G1 X249.015 Y145.224 E8.37221
G1 X254.081 Y145.232 E8.46788
G1 X254.3 Y145.336 E8.47246
G1 X255.584 Y146.62 E8.50675
G1 X255.688 Y146.84 E8.51135
G1 X255.694 Y159.693 E8.75408
G1 X255.612 Y159.922 E8.75867
G1 X254.29 Y161.253 E8.7941
G1 X254.034 Y161.353 E8.79929
G1 X232.207 Y161.361 E9.2115
G1 X231.979 Y161.279 E9.21608
G1 X230.657 Y159.967 E9.25125
G1 X230.547 Y159.715 E9.25644
G1 X230.547 Y154.214 E9.36033
G1 X230.657 Y153.962 E9.36552
G1 X231.329 Y153.29 E9.38347
G1 X230.647 Y152.607 E9.4017
G1 X230.547 Y152.351 E9.40689
G1 X230.547 Y147.047 E9.50706
G1 E7.50706 F1800
G92 E0
G1 X232.179 Y144.654 F4200
G1 E2 F1800
G1 F720
G1 X230.954 Y143.429 E2.03272
G1 X230.925 Y143.359 E2.03415
G1 X230.925 Y139.105 E2.11449
G1 X230.954 Y139.036 E2.1159
G1 X232.179 Y137.811 E2.14862
G1 X232.248 Y137.782 E2.15003
G1 X248.981 Y137.782 E2.46604
G1 X249.05 Y137.811 E2.46745
G1 X250.275 Y139.036 E2.50017
G1 X250.304 Y139.105 E2.50158
G1 X250.304 Y143.359 E2.58192
G1 X250.275 Y143.429 E2.58335
