; generated by CreatWare 7.0.0 on 2022-06-29 at 04:50:58 UTC

; 

; external perimeters extrusion width = 0.40mm
; perimeters extrusion width = 0.40mm
; infill extrusion width = 0.40mm
; solid infill extrusion width = 0.40mm
; top infill extrusion width = 0.40mm
; support material extrusion width = 0.40mm

G21 ; set units to millimeters
G90 ; use absolute coordinates
M82 ; use absolute distances for extrusion
G92 E0
M107
M190 S45 ; set bed temperature and wait for it to be reached
M104 S210 ; set temperature
;TYPE:Custom
M109 S210 ; set temperature and wait for it to be reached
M6013 S0 ; set chamber temp

G28 X0 Y0  ;move X/Y to min endstops
G28 Z0     ;move Z to min endstops

;Add Clear Nozzle
G92 E0                   ;zero the extruded length again
G0 F4200 X0 Y0
G0 F400 X10 Z0.4         ;move a bit while down the Z
M221 T0 S300             ;set flow is 300%
G1 F200 X30 E8          ;extrude amont filament to clean the hotend
M221 T0 S100             ;reset flow is 100%
G92 E0                   ;zero the extruded length again
;Add End

G0 Z15.0 F4200 ;move the platform down 15mm

;Put printing message on LCD screen
M117 Printing...
; Filament gcode
M107
;LAYER_CHANGE
;Layer 1
;Z:0.1
;HEIGHT:0.1
;BEFORE_LAYER_CHANGE
;0.1


G1 Z.1 F4200
;AFTER_LAYER_CHANGE
;G92 E0   ;zero the extruded length again
;0.1
G1 E-2 F1800
G92 E0
G1 X180.797 Y130.908 F4200
G1 E2 F1800
;TYPE:Skirt/Brim
;WIDTH:0.4
G1 F720
G1 X182.755 Y129.512 E2.04541
G1 X185.418 Y128.929 E2.09689
G1 X214.582 Y128.929 E2.64766
G1 X216.797 Y129.326 E2.69016
G1 X219.203 Y130.908 E2.74454
G1 X220.488 Y132.755 E2.78703
G1 X221.071 Y135.418 E2.83851
G1 X221.071 Y150.054 E3.11492
G1 X221.017 Y150.885 E3.13065
G1 X219.555 Y162.004 E3.34244
G1 X219.121 Y163.621 E3.37406
G1 X217.704 Y167.03 E3.44378
G1 X216.325 Y169.092 E3.49063
G1 X214.367 Y170.488 E3.53604
G1 X211.703 Y171.071 E3.58754
G1 X188.297 Y171.071 E4.02957
G1 X186.082 Y170.674 E4.07207
G1 X183.786 Y169.203 E4.12357
G1 X182.291 Y167.018 E4.17357
G1 X180.874 Y163.588 E4.24366
G1 X180.446 Y161.995 E4.27481
G1 X178.985 Y151.032 E4.48368
G1 X178.929 Y150.189 E4.49964
G1 X178.929 Y135.418 E4.7786
G1 X179.326 Y133.203 E4.8211
G1 X180.765 Y130.958 E4.87146
G1 E2.87146 F1800
G92 E0
G1 X188.861 Y141.154 F4200
G1 E2 F1800
G1 F720
G1 X189.536 Y140.82 E2.01422
G1 X189.792 Y140.78 E2.01911
G1 X195.444 Y140.784 E2.12585
G1 X195.817 Y140.872 E2.13309
G1 X196.238 Y141.085 E2.142
G1 X196.889 Y141.709 E2.15903
G1 X197.526 Y141.092 E2.17578
G1 X197.782 Y140.946 E2.18135
G1 X198.346 Y140.78 E2.19245
G1 X204.014 Y140.78 E2.29949
G1 X204.632 Y140.972 E2.31171
G1 X204.887 Y141.128 E2.31736
G1 X205.082 Y141.006 E2.3217
G1 X205.703 Y140.813 E2.33398
G1 X210.236 Y140.813 E2.41959
G1 X210.803 Y140.98 E2.43075
G1 X211.094 Y141.155 E2.43716
G1 X212.623 Y142.691 E2.47809
G1 X212.769 Y142.947 E2.48366
G1 X212.935 Y143.511 E2.49476
G1 X212.935 Y160.521 E2.816
G1 X212.768 Y161.088 E2.82716
G1 X212.593 Y161.379 E2.83357
G1 X211.056 Y162.908 E2.87451
G1 X210.8 Y163.054 E2.88008
G1 X210.236 Y163.22 E2.89118
G1 X205.703 Y163.22 E2.97679
G1 X205.085 Y163.028 E2.98901
G1 X204.858 Y162.89 E2.99403
G1 X204.385 Y163.113 E3.00391
G1 X203.987 Y163.199 E3.0116
G1 X198.346 Y163.199 E3.11813
G1 X197.782 Y163.033 E3.12923
G1 X197.526 Y162.887 E3.1348
G1 X196.888 Y162.269 E3.15157
G1 X196.251 Y162.887 E3.16833
G1 X195.995 Y163.033 E3.1739
G1 X195.43 Y163.199 E3.18502
G1 X189.764 Y163.199 E3.29202
G1 X189.197 Y163.032 E3.30318
G1 X188.906 Y162.857 E3.30959
G1 X187.377 Y161.32 E3.35053
G1 X187.231 Y161.065 E3.35608
G1 X187.065 Y160.5 E3.3672
G1 X187.065 Y143.505 E3.68816
G1 X187.157 Y143.094 E3.69611
G1 X187.44 Y142.576 E3.70726
G1 X188.818 Y141.197 E3.74408
G1 X189.086 Y141.464 F4200
G1 F720
G1 X189.625 Y141.189 E3.75551
G1 X189.808 Y141.159 E3.75901
G1 X195.422 Y141.163 E3.86503
G1 X195.666 Y141.22 E3.86976
G1 X196.04 Y141.41 E3.87768
G1 X196.889 Y142.243 E3.90014
G1 X197.74 Y141.405 E3.9227
G1 X197.917 Y141.301 E3.92658
G1 X198.376 Y141.159 E3.93565
G1 X203.983 Y141.159 E4.04154
G1 X204.487 Y141.323 E4.05155
G1 X204.659 Y141.436 E4.05544
G1 X204.858 Y141.627 E4.06065
G1 X205.235 Y141.354 E4.06944
G1 X205.734 Y141.191 E4.07935
G1 X210.206 Y141.191 E4.16381
G1 X210.665 Y141.333 E4.17288
G1 X210.875 Y141.463 E4.17754
G1 X212.31 Y142.905 E4.21596
G1 X212.414 Y143.082 E4.21984
G1 X212.556 Y143.541 E4.22891
G1 X212.556 Y160.491 E4.54902
G1 X212.414 Y160.95 E4.55809
G1 X212.284 Y161.16 E4.56275
G1 X210.842 Y162.595 E4.60117
G1 X210.665 Y162.699 E4.60505
G1 X210.206 Y162.841 E4.61412
G1 X205.734 Y162.841 E4.69858
G1 X205.231 Y162.677 E4.70857
G1 X205.058 Y162.564 E4.71247
G1 X204.848 Y162.362 E4.71797
G1 X204.567 Y162.608 E4.72502
G1 X204.243 Y162.761 E4.73179
G1 X203.967 Y162.82 E4.73712
G1 X198.376 Y162.82 E4.84271
G1 X197.917 Y162.679 E4.85178
G1 X197.74 Y162.574 E4.85567
G1 X196.888 Y161.735 E4.87825
G1 X196.037 Y162.574 E4.90082
G1 X195.86 Y162.679 E4.90471
G1 X195.401 Y162.82 E4.91378
G1 X189.794 Y162.82 E5.01967
G1 X189.335 Y162.679 E5.02874
G1 X189.125 Y162.548 E5.03341
G1 X187.69 Y161.106 E5.07183
G1 X187.586 Y160.93 E5.07569
G1 X187.444 Y160.471 E5.08476
G1 X187.444 Y143.525 E5.40479
G1 X187.505 Y143.246 E5.41018
G1 X187.728 Y142.822 E5.41923
G1 X189.044 Y141.507 E5.45436
G1 X189.311 Y141.775 F4200
G1 F720
G1 X189.352 Y141.734 E5.45546
G1 X189.717 Y141.556 E5.46313
G1 X189.826 Y141.537 E5.46522
G1 X195.4 Y141.541 E5.57049
G1 X195.515 Y141.568 E5.57272
G1 X195.842 Y141.733 E5.57964
G1 X196.888 Y142.779 E5.60758
G1 X197.959 Y141.714 E5.6361
G1 X198.06 Y141.652 E5.63834
G1 X198.408 Y141.537 E5.64526
G1 X203.95 Y141.537 E5.74992
G1 X204.334 Y141.67 E5.75759
G1 X204.424 Y141.733 E5.75966
G1 X204.875 Y142.184 E5.77171
G1 X205.293 Y141.766 E5.78287
G1 X205.383 Y141.702 E5.78496
G1 X205.768 Y141.57 E5.79265
G1 X210.175 Y141.57 E5.87588
G1 X210.52 Y141.683 E5.88274
G1 X210.65 Y141.768 E5.88567
G1 X212.001 Y143.124 E5.92182
G1 X212.063 Y143.225 E5.92406
G1 X212.177 Y143.573 E5.93098
G1 X212.177 Y160.46 E6.2499
G1 X212.064 Y160.805 E6.25676
G1 X211.979 Y160.935 E6.25969
G1 X210.623 Y162.286 E6.29584
G1 X210.522 Y162.348 E6.29808
G1 X210.175 Y162.463 E6.30498
G1 X205.768 Y162.463 E6.38821
G1 X205.383 Y162.33 E6.3959
G1 X205.293 Y162.267 E6.39797
G1 X204.851 Y161.825 E6.40977
G1 X204.374 Y162.281 E6.42223
G1 X204.102 Y162.41 E6.42792
G1 X203.948 Y162.442 E6.43089
G1 X198.408 Y162.442 E6.53552
G1 X198.06 Y162.328 E6.54244
G1 X197.959 Y162.265 E6.54469
G1 X196.888 Y161.2 E6.57321
G1 X195.817 Y162.265 E6.60173
G1 X195.717 Y162.328 E6.60396
G1 X195.369 Y162.442 E6.61088
G1 X189.825 Y162.442 E6.71558
G1 X189.48 Y162.328 E6.72244
G1 X189.35 Y162.244 E6.72536
G1 X187.999 Y160.887 E6.76152
G1 X187.937 Y160.787 E6.76374
G1 X187.823 Y160.439 E6.77066
G1 X187.823 Y143.544 E7.08973
G1 X187.854 Y143.392 E7.09266
G1 X188.018 Y143.068 E7.09952
G1 X189.269 Y141.817 E7.13293
G1 X189.537 Y142.085 F4200
G1 F720
G1 X189.595 Y142.026 E7.13449
G1 X189.846 Y141.916 E7.13967
G1 X195.348 Y141.916 E7.24358
G1 X195.599 Y142.026 E7.24876
G1 X196.888 Y143.315 E7.28319
G1 X198.187 Y142.016 E7.31788
G1 X198.443 Y141.916 E7.32307
G1 X203.916 Y141.916 E7.42643
G1 X204.171 Y142.016 E7.4316
G1 X204.875 Y142.72 E7.4504
G1 X205.546 Y142.048 E7.46833
G1 X205.801 Y141.948 E7.4735
G1 X210.139 Y141.948 E7.55542
G1 X210.395 Y142.048 E7.56061
G1 X211.699 Y143.353 E7.59545
G1 X211.799 Y143.608 E7.60062
G1 X211.799 Y160.424 E7.9182
G1 X211.699 Y160.68 E7.92339
G1 X210.395 Y161.984 E7.95822
G1 X210.139 Y162.084 E7.96341
G1 X205.801 Y162.084 E8.04533
G1 X205.546 Y161.984 E8.0505
G1 X204.848 Y161.286 E8.06914
G1 X204.181 Y161.953 E8.08695
G1 X203.93 Y162.063 E8.09213
G1 X198.443 Y162.063 E8.19575
G1 X198.187 Y161.963 E8.20094
G1 X196.888 Y160.664 E8.23563
G1 X195.589 Y161.963 E8.27032
G1 X195.334 Y162.063 E8.27549
G1 X189.861 Y162.063 E8.37885
G1 X189.605 Y161.963 E8.38404
G1 X188.301 Y160.659 E8.41887
G1 X188.201 Y160.404 E8.42404
G1 X188.201 Y143.561 E8.74213
G1 X188.311 Y143.31 E8.74731
G1 X189.494 Y142.127 E8.77891
G1 X189.762 Y142.395 F4200
G1 F720
G1 X189.833 Y142.323 E8.78082
G1 X189.903 Y142.295 E8.78224
G1 X195.292 Y142.295 E8.88401
G1 X195.361 Y142.323 E8.88542
G1 X196.586 Y143.548 E8.91814
G1 X196.615 Y143.618 E8.91957
G1 X196.615 Y160.362 E9.23579
G1 X196.586 Y160.431 E9.2372
G1 X195.361 Y161.656 E9.26992
G1 X195.292 Y161.685 E9.27133
G1 X189.903 Y161.685 E9.3731
G1 X189.833 Y161.656 E9.37453
G1 X188.608 Y160.431 E9.40725
G1 X188.58 Y160.362 E9.40866
G1 X188.58 Y143.618 E9.72488
G1 X188.608 Y143.548 E9.7263
G1 X189.719 Y142.437 E9.75597
G1 E7.75597 F1800
G92 E0
G1 X197.162 Y143.618 F4200
G1 E2 F1800
G1 F720
G1 X197.19 Y143.548 E2.00142
G1 X198.415 Y142.323 E2.03414
G1 X198.485 Y142.295 E2.03556
G1 X203.874 Y142.295 E2.13733
G1 X203.943 Y142.323 E2.13874
G1 X204.875 Y143.255 E2.16363
G1 X205.774 Y142.356 E2.18764
G1 X205.843 Y142.327 E2.18905
G1 X210.097 Y142.327 E2.26939
G1 X210.167 Y142.356 E2.27082
G1 X211.392 Y143.581 E2.30354
G1 X211.42 Y143.65 E2.30495
G1 X211.42 Y160.382 E2.62094
G1 X211.392 Y160.452 E2.62236
G1 X210.167 Y161.677 E2.65508
G1 X210.097 Y161.705 E2.6565
G1 X205.843 Y161.705 E2.73684
G1 X205.774 Y161.677 E2.73825
G1 X204.848 Y160.751 E2.76298
G1 X203.943 Y161.656 E2.78715
G1 X203.874 Y161.685 E2.78856
G1 X198.485 Y161.685 E2.89033
G1 X198.415 Y161.656 E2.89176
G1 X197.19 Y160.431 E2.92448
G1 X197.162 Y160.362 E2.92589
G1 X197.162 Y143.678 E3.24097
G1 E1.24097 F1800
G92 E0
G1 X214.503 Y150.111 F4200
G1 E2 F1800
;TYPE:Support material
G1 F720
G1 X213.431 Y150.111 E2.02025
G1 X213.431 Y144.505 E2.12612
G1 X213.324 Y143.562 E2.14404
G1 X212.515 Y141.89 E2.17912
G1 X211.053 Y140.726 E2.21441
G1 X209.254 Y140.316 E2.24926
G1 X206.698 Y140.316 E2.29753
G1 X205.755 Y140.423 E2.31545
G1 X204.968 Y140.804 E2.33196
G1 X204.83 Y140.694 E2.33529
G1 X203.03 Y140.284 E2.37015
G1 X199.34 Y140.284 E2.43984
G1 X198.397 Y140.391 E2.45776
G1 X196.823 Y141.152 E2.49078
G1 X196.248 Y140.694 E2.50466
G1 X194.448 Y140.284 E2.53952
G1 X190.758 Y140.284 E2.60921
G1 X189.815 Y140.391 E2.62713
G1 X188.143 Y141.2 E2.66221
G1 X186.979 Y142.662 E2.6975
G1 X186.569 Y144.461 E2.73235
G1 X186.569 Y150.111 E2.83905
G1 X185.497 Y150.111 E2.8593
G1 X185.497 Y135.497 E3.13529
G1 X214.503 Y135.497 E3.68308
G1 X214.503 Y150.054 E3.958
G1 X213.627 Y149.94 F4200
G1 F720
G1 X213.627 Y135.837 E4.22434
G1 X212.87 Y135.837 E4.23864
G1 X212.87 Y141.841 E4.35203
G1 X212.788 Y141.672 E4.35558
G1 X212.113 Y141.135 E4.37187
G1 X212.113 Y135.837 E4.47192
G1 X211.356 Y135.837 E4.48622
G1 X211.356 Y140.532 E4.57489
G1 X211.205 Y140.411 E4.57854
G1 X210.599 Y140.273 E4.59028
G1 X210.599 Y135.837 E4.67406
G1 X209.842 Y135.837 E4.68836
G1 X209.842 Y140.101 E4.76889
G1 X209.292 Y139.975 E4.77955
G1 X209.085 Y139.975 E4.78346
G1 X209.085 Y135.837 E4.86161
G1 X208.328 Y135.837 E4.87591
G1 X208.328 Y139.975 E4.95406
G1 X207.571 Y139.975 E4.96836
G1 X207.571 Y135.837 E5.04651
G1 X206.814 Y135.837 E5.06081
G1 X206.814 Y139.975 E5.13896
G1 X206.679 Y139.975 E5.14151
G1 X206.057 Y140.046 E5.15333
G1 X206.057 Y135.837 E5.23282
G1 X205.3 Y135.837 E5.24712
G1 X205.3 Y140.265 E5.33074
G1 X205.013 Y140.404 E5.33676
G1 X204.981 Y140.379 E5.33753
G1 X204.542 Y140.279 E5.34603
G1 X204.542 Y135.837 E5.42992
G1 X203.785 Y135.837 E5.44422
G1 X203.785 Y140.107 E5.52486
G1 X203.028 Y139.943 E5.53949
G1 X203.028 Y135.837 E5.61703
G1 X202.271 Y135.837 E5.63133
G1 X202.271 Y139.943 E5.70887
G1 X201.514 Y139.943 E5.72317
G1 X201.514 Y135.837 E5.80071
G1 X200.757 Y135.837 E5.81501
G1 X200.757 Y139.943 E5.89255
G1 X200 Y139.943 E5.90685
G1 X200 Y135.837 E5.98439
G1 X199.243 Y135.837 E5.99869
G1 X199.243 Y139.952 E6.0764
G1 X198.486 Y140.038 E6.09079
G1 X198.486 Y135.837 E6.17013
G1 X197.729 Y135.837 E6.18443
G1 X197.729 Y140.336 E6.2694
G1 X196.972 Y140.702 E6.28528
G1 X196.972 Y135.837 E6.37716
G1 X196.215 Y135.837 E6.39146
G1 X196.215 Y140.337 E6.47644
G1 X195.458 Y140.164 E6.4911
G1 X195.458 Y135.837 E6.57282
G1 X194.7 Y135.837 E6.58714
G1 X194.7 Y139.992 E6.66561
G1 X194.486 Y139.943 E6.66976
G1 X193.943 Y139.943 E6.68001
G1 X193.943 Y135.837 E6.75755
G1 X193.186 Y135.837 E6.77185
G1 X193.186 Y139.943 E6.84939
G1 X192.429 Y139.943 E6.86369
G1 X192.429 Y135.837 E6.94123
G1 X191.672 Y135.837 E6.95553
G1 X191.672 Y139.943 E7.03307
G1 X190.915 Y139.943 E7.04737
G1 X190.915 Y135.837 E7.12491
G1 X190.158 Y135.837 E7.13921
G1 X190.158 Y140.009 E7.218
G1 X189.719 Y140.059 E7.22634
G1 X189.401 Y140.213 E7.23301
G1 X189.401 Y135.837 E7.31565
G1 X188.644 Y135.837 E7.32995
G1 X188.644 Y140.579 E7.4195
G1 X187.925 Y140.927 E7.43459
G1 X187.887 Y140.974 E7.43573
G1 X187.887 Y135.837 E7.53274
G1 X187.13 Y135.837 E7.54704
G1 X187.13 Y141.925 E7.66201
G1 X186.664 Y142.51 E7.67613
G1 X186.373 Y143.789 E7.7009
G1 X186.373 Y135.667 E7.85429
G1 E5.85429 F1800
G92 E0
G1 X197.529 Y163.285 F4200
G1 E2 F1800
G1 F720
G1 X199.328 Y163.695 E2.03485
G1 X203.019 Y163.695 E2.10456
G1 X203.962 Y163.588 E2.12248
G1 X204.758 Y163.203 E2.13918
G1 X204.887 Y163.306 E2.1423
G1 X206.687 Y163.716 E2.17716
G1 X209.242 Y163.716 E2.22541
G1 X210.185 Y163.609 E2.24333
G1 X211.625 Y162.913 E2.27353
G1 X211.625 Y164.503 E2.30356
G1 X188.375 Y164.503 E2.74265
G1 X188.375 Y162.83 E2.77425
G1 X188.947 Y163.285 E2.78805
G1 X190.746 Y163.695 E2.8229
G1 X194.437 Y163.695 E2.89261
G1 X195.38 Y163.588 E2.91053
G1 X196.953 Y162.827 E2.94353
G1 X197.484 Y163.25 E2.95635
G1 E.95635 F1800
G92 E0
G1 X210.599 Y164.333 F4200
G1 E2 F1800
G1 F720
G1 X210.599 Y163.787 E2.01031
G1 X210.281 Y163.941 E2.01698
G1 X209.842 Y163.991 E2.02532
G1 X209.842 Y164.163 E2.02857
G1 X209.085 Y164.163 E2.04287
G1 X209.085 Y164.057 E2.04487
G1 X208.328 Y164.057 E2.05917
G1 X208.328 Y164.163 E2.06117
G1 X207.571 Y164.163 E2.07547
G1 X207.571 Y164.057 E2.07747
G1 X206.814 Y164.057 E2.09177
G1 X206.814 Y164.163 E2.09377
G1 X206.057 Y164.163 E2.10807
G1 X206.057 Y163.922 E2.11262
G1 X205.3 Y163.749 E2.12728
G1 X205.3 Y164.163 E2.1351
G1 X204.542 Y164.163 E2.14942
G1 X204.542 Y163.686 E2.15843
G1 X204.058 Y163.92 E2.16858
G1 X203.785 Y163.951 E2.17377
G1 X203.785 Y164.163 E2.17777
G1 X203.028 Y164.163 E2.19207
G1 X203.028 Y164.036 E2.19447
G1 X202.271 Y164.036 E2.20877
G1 X202.271 Y164.163 E2.21117
G1 X201.514 Y164.163 E2.22547
G1 X201.514 Y164.036 E2.22787
G1 X200.757 Y164.036 E2.24217
G1 X200.757 Y164.163 E2.24457
G1 X200 Y164.163 E2.25887
G1 X200 Y164.036 E2.26127
G1 X199.243 Y164.025 E2.27557
G1 X199.243 Y164.163 E2.27818
G1 X198.486 Y164.163 E2.29248
G1 X198.486 Y163.853 E2.29833
G1 X197.729 Y163.68 E2.31299
G1 X197.729 Y164.163 E2.32211
G1 X196.972 Y164.163 E2.33641
G1 X196.972 Y163.277 E2.35314
G1 X196.909 Y163.227 E2.35466
G1 X196.215 Y163.563 E2.36922
G1 X196.215 Y164.163 E2.38055
G1 X195.458 Y164.163 E2.39485
G1 X195.458 Y163.922 E2.3994
G1 X194.7 Y164.008 E2.41381
G1 X194.7 Y164.163 E2.41674
G1 X193.943 Y164.163 E2.43104
G1 X193.943 Y164.036 E2.43344
G1 X193.186 Y164.036 E2.44774
G1 X193.186 Y164.163 E2.45014
G1 X192.429 Y164.163 E2.46444
G1 X192.429 Y164.036 E2.46684
G1 X191.672 Y164.036 E2.48114
G1 X191.672 Y164.163 E2.48354
G1 X190.915 Y164.163 E2.49784
G1 X190.915 Y164.036 E2.50024
G1 X190.708 Y164.036 E2.50415
G1 X190.158 Y163.911 E2.5148
G1 X190.158 Y164.163 E2.51956
G1 X189.401 Y164.163 E2.53386
G1 X189.401 Y163.564 E2.54517
G1 E.54517 F1800
G92 E0
G1 X194.112 Y145.579 F4200
G1 E2 F1800
;TYPE:Solid infill
;WIDTH:0.407937
G1 F288
G1 X193.5 Y144.968 E2.01667
G1 X192.954 Y144.968 E2.0272
G1 X193.942 Y145.956 E2.05414
G1 X193.942 Y146.502 E2.06467
G1 X192.407 Y144.968 E2.10651
G1 X191.861 Y144.968 E2.11704
G1 X193.942 Y147.049 E2.17378
G1 X193.942 Y147.595 E2.18431
G1 X191.314 Y144.968 E2.25596
G1 X191.253 Y144.968 E2.25714
G1 X191.253 Y145.453 E2.26649
G1 X193.942 Y148.142 E2.33981
G1 X193.942 Y148.688 E2.35034
G1 X191.253 Y145.999 E2.42366
G1 X191.253 Y146.546 E2.43421
G1 X193.942 Y149.235 E2.50753
G1 X193.942 Y149.782 E2.51808
G1 X191.253 Y147.093 E2.5914
G1 X191.253 Y147.639 E2.60193
G1 X193.942 Y150.328 E2.67525
G1 X193.942 Y150.875 E2.6858
G1 X191.253 Y148.186 E2.75912
G1 X191.253 Y148.732 E2.76965
