; generated by CreatWare 7.0.0 on 2022-06-25 at 05:36:11 UTC

; 

; external perimeters extrusion width = 0.40mm
; perimeters extrusion width = 0.40mm
; infill extrusion width = 0.40mm
; solid infill extrusion width = 0.40mm
; top infill extrusion width = 0.40mm

G21 ; set units to millimeters
G90 ; use absolute coordinates
M82 ; use absolute distances for extrusion
G92 E0
M107
M190 S45 ; set bed temperature and wait for it to be reached
M104 S210 ; set temperature
;TYPE:Custom
M109 S210 ; set temperature and wait for it to be reached
M6013 S0 ; set chamber temp

G28 X0 Y0  ;move X/Y to min endstops
G28 Z0     ;move Z to min endstops

;Add Clear Nozzle
G92 E0                   ;zero the extruded length again
G0 F4200 X0 Y0
G0 F400 X10 Z0.4         ;move a bit while down the Z
M221 T0 S300             ;set flow is 300%
G1 F200 X30 E8          ;extrude amont filament to clean the hotend
M221 T0 S100             ;reset flow is 100%
G92 E0                   ;zero the extruded length again
;Add End

G0 Z15.0 F4200 ;move the platform down 15mm

;Put printing message on LCD screen
M117 Printing...
; Filament gcode
M107
;LAYER_CHANGE
;Layer 1
;Z:0.2
;HEIGHT:0.2
;BEFORE_LAYER_CHANGE
;0.2


G1 Z.2 F4200
;AFTER_LAYER_CHANGE
;G92 E0   ;zero the extruded length again
;0.2
G1 E-2 F1800
G92 E0
G1 X182.879 Y142.198 F4200
G1 E2 F1800
;TYPE:Skirt/Brim
;WIDTH:0.4
G1 F1260
G1 X185.222 Y139.855 E2.11806
G1 X187.066 Y138.572 E2.1981
G1 X189.108 Y138.022 E2.27345
G1 X194.917 Y137.493 E2.48128
G1 X210.283 Y137.493 E3.02876
G1 X212.494 Y137.89 E3.1088
G1 X214.778 Y139.355 E3.20548
G1 X217.121 Y141.698 E3.32354
G1 X218.404 Y143.542 E3.40358
G1 X218.983 Y146.193 E3.50026
G1 X218.983 Y153.807 E3.77154
G1 X218.586 Y156.018 E3.85158
G1 X217.121 Y158.302 E3.94826
G1 X214.778 Y160.645 E4.06632
G1 X212.934 Y161.928 E4.14636
G1 X210.283 Y162.507 E4.24304
G1 X200.069 Y162.507 E4.60696
G1 X189.166 Y161.583 E4.99682
G1 X186.998 Y160.996 E5.07685
G1 X185.222 Y159.745 E5.15425
G1 X182.879 Y157.402 E5.27231
G1 X181.596 Y155.558 E5.35235
G1 X181.017 Y152.907 E5.44903
G1 X181.017 Y146.693 E5.67043
G1 X181.414 Y144.482 E5.75047
G1 X182.846 Y142.249 E5.84499
G1 E3.84499 F1800
G92 E0
G1 X188.12 Y146.503 F4200
G1 E2 F1800
G1 F1260
G1 X189.527 Y145.096 E2.0709
G1 X190.015 Y144.83 E2.0907
G1 X190.404 Y144.743 E2.1049
G1 X194.587 Y144.743 E2.25394
G1 X194.878 Y144.489 E2.2677
G1 X195.228 Y144.324 E2.28149
G1 X195.603 Y144.243 E2.29516
G1 X209.634 Y144.247 E2.79508
G1 X209.987 Y144.331 E2.80801
G1 X210.473 Y144.596 E2.82773
G1 X211.88 Y146.003 E2.89863
G1 X212.146 Y146.492 E2.91846
G1 X212.233 Y146.88 E2.93263
G1 X212.233 Y153.118 E3.15489
G1 X212.196 Y153.36 E3.16361
G1 X211.88 Y153.997 E3.18895
G1 X210.473 Y155.404 E3.25985
G1 X209.985 Y155.67 E3.27965
G1 X209.596 Y155.757 E3.29385
G1 X200.756 Y155.757 E3.60882
G1 X200.369 Y155.671 E3.62294
G1 X199.97 Y155.469 E3.63887
G1 X199.332 Y154.857 E3.67037
G1 X190.282 Y154.843 E3.99282
G1 X190.014 Y154.77 E4.00272
G1 X189.527 Y154.504 E4.02249
G1 X188.12 Y153.097 E4.09339
G1 X187.854 Y152.608 E4.11322
G1 X187.767 Y152.22 E4.12739
G1 X187.767 Y147.382 E4.29977
G1 X187.804 Y147.14 E4.30849
G1 X188.093 Y146.557 E4.33167
G1 X188.393 Y146.735 F4200
G1 F1260
G1 X189.759 Y145.368 E4.40052
G1 X190.159 Y145.157 E4.41663
G1 X190.422 Y145.1 E4.42622
G1 X194.728 Y145.1 E4.57964
G1 X195.057 Y144.8 E4.5955
G1 X195.361 Y144.656 E4.60749
G1 X195.622 Y144.6 E4.617
G1 X209.613 Y144.604 E5.11549
G1 X209.842 Y144.658 E5.12387
G1 X210.241 Y144.868 E5.13993
G1 X211.608 Y146.236 E5.20884
G1 X211.819 Y146.635 E5.22492
G1 X211.876 Y146.899 E5.23454
G1 X211.876 Y153.103 E5.45559
G1 X211.848 Y153.276 E5.46183
G1 X211.607 Y153.765 E5.48125
G1 X210.241 Y155.132 E5.5501
G1 X209.841 Y155.343 E5.56621
G1 X209.578 Y155.4 E5.5758
G1 X200.775 Y155.4 E5.88945
G1 X200.51 Y155.342 E5.89912
G1 X200.156 Y155.163 E5.91325
G1 X199.479 Y154.5 E5.94701
G1 X190.348 Y154.492 E6.27234
G1 X190.16 Y154.443 E6.27926
G1 X189.759 Y154.232 E6.2954
G1 X188.392 Y152.864 E6.36431
G1 X188.181 Y152.465 E6.38039
G1 X188.124 Y152.201 E6.39001
G1 X188.124 Y147.397 E6.56117
G1 X188.152 Y147.224 E6.56741
G1 X188.366 Y146.789 E6.58468
G1 X188.667 Y146.966 F4200
G1 F1260
G1 X189.991 Y145.642 E6.65139
G1 X190.297 Y145.487 E6.66361
G1 X190.44 Y145.457 E6.66882
G1 X194.873 Y145.457 E6.82677
G1 X195.237 Y145.109 E6.84471
G1 X195.495 Y144.988 E6.85486
G1 X195.64 Y144.957 E6.86014
G1 X209.593 Y144.961 E7.35728
G1 X209.701 Y144.986 E7.36123
G1 X210.009 Y145.142 E7.37353
G1 X211.334 Y146.467 E7.44029
G1 X211.489 Y146.773 E7.45251
G1 X211.519 Y146.916 E7.45772
G1 X211.519 Y153.087 E7.67759
G1 X211.501 Y153.189 E7.68128
G1 X211.333 Y153.534 E7.69495
G1 X210.009 Y154.858 E7.76166
G1 X209.703 Y155.013 E7.77388
G1 X209.56 Y155.043 E7.77909
G1 X200.793 Y155.043 E8.09145
G1 X200.649 Y155.013 E8.09669
G1 X200.343 Y154.858 E8.10891
G1 X199.628 Y154.143 E8.14494
G1 X190.407 Y154.139 E8.47348
G1 X190.299 Y154.114 E8.47743
G1 X189.991 Y153.958 E8.48973
G1 X188.666 Y152.633 E8.55649
G1 X188.511 Y152.327 E8.56871
G1 X188.481 Y152.184 E8.57392
G1 X188.481 Y147.413 E8.74391
G1 X188.499 Y147.311 E8.7476
G1 X188.641 Y147.02 E8.75914
G1 X188.942 Y147.196 F4200
G1 F1260
G1 X190.22 Y145.918 E8.82354
G1 X190.427 Y145.82 E8.8317
G1 X195.023 Y145.814 E8.99545
G1 X195.42 Y145.418 E9.01543
G1 X195.657 Y145.314 E9.02465
G1 X209.573 Y145.32 E9.52047
G1 X209.78 Y145.418 E9.52863
G1 X211.058 Y146.696 E9.59303
G1 X211.156 Y146.903 E9.60119
G1 X211.156 Y153.097 E9.82188
G1 X211.058 Y153.304 E9.83004
G1 X209.78 Y154.582 E9.89444
G1 X209.543 Y154.686 E9.90366
G1 X200.809 Y154.686 E10.21485
G1 X200.572 Y154.582 E10.22407
G1 X199.776 Y153.786 E10.26418
G1 X190.427 Y153.78 E10.59728
G1 X190.22 Y153.682 E10.60544
G1 X188.942 Y152.404 E10.66984
G1 X188.844 Y152.197 E10.678
G1 X188.838 Y147.433 E10.84774
G1 X188.916 Y147.25 E10.85483
G1 X189.222 Y147.42 F4200
G1 F1260
G1 X190.444 Y146.199 E10.91638
G1 X190.51 Y146.171 E10.91893
G1 X195.171 Y146.171 E11.085
G1 X195.644 Y145.699 E11.10881
G1 X195.71 Y145.671 E11.11136
G1 X209.49 Y145.671 E11.60234
G1 X209.556 Y145.699 E11.60489
G1 X210.778 Y146.92 E11.66644
G1 X210.805 Y146.986 E11.66898
G1 X210.805 Y153.014 E11.88375
G1 X210.778 Y153.08 E11.88629
G1 X209.556 Y154.301 E11.94784
G1 X209.49 Y154.329 E11.95039
G1 X200.862 Y154.329 E12.2578
G1 X200.797 Y154.301 E12.26032
G1 X199.924 Y153.429 E12.30428
G1 X190.51 Y153.429 E12.6397
G1 X190.444 Y153.401 E12.64225
G1 X189.222 Y152.18 E12.7038
G1 X189.195 Y152.114 E12.70634
G1 X189.199 Y147.476 E12.87159
G1 E10.87159 F1800
G92 E0
G1 X191.574 Y148.55 F4200
G1 E2 F1800
;TYPE:External perimeter
G1 F504
G1 X194.374 Y148.55 E2.09976
G1 X194.374 Y149.3 E2.12648
G1 X196.774 Y149.3 E2.21199
G1 X196.774 Y148.05 E2.25653
G1 X208.426 Y148.05 E2.67169
G1 X208.426 Y151.95 E2.81065
G1 X201.926 Y151.95 E3.04224
G1 X201.926 Y151.05 E3.07431
G1 X193.419 Y151.05 E3.37741
G1 X193.369 Y150.905 E3.38287
G1 X193.506 Y150.799 E3.38904
G1 X193.672 Y150.583 E3.39875
G1 X193.776 Y150.332 E3.40843
G1 X193.812 Y150.062 E3.41814
G1 X193.776 Y149.792 E3.42785
G1 X193.672 Y149.54 E3.43756
G1 X193.506 Y149.324 E3.44727
G1 X193.29 Y149.158 E3.45698
G1 X193.039 Y149.054 E3.46666
G1 X192.769 Y149.018 E3.47637
G1 X192.521 Y149.051 E3.48528
G1 X192.249 Y149.157 E3.49568
G1 X192.031 Y149.324 E3.50546
G1 X191.865 Y149.54 E3.51517
G1 X191.746 Y149.827 E3.52624
G1 X191.574 Y149.793 E3.53249
G1 X191.574 Y148.61 E3.57464
G1 X191.929 Y148.734 F4200
G1 E1.57464 F1800
G92 E0
G1 X191.767 Y148.793 F4200
G1 X194.039 Y148.841
G1 X194.105 Y149.568
G1 X194.842 Y149.636
G1 X197.109 Y149.636
G1 X206.919 Y148.295
G1 X207.243 Y148.34
G1 X207.214 Y148.552
G1 E2 F1800
;TYPE:Inner perimeter
G1 F270
G1 X207.263 Y148.407 E2.00545
G1 X208.069 Y148.407 E2.03417
G1 X208.069 Y149.521 E2.07386
G1 X207.869 Y149.534 E2.081
G1 X207.845 Y149.352 E2.08754
G1 X207.719 Y149.047 E2.0993
G1 X207.518 Y148.786 E2.11104
G1 X207.261 Y148.589 E2.12258
G1 E.12258 F1800
G92 E0
G1 X207.228 Y148.661 F4200
G1 X207.217 Y148.655
G1 X207.152 Y148.63
G1 X206.923 Y148.571
G1 X206.859 Y148.563
G1 X206.626 Y148.544
G1 X206.329 Y148.571
G1 X206.035 Y148.655
G1 X205.751 Y148.803
G1 X205.703 Y148.862
G1 X205.552 Y149.058
G1 X205.428 Y149.357
G1 X205.386 Y149.678
G1 X205.392 Y149.723
G1 X205.724 Y149.679
G1 E2 F1800
;TYPE:External perimeter
G1 F270
G1 X205.755 Y149.445 E2.00841
G1 X205.845 Y149.228 E2.01678
G1 X205.988 Y149.041 E2.02517
G1 X206.175 Y148.897 E2.03358
G1 X206.393 Y148.807 E2.04198
G1 X206.619 Y148.778 E2.0501
G1 X206.859 Y148.807 E2.05871
G1 X207.077 Y148.897 E2.06711
G1 X207.264 Y149.041 E2.07552
G1 X207.407 Y149.228 E2.08391
G1 X207.497 Y149.445 E2.09228
G1 X207.528 Y149.678 E2.10065
G1 X207.497 Y149.912 E2.10906
G1 X207.41 Y150.123 E2.11719
G1 X207.264 Y150.315 E2.12578
G1 X207.077 Y150.459 E2.13419
G1 X206.866 Y150.547 E2.14234
G1 X206.627 Y150.58 E2.15094
G1 X206.393 Y150.549 E2.15935
G1 X206.175 Y150.459 E2.16775
G1 X205.988 Y150.316 E2.17614
G1 X205.845 Y150.129 E2.18453
G1 X205.758 Y149.918 E2.19266
G1 X205.732 Y149.739 E2.1991
G1 X205.52 Y149.561 F4200
G1 X205.364 Y149.681
;TYPE:Inner perimeter
G1 F270
G1 X205.41 Y150.013 E2.21104
G1 X205.533 Y150.309 E2.22246
G1 X205.734 Y150.571 E2.23423
G1 X205.995 Y150.771 E2.24595
G1 X206.299 Y150.897 E2.25767
G1 X206.628 Y150.941 E2.2695
G1 X206.96 Y150.894 E2.28145
G1 X207.257 Y150.771 E2.2929
G1 X207.52 Y150.569 E2.30472
G1 X207.722 Y150.302 E2.31665
G1 X207.845 Y150.005 E2.3281
G1 X207.869 Y149.822 E2.33468
G1 X208.069 Y149.835 E2.34182
G1 X208.069 Y151.593 E2.40446
G1 X202.283 Y151.593 E2.61061
G1 X202.283 Y150.693 E2.64268
G1 X194.013 Y150.693 E2.93734
G1 X194.124 Y150.425 E2.94768
G1 X194.172 Y150.062 E2.96073
G1 X194.119 Y149.657 E2.97528
G1 X197.131 Y149.657 E3.0826
G1 X197.131 Y148.407 E3.12714
G1 X205.989 Y148.407 E3.44275
G1 X206.038 Y148.552 E3.4482
G1 X205.734 Y148.786 E3.46187
G1 X205.533 Y149.047 E3.47361
G1 X205.407 Y149.352 E3.48537
G1 X205.372 Y149.621 E3.49504
G1 E1.49504 F1800
G92 E0
G1 X205.393 Y149.624 F4200
G1 X197.109 Y149.636
G1 X194.842 Y149.636
G1 X194.105 Y149.568
G1 X194.068 Y149.159
G1 X194.017 Y149.163
G1 E2 F1800
G1 F270
G1 X193.871 Y149.213 E2.0055
G1 X193.637 Y148.907 E2.01923
G1 X194.017 Y148.907 E2.03277
G1 X194.017 Y149.103 E2.03975
G1 E.03975 F1800
G92 E0
G1 X193.812 Y149.311 F4200
G1 X193.667 Y149.164
G1 X193.37 Y149.02
G1 X193.069 Y148.941
G1 X192.769 Y148.916
G1 X192.53 Y148.935
G1 X192.469 Y148.941
G1 X192.232 Y148.998
G1 X192.17 Y149.024
G1 X191.984 Y149.277
G1 X191.866 Y149.54
G1 X191.803 Y149.803
G1 X191.783 Y150.062
G1 X191.799 Y150.28
G1 X191.8 Y150.291
G1 X191.746 Y150.296
G1 E2 F1800
;TYPE:External perimeter
G1 F270
G1 X191.865 Y150.583 E2.01107
G1 X192.031 Y150.799 E2.02078
G1 X192.168 Y150.905 E2.02695
G1 X192.119 Y151.05 E2.0324
G1 X191.574 Y151.05 E2.05182
G1 X191.574 Y150.33 E2.07747
G1 X191.687 Y150.308 E2.08157
G1 X191.804 Y150.602 F4200
G1 E.08157 F1800
G92 E0
G1 X191.8 Y150.297 F4200
G1 X191.803 Y150.32
G1 X191.852 Y150.538
G1 X191.866 Y150.583
G1 X192.026 Y150.745
G1 X192.058 Y150.773
G1 X192.3 Y150.874
G1 X192.39 Y150.894
G1 X192.403 Y150.835
G1 E2 F1800
;WIDTH:0.374867
G1 F504
G1 X192.464 Y150.948 E2.00425
;WIDTH:0.374866
G1 X192.525 Y151.061 E2.0085
G1 X192.768 Y151.075 E2.01656
G1 X193.012 Y151.061 E2.02465
G1 X193.134 Y150.835 E2.03316
G1 E.03316 F1800
G92 E0
G1 X193.147 Y150.896 F4200
G1 X193.206 Y150.883
G1 X193.238 Y150.874
G1 X193.443 Y150.793
G1 X193.48 Y150.773
G1 X193.677 Y150.646
G1 X193.716 Y150.609
G1 X193.89 Y150.429
G1 X194.123 Y150.062
G1 X194.055 Y149.717
G1 X193.939 Y149.48
G1 X193.918 Y149.432
G1 X193.879 Y149.449
G1 E2 F1800
;TYPE:Gap fill
;WIDTH:0.137319
G1 F360
G1 X193.915 Y149.434 E2.00037
;WIDTH:0.165832
G1 X194.055 Y149.411 E2.00211
;WIDTH:0.199144
G1 X194.195 Y149.388 E2.00432
G1 E.00432 F1800
G92 E0
G1 X193.375 Y148.859 F4200
G1 E2 F1800
;WIDTH:0.243906
G1 F360
G1 X193.115 Y148.807 E2.00532
;WIDTH:0.2003
G1 X193.095 Y148.805 E2.00564
;WIDTH:0.194961
G1 X192.776 Y148.784 E2.01049
;WIDTH:0.153095
G1 X192.762 Y148.784 E2.01064
;WIDTH:0.191728
G1 X192.467 Y148.803 E2.01503
;WIDTH:0.1963
G1 X192.449 Y148.805 E2.01531
;WIDTH:0.238686
G1 X192.336 Y148.826 E2.01756
;WIDTH:0.281072
G1 X192.223 Y148.848 E2.0203
;WIDTH:0.323458
G1 X192.11 Y148.869 E2.02352
;WIDTH:0.345164
G1 X191.752 Y148.963 E2.03468
G1 X192.01 Y148.729 F4200
;WIDTH:0.231107
G1 F360
G1 X191.755 Y149.341 E2.04713
G1 E.04713 F1800
G92 E0
G1 X191.621 Y149.31 F4200
G1 X191.659 Y150.99
G1 X194.096 Y150.913
G1 X194.587 Y150.718
G1 X194.904 Y150.715
G1 X194.903 Y150.586
G1 E2 F1800
;TYPE:Solid infill
;WIDTH:0.407891
G1 F576
G1 X194.435 Y150.118 E2.0241
G1 X194.424 Y149.925 E2.03114
G1 X194.758 Y149.925 E2.0433
G1 X195.259 Y150.425 E2.06908
G1 X195.775 Y150.425 E2.08787
G1 X195.275 Y149.925 E2.11362
G1 X195.791 Y149.925 E2.13241
G1 X196.291 Y150.425 E2.15816
G1 X196.807 Y150.425 E2.17695
G1 X196.307 Y149.925 E2.2027
G1 X196.823 Y149.925 E2.22149
G1 X197.323 Y150.425 E2.24724
G1 X197.839 Y150.425 E2.26603
G1 X197.339 Y149.925 E2.29178
G1 X197.399 Y149.925 E2.29397
G1 X197.399 Y149.468 E2.31061
G1 X198.356 Y150.425 E2.3599
G1 X198.872 Y150.425 E2.37869
G1 X197.399 Y148.952 E2.45455
G1 X197.399 Y148.675 E2.46464
G1 X197.638 Y148.675 E2.47334
G1 X199.388 Y150.425 E2.56347
G1 X199.904 Y150.425 E2.58226
G1 X198.154 Y148.675 E2.67239
G1 X198.67 Y148.675 E2.69118
G1 X200.42 Y150.425 E2.78131
G1 X200.936 Y150.425 E2.8001
G1 X199.186 Y148.675 E2.89023
G1 X199.702 Y148.675 E2.90902
G1 X201.452 Y150.425 E2.99915
G1 X201.969 Y150.425 E3.01798
G1 X200.218 Y148.675 E3.10813
G1 X200.734 Y148.675 E3.12692
G1 X203.385 Y151.325 E3.26342
G1 X203.901 Y151.325 E3.28221
G1 X201.251 Y148.675 E3.41869
G1 X201.767 Y148.675 E3.43748
G1 X204.417 Y151.325 E3.57396
G1 X204.933 Y151.325 E3.59275
G1 X202.283 Y148.675 E3.72923
G1 X202.799 Y148.675 E3.74802
G1 X205.449 Y151.325 E3.8845
G1 X205.679 Y151.325 E3.89288
G1 X205.726 Y151.086 E3.90175
G1 X203.315 Y148.675 E4.02592
G1 X203.831 Y148.675 E4.04471
G1 X205.135 Y149.979 E4.11187
G1 X205.094 Y149.682 E4.12279
G1 X205.124 Y149.451 E4.13127
G1 X204.347 Y148.675 E4.17126
G1 X204.864 Y148.675 E4.19009
G1 X205.364 Y149.175 E4.21584
G1 X205.457 Y148.819 F4200
;TYPE:Gap fill
;WIDTH:0.1403
G1 F360
G1 X205.564 Y148.634 E4.21792
;WIDTH:0.1403
G1 X205.57 Y148.631 E4.21799
;WIDTH:0.133858
G1 X205.652 Y148.597 E4.2188
G1 X206.189 Y148.44 F4200
;WIDTH:0.439995
G1 F360
G1 X206.641 Y148.414 E4.23674
G1 X207.064 Y148.44 E4.25353
G1 X207.6 Y148.597 F4200
;WIDTH:0.133856
G1 F360
G1 X207.891 Y148.718 E4.25639
G1 E2.25639 F1800
G92 E0
G1 X207.874 Y150.423 F4200
G1 E2 F1800
;WIDTH:0.120787
G1 F360
G1 X207.852 Y150.491 E2.00056
;WIDTH:0.120787
G1 X207.757 Y150.587 E2.00161
G1 E.00161 F1800
G92 E0
G1 X207.962 Y151.465 F4200
G1 E2 F1800
;TYPE:Solid infill
;WIDTH:0.471415
G1 F576
G1 X207.34 Y150.843 E2.03761
G1 X207.274 Y151.195 F4200
;TYPE:Gap fill
;WIDTH:0.409764
G1 F360
G1 X207.032 Y151.24 E2.04662
;WIDTH:0.391278
G1 X206.841 Y151.254 E2.05328
;WIDTH:0.364615
G1 X206.65 Y151.267 E2.05943
;WIDTH:0.33795
G1 X206.61 Y151.267 E2.06061
;WIDTH:0.387536
G1 X206.23 Y151.242 E2.0737
G1 X205.978 Y151.195 E2.08251
G1 E.08251 F1800
G92 E0
G1 X203.029 Y151.486 F4200
G1 E2 F1800
;TYPE:Solid infill
;WIDTH:0.407891
G1 F576
G1 X202.39 Y150.847 E2.03291
;LAYER_CHANGE
;Layer 2
;Z:0.22
;HEIGHT:0.02
;BEFORE_LAYER_CHANGE
;0.22


G1 Z.22 F4200
;AFTER_LAYER_CHANGE
;G92 E0   ;zero the extruded length again
;0.22
G1 X201.926 Y151.05
;TYPE:External perimeter
;WIDTH:0.4
G1 F1680
G1 X193.276 Y151.05 E2.06137
G1 X193.221 Y150.889 E2.06193
G1 X193.433 Y150.726 E2.06281
G1 X193.583 Y150.532 E2.06362
G1 X193.677 Y150.305 E2.06443
G1 X193.709 Y150.062 E2.06524
G1 X193.677 Y149.818 E2.06605
G1 X193.583 Y149.592 E2.06686
G1 X193.433 Y149.397 E2.06767
G1 X193.239 Y149.248 E2.06847
G1 X193.012 Y149.154 E2.06928
G1 X192.769 Y149.122 E2.07009
G1 X192.574 Y149.148 E2.07074
G1 X192.303 Y149.245 E2.07169
G1 X192.104 Y149.397 E2.07251
G1 X191.955 Y149.592 E2.07332
G1 X191.861 Y149.818 E2.07413
G1 X191.829 Y150.062 E2.07494
G1 X191.861 Y150.305 E2.07575
