; generated by CreatWare 7.0.0 on 2022-06-29 at 22:36:34 UTC

; 

; external perimeters extrusion width = 0.40mm
; perimeters extrusion width = 0.40mm
; infill extrusion width = 0.40mm
; solid infill extrusion width = 0.40mm
; top infill extrusion width = 0.40mm
; support material extrusion width = 0.40mm

G21 ; set units to millimeters
G90 ; use absolute coordinates
M82 ; use absolute distances for extrusion
G92 E0
M107
M190 S45 ; set bed temperature and wait for it to be reached
M104 S210 ; set temperature
;TYPE:Custom
M109 S210 ; set temperature and wait for it to be reached
M6013 S0 ; set chamber temp

G28 X0 Y0  ;move X/Y to min endstops
G28 Z0     ;move Z to min endstops

;Add Clear Nozzle
G92 E0                   ;zero the extruded length again
G0 F4200 X0 Y0
G0 F400 X10 Z0.4         ;move a bit while down the Z
M221 T0 S300             ;set flow is 300%
G1 F200 X30 E8          ;extrude amont filament to clean the hotend
M221 T0 S100             ;reset flow is 100%
G92 E0                   ;zero the extruded length again
;Add End

G0 Z15.0 F4200 ;move the platform down 15mm

;Put printing message on LCD screen
M117 Printing...
; Filament gcode
M107
;LAYER_CHANGE
;Layer 1
;Z:0.1
;HEIGHT:0.1
;BEFORE_LAYER_CHANGE
;0.1


G1 Z.1 F4200
;AFTER_LAYER_CHANGE
;G92 E0   ;zero the extruded length again
;0.1
G1 E-2 F1800
G92 E0
G1 X180.797 Y133.786 F4200
G1 E2 F1800
;TYPE:Skirt/Brim
;WIDTH:0.4
G1 F720
G1 X182.755 Y132.39 E2.04541
G1 X184.246 Y131.916 E2.07496
G1 X187.892 Y131.277 E2.14487
G1 X203.337 Y130.211 E2.43725
G1 X211.63 Y130.211 E2.59387
G1 X213.845 Y130.608 E2.63637
G1 X216.141 Y132.079 E2.68787
G1 X218.484 Y134.422 E2.75045
G1 X219.769 Y136.269 E2.79294
G1 X220.352 Y138.906 E2.84394
G1 X220.384 Y161.06 E3.26233
G1 X219.987 Y163.275 E3.30483
G1 X218.516 Y165.57 E3.35631
G1 X216.173 Y167.913 E3.41889
G1 X214.326 Y169.199 E3.46139
G1 X211.665 Y169.782 E3.51284
G1 X188.341 Y169.79 E3.95332
G1 X185.278 Y169.008 E4.01302
G1 X182.357 Y167.41 E4.0759
G1 X180.908 Y166.324 E4.1101
G1 X179.512 Y164.367 E4.1555
G1 X178.929 Y161.703 E4.207
G1 X178.929 Y138.297 E4.64903
G1 X179.326 Y136.082 E4.69153
G1 X180.765 Y133.837 E4.74189
G1 E2.74189 F1800
G92 E0
G1 X186.684 Y139.713 F4200
G1 E2 F1800
G1 F720
G1 X188.131 Y138.278 E2.03849
G1 X188.423 Y138.103 E2.04492
G1 X188.989 Y137.937 E2.05606
G1 X202.41 Y137.937 E2.30952
G1 X203.182 Y137.191 E2.32979
G1 X203.603 Y136.978 E2.3387
G1 X203.932 Y136.895 E2.34511
G1 X211.081 Y136.901 E2.48012
G1 X211.365 Y136.978 E2.48568
G1 X211.882 Y137.26 E2.4968
G1 X213.284 Y138.663 E2.53426
G1 X213.51 Y139.019 E2.54222
G1 X213.677 Y139.585 E2.55336
G1 X213.673 Y145.18 E2.65902
G1 X213.585 Y145.553 E2.66626
G1 X213.371 Y145.976 E2.67521
G1 X213.105 Y146.272 E2.68273
G1 X213.367 Y146.546 E2.68989
G1 X213.503 Y146.757 E2.69463
G1 X213.709 Y147.408 E2.70753
G1 X213.709 Y160.408 E2.95304
G1 X213.543 Y160.974 E2.96418
G1 X213.316 Y161.33 E2.97215
G1 X211.869 Y162.765 E3.01064
G1 X211.578 Y162.94 E3.01705
G1 X211.011 Y163.107 E3.02821
G1 X188.991 Y163.115 E3.44407
G1 X188.425 Y162.948 E3.45521
G1 X188.068 Y162.722 E3.46319
G1 X186.665 Y161.319 E3.50066
G1 X186.383 Y160.801 E3.5118
G1 X186.291 Y160.39 E3.51975
G1 X186.291 Y154.775 E3.62579
G1 X186.377 Y154.377 E3.63348
G1 X186.606 Y153.891 E3.64363
G1 X186.483 Y153.686 E3.64814
G1 X186.291 Y153.067 E3.66038
G1 X186.291 Y147.425 E3.76693
G1 X186.381 Y147.015 E3.77486
G1 X186.597 Y146.589 E3.78388
G1 X186.875 Y146.282 E3.7917
G1 X186.634 Y146.028 E3.79831
G1 X186.477 Y145.774 E3.80395
G1 X186.291 Y145.166 E3.81596
G1 X186.291 Y140.635 E3.90153
G1 X186.457 Y140.069 E3.91267
G1 X186.651 Y139.764 E3.9195
G1 X186.965 Y139.967 F4200
G1 F720
G1 X188.35 Y138.587 E3.95642
G1 X188.56 Y138.457 E3.96108
G1 X189.019 Y138.315 E3.97015
G1 X202.565 Y138.315 E4.22597
G1 X203.379 Y137.515 E4.24752
G1 X203.756 Y137.325 E4.25549
G1 X203.956 Y137.273 E4.25939
G1 X211.012 Y137.273 E4.39265
G1 X211.21 Y137.324 E4.39651
G1 X211.635 Y137.549 E4.40559
G1 X213.003 Y138.916 E4.44211
G1 X213.157 Y139.157 E4.44751
G1 X213.298 Y139.614 E4.45654
G1 X213.295 Y145.158 E4.56124
G1 X213.237 Y145.402 E4.56598
G1 X213.047 Y145.777 E4.57392
G1 X212.568 Y146.273 E4.58694
G1 X213.061 Y146.77 E4.60016
G1 X213.172 Y146.942 E4.60403
G1 X213.331 Y147.438 E4.61387
G1 X213.331 Y160.378 E4.85825
G1 X213.189 Y160.836 E4.86731
G1 X213.035 Y161.076 E4.8727
G1 X211.65 Y162.456 E4.90962
G1 X211.44 Y162.586 E4.91428
G1 X210.981 Y162.728 E4.92335
G1 X189.02 Y162.736 E5.33809
G1 X188.562 Y162.595 E5.34714
G1 X188.322 Y162.44 E5.35254
G1 X186.954 Y161.073 E5.38906
G1 X186.73 Y160.649 E5.39812
G1 X186.669 Y160.37 E5.40351
G1 X186.669 Y154.795 E5.5088
G1 X186.728 Y154.518 E5.51415
G1 X186.881 Y154.194 E5.52092
G1 X187.133 Y153.908 E5.52812
G1 X186.947 Y153.713 E5.53321
G1 X186.833 Y153.54 E5.53712
G1 X186.669 Y153.036 E5.54713
G1 X186.669 Y147.445 E5.65272
G1 X186.73 Y147.164 E5.65815
G1 X186.92 Y146.788 E5.66611
G1 X187.412 Y146.28 E5.67947
G1 X186.939 Y145.803 E5.69216
G1 X186.828 Y145.632 E5.69601
G1 X186.669 Y145.136 E5.70585
G1 X186.669 Y140.665 E5.79029
G1 X186.811 Y140.207 E5.79935
G1 X186.933 Y140.018 E5.8036
G1 X187.246 Y140.222 F4200
G1 F720
G1 X188.575 Y138.892 E5.83911
G1 X188.705 Y138.807 E5.84204
G1 X189.051 Y138.694 E5.84891
G1 X202.723 Y138.694 E6.10711
G1 X203.578 Y137.839 E6.12995
G1 X203.905 Y137.674 E6.13687
G1 X204.02 Y137.647 E6.1391
G1 X210.948 Y137.647 E6.26994
G1 X211.063 Y137.674 E6.27217
G1 X211.39 Y137.839 E6.27909
G1 X212.722 Y139.171 E6.31467
G1 X212.806 Y139.3 E6.31758
G1 X212.92 Y139.646 E6.32446
G1 X212.916 Y145.136 E6.42814
G1 X212.889 Y145.251 E6.43037
G1 X212.724 Y145.578 E6.43729
G1 X212.032 Y146.27 E6.45577
G1 X212.776 Y147.02 E6.47572
G1 X212.838 Y147.121 E6.47796
G1 X212.952 Y147.468 E6.48486
G1 X212.952 Y160.347 E6.72809
G1 X212.839 Y160.692 E6.73495
G1 X212.754 Y160.822 E6.73788
G1 X211.425 Y162.151 E6.77337
G1 X211.295 Y162.236 E6.7763
G1 X210.949 Y162.349 E6.78317
G1 X189.052 Y162.357 E7.1967
G1 X188.706 Y162.244 E7.20357
G1 X188.576 Y162.159 E7.2065
G1 X187.244 Y160.827 E7.24208
G1 X187.08 Y160.503 E7.24894
G1 X187.048 Y160.351 E7.25187
G1 X187.048 Y154.814 E7.35644
G1 X187.08 Y154.66 E7.35941
G1 X187.209 Y154.387 E7.36511
G1 X187.671 Y153.905 E7.37772
G1 X187.244 Y153.477 E7.38914
G1 X187.18 Y153.387 E7.39123
G1 X187.048 Y153.003 E7.3989
G1 X187.048 Y147.464 E7.50351
G1 X187.08 Y147.312 E7.50644
G1 X187.244 Y146.988 E7.5133
G1 X187.948 Y146.283 E7.53212
G1 X187.224 Y145.553 E7.55154
G1 X187.162 Y145.453 E7.55376
G1 X187.048 Y145.105 E7.56068
G1 X187.048 Y140.697 E7.64393
G1 X187.161 Y140.351 E7.6508
G1 X187.213 Y140.272 E7.65259
G1 X187.524 Y140.48 F4200
G1 F720
G1 X188.831 Y139.172 E7.68751
G1 X189.086 Y139.072 E7.69268
G1 X202.88 Y139.072 E7.95319
G1 X203.821 Y138.131 E7.97832
G1 X204.072 Y138.022 E7.98349
G1 X210.896 Y138.022 E8.11236
G1 X211.147 Y138.131 E8.11753
G1 X212.441 Y139.426 E8.1521
G1 X212.541 Y139.681 E8.15727
G1 X212.541 Y145.084 E8.25931
G1 X212.431 Y145.335 E8.26449
G1 X211.496 Y146.27 E8.28946
G1 X212.474 Y147.248 E8.31558
G1 X212.574 Y147.504 E8.32077
G1 X212.574 Y160.311 E8.56264
G1 X212.474 Y160.567 E8.56783
G1 X211.169 Y161.871 E8.60267
G1 X210.914 Y161.971 E8.60784
G1 X189.087 Y161.979 E9.02005
G1 X188.832 Y161.879 E9.02522
G1 X187.536 Y160.585 E9.05981
G1 X187.426 Y160.333 E9.065
G1 X187.426 Y154.832 E9.16889
G1 X187.536 Y154.58 E9.17408
G1 X188.209 Y153.907 E9.19205
G1 X187.526 Y153.225 E9.21028
G1 X187.426 Y152.969 E9.21547
G1 X187.426 Y147.482 E9.31909
G1 X187.536 Y147.23 E9.32428
G1 X188.484 Y146.283 E9.34959
G1 X187.526 Y145.325 E9.37518
G1 X187.426 Y145.07 E9.38035
G1 X187.426 Y140.732 E9.46227
G1 X187.497 Y140.534 E9.46624
G1 X187.834 Y140.704 F4200
G1 F720
G1 X189.059 Y139.479 E9.49896
G1 X189.128 Y139.451 E9.50037
G1 X203.037 Y139.451 E9.76305
G1 X204.059 Y138.429 E9.79035
G1 X204.128 Y138.4 E9.79176
G1 X210.84 Y138.4 E9.91852
G1 X210.909 Y138.429 E9.91993
G1 X212.134 Y139.654 E9.95265
G1 X212.163 Y139.723 E9.95406
G1 X212.163 Y145.028 E10.05425
G1 X212.134 Y145.097 E10.05566
G1 X210.961 Y146.27 E10.08699
G1 X212.166 Y147.476 E10.11919
G1 X212.195 Y147.546 E10.12062
G1 X212.195 Y160.269 E10.3609
G1 X212.166 Y160.339 E10.36233
G1 X210.941 Y161.564 E10.39505
G1 X210.872 Y161.592 E10.39646
G1 X189.129 Y161.6 E10.80709
G1 X189.059 Y161.572 E10.80851
G1 X187.834 Y160.347 E10.84123
G1 X187.805 Y160.277 E10.84266
G1 X187.805 Y154.888 E10.94443
G1 X187.834 Y154.818 E10.94586
G1 X188.744 Y153.907 E10.97018
G1 X187.834 Y152.997 E10.99448
G1 X187.805 Y152.927 E10.99591
G1 X187.805 Y147.538 E11.09768
G1 X187.834 Y147.468 E11.09911
G1 X189.02 Y146.283 E11.13077
G1 X187.834 Y145.097 E11.16245
G1 X187.805 Y145.028 E11.16386
G1 X187.811 Y140.76 E11.24446
G1 E9.24446 F1800
G92 E0
G1 X187.352 Y138.375 F4200
G1 E2 F1800
;TYPE:Support material
G1 F720
G1 X186.204 Y139.818 E2.03482
G1 X185.794 Y141.617 E2.06967
G1 X185.794 Y144.173 E2.11794
G1 X185.901 Y145.116 E2.13586
G1 X186.457 Y146.265 E2.15997
G1 X186.204 Y146.582 E2.16763
G1 X185.794 Y148.382 E2.20249
G1 X185.794 Y152.072 E2.27218
G1 X185.901 Y153.015 E2.2901
G1 X186.292 Y153.822 E2.30704
G1 X186.204 Y153.932 E2.3097
G1 X185.794 Y155.731 E2.34455
G1 X185.794 Y159.422 E2.41426
G1 X185.902 Y160.367 E2.43222
G1 X186.511 Y161.625 E2.45862
G1 X185.497 Y161.625 E2.47777
G1 X185.497 Y138.375 E2.91686
G1 X187.296 Y138.375 E2.95083
G1 X186.12 Y139.65 F4200
G1 F720
G1 X186.12 Y138.546 E2.97168
G1 E.97168 F1800
G92 E0
G1 X208.244 Y142.375 F4200
G1 E2 F1800
G1 F720
G1 X207.912 Y142.95 E2.01254
G1 X207.248 Y142.95 E2.02508
G1 X206.916 Y142.375 E2.03762
G1 X207.248 Y141.8 E2.05016
G1 X207.912 Y141.8 E2.0627
G1 X208.215 Y142.326 E2.07416
G1 X207.571 Y142.78 F4200
G1 F720
G1 X207.571 Y141.971 E2.08944
G1 E.08944 F1800
G92 E0
G1 X209.692 Y158.11 F4200
G1 E2 F1800
;TYPE:Solid infill
;WIDTH:0.406314
G1 F288
G1 X209.324 Y157.742 E2.00999
G1 X209.125 Y158.087 E2.01764
G1 X209.522 Y158.483 E2.02841
G1 X209.522 Y158.919 E2.03678
G1 X209.414 Y158.92 E2.03885
G1 X208.926 Y158.432 E2.0521
G1 X208.727 Y158.777 E2.05975
G1 X209.04 Y159.09 E2.06825
G1 E.06825 F1800
G92 E0
G1 X208.914 Y154.61 F4200
G1 E2 F1800
G1 F288
G1 X209.522 Y155.218 E2.01651
G1 X209.522 Y155.762 E2.02696
G1 X208.54 Y154.78 E2.05362
G1 X207.995 Y154.78 E2.06408
G1 X209.522 Y156.306 E2.10553
G1 X209.522 Y156.851 E2.11599
G1 X207.451 Y154.78 E2.17222
G1 X206.907 Y154.78 E2.18267
G1 X207.743 Y155.616 E2.20537
G1 X207.199 Y155.616 E2.21582
G1 X206.363 Y154.78 E2.23852
G1 X205.818 Y154.78 E2.24898
G1 X206.655 Y155.616 E2.27169
G1 X206.49 Y155.616 E2.27486
G1 X206.351 Y155.856 E2.28019
G1 X205.49 Y154.995 E2.30357
G1 X205.49 Y155.54 E2.31403
G1 X206.151 Y156.202 E2.33199
G1 X205.952 Y156.547 E2.33964
G1 X205.49 Y156.084 E2.3522
G1 X205.49 Y156.238 E2.35516
G1 X205.099 Y156.238 E2.36267
G1 X205.753 Y156.892 E2.38043
G1 X205.554 Y157.237 E2.38808
G1 X204.555 Y156.238 E2.41521
G1 X204.011 Y156.238 E2.42566
G1 X205.92 Y158.147 E2.4775
G1 X206.366 Y158.921 E2.49465
G1 X206.149 Y158.921 E2.49882
G1 X203.466 Y156.238 E2.57167
G1 X202.922 Y156.238 E2.58212
G1 X205.605 Y158.921 E2.65497
G1 X205.061 Y158.921 E2.66542
G1 X202.378 Y156.238 E2.73827
G1 X201.834 Y156.238 E2.74872
G1 X204.517 Y158.921 E2.82157
G1 X203.973 Y158.922 E2.83202
G1 X201.289 Y156.238 E2.9049
G1 X200.745 Y156.238 E2.91535
G1 X203.429 Y158.922 E2.98823
G1 X202.885 Y158.922 E2.99868
G1 X200.201 Y156.238 E3.07156
G1 X199.657 Y156.238 E3.08201
G1 X202.341 Y158.922 E3.15489
G1 X201.797 Y158.922 E3.16534
G1 X199.112 Y156.238 E3.23823
G1 X198.568 Y156.238 E3.24868
G1 X201.253 Y158.923 E3.32159
G1 X200.709 Y158.923 E3.33204
G1 X198.024 Y156.238 E3.40495
G1 X197.479 Y156.238 E3.41541
G1 X200.165 Y158.923 E3.48833
G1 X199.621 Y158.923 E3.49878
G1 X196.935 Y156.238 E3.5717
G1 X196.391 Y156.238 E3.58215
G1 X199.077 Y158.923 E3.65507
G1 X198.533 Y158.924 E3.66552
G1 X195.847 Y156.238 E3.73845
G1 X195.302 Y156.238 E3.74891
G1 X197.988 Y158.924 E3.82184
G1 X197.444 Y158.924 E3.83229
G1 X194.758 Y156.238 E3.90522
G1 X194.214 Y156.238 E3.91567
G1 X196.9 Y158.924 E3.9886
G1 X196.356 Y158.924 E3.99905
G1 X193.67 Y156.238 E4.07198
G1 X193.125 Y156.238 E4.08244
G1 X195.812 Y158.925 E4.1554
G1 X195.268 Y158.925 E4.16585
G1 X192.581 Y156.238 E4.23881
G1 X192.037 Y156.238 E4.24926
G1 X194.724 Y158.925 E4.32222
G1 X194.18 Y158.925 E4.33267
G1 X191.493 Y156.238 E4.40563
G1 X190.948 Y156.238 E4.41609
G1 X193.636 Y158.925 E4.48907
G1 X193.092 Y158.926 E4.49952
G1 X190.478 Y156.312 E4.5705
G1 X190.478 Y156.856 E4.58095
G1 X192.548 Y158.926 E4.63716
G1 X192.004 Y158.926 E4.64761
G1 X190.478 Y157.4 E4.68905
G1 X190.478 Y157.945 E4.69951
G1 X191.46 Y158.926 E4.72616
G1 X190.916 Y158.926 E4.73661
G1 X190.308 Y158.319 E4.75311
G1 E2.75311 F1800
G92 E0
G1 X205.206 Y155.954 F4200
G1 E2 F1800
;TYPE:External perimeter
;WIDTH:0.4
G1 F252
G1 X205.206 Y154.496 E2.02753
G1 X209.806 Y154.496 E2.1144
G1 X209.806 Y159.203 E2.20329
G1 X190.194 Y159.211 E2.57367
G1 X190.194 Y155.954 E2.63518
G1 X205.146 Y155.954 E2.91755
G1 E.91755 F1800
G92 E0
G1 X206.653 Y155.9 F4200
G1 E2 F1800
G1 F270
G1 X208.357 Y155.9 E2.03218
G1 X209.208 Y157.375 E2.06434
G1 X208.357 Y158.85 E2.0965
G1 X206.653 Y158.85 E2.12868
G1 X205.802 Y157.375 E2.16084
G1 X206.623 Y155.952 E2.19187
G1 E.19187 F1800
G92 E0
G1 X209.692 Y149.51 F4200
G1 E2 F1800
;TYPE:Solid infill
;WIDTH:0.409204
G1 F288
G1 X209.078 Y148.896 E2.0168
G1 X208.644 Y148.896 E2.0252
G1 X208.801 Y149.167 E2.03126
G1 X209.692 Y150.058 E2.05564
G1 E.05564 F1800
G92 E0
G1 X209.207 Y150.67 F4200
G1 E2 F1800
G1 F288
G1 X209.522 Y150.985 E2.00862
G1 X209.522 Y151.533 E2.01922
G1 X209.131 Y151.142 E2.02992
G1 X208.93 Y151.49 E2.03769
G1 X209.522 Y152.081 E2.05387
G1 X209.522 Y152.63 E2.06449
G1 X208.729 Y151.837 E2.08618
G1 X208.529 Y152.185 E2.09394
G1 X209.379 Y153.035 E2.11719
G1 X208.83 Y153.035 E2.12781
G1 X207.994 Y152.199 E2.15068
G1 X207.446 Y152.199 E2.16128
G1 X208.452 Y153.205 E2.1888
G1 E.1888 F1800
G92 E0
G1 X206.48 Y149.039 F4200
G1 E2 F1800
G1 F288
G1 X206.336 Y148.896 E2.00393
G1 X205.788 Y148.896 E2.01453
G1 X206.154 Y149.262 E2.02454
G1 X205.953 Y149.61 E2.03231
G1 X205.239 Y148.896 E2.05184
G1 X204.691 Y148.896 E2.06244
G1 X205.753 Y149.957 E2.09148
G1 X205.552 Y150.305 E2.09925
G1 X204.142 Y148.895 E2.13782
G1 X203.594 Y148.895 E2.14842
G1 X205.932 Y151.233 E2.21238
G1 X206.49 Y152.199 E2.23396
G1 X206.898 Y152.199 E2.24185
G1 X207.734 Y153.035 E2.26472
G1 X207.185 Y153.035 E2.27534
G1 X203.045 Y148.895 E2.3886
G1 X202.496 Y148.894 E2.39922
G1 X206.637 Y153.035 E2.51251
G1 X206.089 Y153.035 E2.52311
G1 X205.49 Y152.436 E2.5395
G1 X205.49 Y152.984 E2.5501
G1 X205.711 Y153.205 E2.55615
G1 E.55615 F1800
G92 E0
G1 X204.801 Y151.748 F4200
G1 E2 F1800
G1 F288
G1 X201.948 Y148.894 E2.07806
G1 X201.399 Y148.894 E2.08868
G1 X204.082 Y151.577 E2.16208
G1 X203.534 Y151.577 E2.17268
G1 X200.851 Y148.894 E2.24608
G1 X200.302 Y148.893 E2.2567
G1 X202.986 Y151.577 E2.33013
G1 X202.437 Y151.577 E2.34075
G1 X199.753 Y148.893 E2.41418
G1 X199.205 Y148.893 E2.42478
G1 X201.889 Y151.577 E2.49821
G1 X201.341 Y151.577 E2.50881
G1 X198.656 Y148.893 E2.58225
G1 X198.107 Y148.892 E2.59287
G1 X200.792 Y151.577 E2.66632
G1 X200.244 Y151.577 E2.67692
G1 X197.559 Y148.892 E2.75037
G1 X197.01 Y148.892 E2.76099
G1 X199.696 Y151.577 E2.83446
G1 X199.147 Y151.577 E2.84508
G1 X196.462 Y148.891 E2.91855
G1 X195.913 Y148.891 E2.92917
G1 X198.599 Y151.577 E3.00265
G1 X198.051 Y151.577 E3.01325
G1 X195.364 Y148.891 E3.08675
G1 X194.816 Y148.891 E3.09735
G1 X197.502 Y151.577 E3.17083
G1 X196.954 Y151.577 E3.18143
G1 X194.267 Y148.89 E3.25494
G1 X193.718 Y148.89 E3.26556
G1 X196.406 Y151.577 E3.33908
G1 X195.857 Y151.577 E3.3497
G1 X193.17 Y148.89 E3.42321
G1 X192.621 Y148.89 E3.43383
G1 X195.309 Y151.577 E3.50735
G1 X194.76 Y151.577 E3.51797
G1 X192.073 Y148.889 E3.59149
G1 X191.524 Y148.889 E3.60211
G1 X194.212 Y151.577 E3.67565
G1 X193.664 Y151.577 E3.68625
G1 X190.975 Y148.889 E3.7598
G1 X190.478 Y148.888 E3.76941
G1 X190.478 Y148.94 E3.77042
G1 X193.115 Y151.577 E3.84256
G1 X192.567 Y151.577 E3.85316
