; generated by CreatWare 7.0.0 on 2022-06-30 at 20:01:33 UTC

; 

; external perimeters extrusion width = 0.40mm
; perimeters extrusion width = 0.40mm
; infill extrusion width = 0.40mm
; solid infill extrusion width = 0.40mm
; top infill extrusion width = 0.40mm
; support material extrusion width = 0.40mm

G21 ; set units to millimeters
G90 ; use absolute coordinates
M82 ; use absolute distances for extrusion
G92 E0
M107
M190 S45 ; set bed temperature and wait for it to be reached
M104 S210 ; set temperature
;TYPE:Custom
M109 S210 ; set temperature and wait for it to be reached
M6013 S0 ; set chamber temp

G28 X0 Y0  ;move X/Y to min endstops
G28 Z0     ;move Z to min endstops

;Add Clear Nozzle
G92 E0                   ;zero the extruded length again
G0 F4200 X0 Y0
G0 F400 X10 Z0.4         ;move a bit while down the Z
M221 T0 S300             ;set flow is 300%
G1 F200 X30 E8          ;extrude amont filament to clean the hotend
M221 T0 S100             ;reset flow is 100%
G92 E0                   ;zero the extruded length again
;Add End

G0 Z15.0 F4200 ;move the platform down 15mm

;Put printing message on LCD screen
M117 Printing...
; Filament gcode
M107
;LAYER_CHANGE
;Layer 1
;Z:0.1
;HEIGHT:0.1
;BEFORE_LAYER_CHANGE
;0.1


G1 Z.1 F4200
;AFTER_LAYER_CHANGE
;G92 E0   ;zero the extruded length again
;0.1
G1 E-2 F1800
G92 E0
G1 X184.922 Y134.77 F4200
G1 E2 F1800
;TYPE:Skirt/Brim
;WIDTH:0.4
G1 F720
G1 X187.265 Y132.427 E2.06258
G1 X189.112 Y131.142 E2.10507
G1 X191.775 Y130.559 E2.15655
G1 X208.225 Y130.559 E2.46722
G1 X210.44 Y130.956 E2.50972
G1 X212.735 Y132.427 E2.5612
G1 X215.078 Y134.77 E2.62378
G1 X216.364 Y136.617 E2.66628
G1 X216.923 Y138.728 E2.70752
G1 X217.892 Y150.157 E2.92414
G1 X217.892 Y160.719 E3.12361
G1 X217.495 Y162.934 E3.16611
G1 X216.024 Y165.23 E3.21761
G1 X213.681 Y167.573 E3.28019
G1 X211.834 Y168.858 E3.32268
G1 X209.17 Y169.441 E3.37418
G1 X190.83 Y169.441 E3.72054
G1 X188.615 Y169.044 E3.76304
G1 X186.319 Y167.573 E3.81454
G1 X183.976 Y165.23 E3.87712
G1 X182.691 Y163.383 E3.91961
G1 X182.108 Y160.719 E3.97111
G1 X182.132 Y149.604 E4.18102
G1 X183.077 Y138.728 E4.38719
G1 X183.665 Y136.556 E4.42969
G1 X184.887 Y134.819 E4.4698
G1 E2.4698 F1800
G92 E0
G1 X190.07 Y139.074 F4200
G1 E2 F1800
G1 F720
G1 X191.525 Y137.607 E2.03902
G1 X192.15 Y137.289 E2.05226
G1 X192.428 Y137.236 E2.0576
G1 X197.498 Y137.238 E2.15335
G1 X197.808 Y137.31 E2.15936
G1 X198.1 Y137.234 E2.16506
G1 X207.633 Y137.244 E2.34509
G1 X208.143 Y137.402 E2.35517
G1 X208.464 Y137.602 E2.36231
G1 X209.879 Y139.011 E2.40002
G1 X210.105 Y139.367 E2.40798
G1 X210.271 Y139.933 E2.41912
G1 X210.271 Y149.334 E2.59666
G1 X210.912 Y150.001 E2.61413
G1 X211.126 Y150.425 E2.6231
G1 X211.217 Y150.835 E2.63103
G1 X211.217 Y160.067 E2.80538
G1 X211.05 Y160.634 E2.81654
G1 X210.849 Y160.959 E2.82376
G1 X209.409 Y162.398 E2.86221
G1 X209.085 Y162.599 E2.86941
G1 X208.518 Y162.766 E2.88057
G1 X201.923 Y162.755 E3.00512
G1 X201.414 Y162.595 E3.0152
G1 X201.132 Y162.424 E3.02143
G1 X200.001 Y161.305 E3.05148
G1 X198.862 Y162.428 E3.08169
G1 X198.288 Y162.711 E3.09378
G1 X198.008 Y162.764 E3.09916
G1 X191.482 Y162.766 E3.22241
G1 X190.915 Y162.599 E3.23357
G1 X190.591 Y162.398 E3.24077
G1 X189.151 Y160.959 E3.27922
G1 X188.95 Y160.634 E3.28644
G1 X188.783 Y160.067 E3.2976
G1 X188.783 Y150.835 E3.47195
G1 X188.874 Y150.425 E3.47988
G1 X189.088 Y150.001 E3.48885
G1 X189.729 Y149.334 E3.50632
G1 X189.729 Y139.959 E3.68337
G1 X189.821 Y139.546 E3.69136
G1 X190.042 Y139.127 E3.70031
G1 X190.377 Y139.304 F4200
G1 F720
G1 X191.77 Y137.898 E3.73769
G1 X192.288 Y137.642 E3.7486
G1 X192.471 Y137.613 E3.7521
G1 X197.473 Y137.616 E3.84656
G1 X197.814 Y137.704 E3.85321
G1 X198.129 Y137.613 E3.8594
G1 X207.601 Y137.622 E4.03828
G1 X207.999 Y137.753 E4.04619
G1 X208.241 Y137.908 E4.05162
G1 X209.597 Y139.264 E4.08784
G1 X209.752 Y139.505 E4.09325
G1 X209.893 Y139.962 E4.10228
G1 X209.893 Y149.49 E4.28222
G1 X210.588 Y150.199 E4.30097
G1 X210.777 Y150.574 E4.3089
G1 X210.838 Y150.855 E4.31433
G1 X210.838 Y160.038 E4.48775
G1 X210.697 Y160.495 E4.49678
G1 X210.543 Y160.736 E4.50218
G1 X209.187 Y162.092 E4.5384
G1 X208.946 Y162.246 E4.5438
G1 X208.488 Y162.387 E4.55285
G1 X201.956 Y162.376 E4.67621
G1 X201.557 Y162.244 E4.68415
G1 X201.352 Y162.115 E4.68872
G1 X200 Y160.769 E4.72475
G1 X198.666 Y162.102 E4.76037
G1 X198.148 Y162.358 E4.77128
G1 X197.965 Y162.387 E4.77478
G1 X191.511 Y162.387 E4.89667
G1 X191.054 Y162.246 E4.9057
G1 X190.813 Y162.092 E4.9111
G1 X189.457 Y160.736 E4.94732
G1 X189.303 Y160.495 E4.95272
G1 X189.162 Y160.038 E4.96175
G1 X189.162 Y150.855 E5.13517
G1 X189.223 Y150.574 E5.1406
G1 X189.412 Y150.199 E5.14853
G1 X190.107 Y149.49 E5.16728
G1 X190.107 Y139.979 E5.3469
G1 X190.168 Y139.699 E5.35231
G1 X190.349 Y139.357 E5.35962
G1 X190.68 Y139.524 F4200
G1 F720
G1 X192.015 Y138.188 E5.39529
G1 X192.38 Y138.01 E5.40296
G1 X192.489 Y137.991 E5.40505
G1 X197.454 Y137.995 E5.49882
G1 X197.563 Y138.019 E5.50093
G1 X197.787 Y138.112 E5.50551
G1 X198.161 Y137.991 E5.51293
G1 X207.511 Y137.991 E5.68951
G1 X207.857 Y138.105 E5.69639
G1 X207.987 Y138.189 E5.69931
G1 X209.316 Y139.519 E5.73482
G1 X209.401 Y139.648 E5.73774
G1 X209.514 Y139.994 E5.74461
G1 X209.514 Y149.648 E5.92693
G1 X210.264 Y150.397 E5.94695
G1 X210.428 Y150.722 E5.95382
G1 X210.46 Y150.874 E5.95675
G1 X210.46 Y160.006 E6.12921
G1 X210.346 Y160.352 E6.13609
G1 X210.262 Y160.481 E6.139
G1 X208.932 Y161.811 E6.17452
G1 X208.802 Y161.895 E6.17744
G1 X208.457 Y162.009 E6.1843
G1 X201.991 Y161.998 E6.30641
G1 X201.709 Y161.897 E6.31207
G1 X201.577 Y161.811 E6.31505
G1 X200.243 Y160.476 E6.35069
G1 X200.02 Y160.074 E6.35937
G1 X199.752 Y160.481 E6.36857
G1 X198.421 Y161.812 E6.40412
G1 X198.056 Y161.99 E6.41179
G1 X197.947 Y162.009 E6.41388
G1 X191.543 Y162.009 E6.53482
G1 X191.198 Y161.895 E6.54168
G1 X191.068 Y161.811 E6.5446
G1 X189.738 Y160.481 E6.58012
G1 X189.654 Y160.352 E6.58303
G1 X189.54 Y160.006 E6.58991
G1 X189.54 Y150.874 E6.76237
G1 X189.572 Y150.722 E6.7653
G1 X189.736 Y150.397 E6.77217
G1 X190.486 Y149.648 E6.79219
G1 X190.486 Y139.997 E6.97445
G1 X190.517 Y139.846 E6.97736
G1 X190.653 Y139.578 E6.98304
G1 X190.974 Y139.764 F4200
G1 F720
G1 X192.258 Y138.48 E7.01733
G1 X192.51 Y138.37 E7.02252
G1 X197.401 Y138.37 E7.11489
G1 X197.605 Y138.446 E7.119
G1 X197.792 Y138.591 E7.12347
G1 X197.975 Y138.449 E7.12784
G1 X198.197 Y138.37 E7.13229
G1 X207.476 Y138.37 E7.30753
G1 X207.732 Y138.47 E7.31272
G1 X209.036 Y139.774 E7.34755
G1 X209.136 Y140.029 E7.35272
G1 X209.136 Y149.804 E7.53733
G1 X209.971 Y150.64 E7.55964
G1 X210.081 Y150.891 E7.56482
G1 X210.081 Y159.971 E7.7363
G1 X209.981 Y160.226 E7.74147
G1 X208.677 Y161.53 E7.7763
G1 X208.422 Y161.63 E7.78147
G1 X202.088 Y161.63 E7.90109
G1 X201.86 Y161.549 E7.90566
G1 X200.538 Y160.236 E7.94085
G1 X200.435 Y160.017 E7.94542
G1 X200.428 Y156.926 E8.0038
G1 X199.572 Y156.926 E8.01997
G1 X199.572 Y159.971 E8.07748
G1 X199.472 Y160.226 E8.08265
G1 X198.178 Y161.52 E8.11721
G1 X197.958 Y161.624 E8.12181
G1 X191.578 Y161.63 E8.2423
G1 X191.323 Y161.53 E8.24747
G1 X190.019 Y160.226 E8.2823
G1 X189.919 Y159.971 E8.28747
G1 X189.919 Y150.891 E8.45895
G1 X190.029 Y150.64 E8.46413
G1 X190.864 Y149.804 E8.48644
G1 X190.864 Y140.015 E8.67131
G1 X190.948 Y139.818 E8.67535
G1 X191.272 Y140.002 F4200
G1 F720
G1 X192.496 Y138.777 E8.70805
G1 X192.566 Y138.748 E8.70948
G1 X197.345 Y138.748 E8.79973
G1 X197.414 Y138.777 E8.80114
G1 X197.792 Y139.155 E8.81124
G1 X198.169 Y138.777 E8.82132
G1 X198.239 Y138.748 E8.82275
G1 X202.388 Y138.748 E8.90111
G1 X202.521 Y138.804 E8.90384
G1 X202.655 Y138.748 E8.90658
G1 X207.434 Y138.748 E8.99683
G1 X207.504 Y138.777 E8.99826
G1 X208.728 Y140.002 E9.03096
G1 X208.757 Y140.071 E9.03237
G1 X208.757 Y149.961 E9.21915
G1 X209.674 Y150.878 E9.24364
G1 X209.703 Y150.947 E9.24505
G1 X209.703 Y159.929 E9.41468
G1 X209.674 Y159.998 E9.41609
G1 X208.449 Y161.223 E9.44881
G1 X208.38 Y161.252 E9.45022
G1 X202.13 Y161.252 E9.56825
G1 X202.06 Y161.223 E9.56968
G1 X200.836 Y159.998 E9.60238
G1 X200.807 Y159.929 E9.60379
G1 X200.807 Y156.548 E9.66764
G1 X199.193 Y156.548 E9.69812
G1 X199.193 Y159.929 E9.76197
G1 X199.164 Y159.998 E9.76338
G1 X197.94 Y161.223 E9.79608
G1 X197.87 Y161.252 E9.79751
G1 X191.62 Y161.252 E9.91554
G1 X191.551 Y161.223 E9.91695
G1 X190.326 Y159.998 E9.94967
G1 X190.297 Y159.929 E9.95108
G1 X190.297 Y150.947 E10.12071
G1 X190.326 Y150.878 E10.12212
G1 X191.243 Y149.961 E10.14661
G1 X191.249 Y140.057 E10.33365
G1 E8.33365 F1800
G92 E0
G1 X203.835 Y141.413 F4200
G1 E2 F1800
;TYPE:Solid infill
;WIDTH:0.475707
G1 F288
G1 X204.177 Y141.755 E2.01096
G1 X204.203 Y142.006 F4200
;TYPE:Gap fill
;WIDTH:0.223889
G1 F360
G1 X204.078 Y142.084 E2.01245
;WIDTH:0.255215
G1 X204.061 Y142.096 E2.01269
;WIDTH:0.286541
G1 X204.043 Y142.109 E2.01298
;WIDTH:0.286541
G1 X204.025 Y142.388 E2.01668
;WIDTH:0.249959
G1 X204.025 Y142.418 E2.01702
;WIDTH:0.28654
G1 X204.043 Y142.697 E2.02072
;WIDTH:0.286542
G1 X204.061 Y142.709 E2.02101
;WIDTH:0.255214
G1 X204.078 Y142.722 E2.02126
;WIDTH:0.223886
G1 X204.203 Y142.8 E2.02275
G1 E.02275 F1800
G92 E0
G1 X204.597 Y141.455 F4200
G1 E2 F1800
;WIDTH:0.096527
G1 F360
G1 X204.688 Y141.364 E2.00048
;WIDTH:0.0965282
G1 X204.711 Y141.356 E2.00057
;WIDTH:0.0807182
G1 X204.718 Y141.354 E2.00059
;WIDTH:0.0766982
G1 X204.76 Y141.346 E2.00071
G1 E.00071 F1800
G92 E0
G1 X205.879 Y141.346 F4200
G1 E2 F1800
;WIDTH:0.0766968
G1 F360
G1 X205.921 Y141.354 E2.00012
;WIDTH:0.0807166
G1 X206.179 Y141.424 E2.00091
G1 E.00091 F1800
G92 E0
G1 X206.179 Y143.271 F4200
G1 E2 F1800
;WIDTH:0.0917923
G1 F360
G1 X206.049 Y143.346 E2.00053
G1 X205.56 Y143.476 F4200
;TYPE:Solid infill
;WIDTH:0.403547
G1 F288
G1 X206.084 Y144 E2.01466
G1 X206.084 Y144.54 E2.02495
G1 X205.209 Y143.665 E2.04854
G1 X204.989 Y143.636 E2.05277
G1 X204.681 Y143.509 E2.05912
G1 X204.417 Y143.306 E2.06547
G1 X204.309 Y143.165 E2.06886
G1 X204.255 Y143.252 E2.07081
G1 X206.084 Y145.081 E2.12012
G1 X206.084 Y145.621 E2.13041
G1 X204.793 Y144.33 E2.16521
G1 X204.793 Y143.815 E2.17503
G1 X204.279 Y143.815 E2.18483
G1 X203.835 Y143.372 E2.19679
G1 E.19679 F1800
G92 E0
G1 X204.623 Y144.7 F4200
G1 E2 F1800
G1 F288
G1 X206.084 Y146.161 E2.03939
G1 X206.084 Y146.702 E2.0497
G1 X204.793 Y145.411 E2.0845
G1 X204.793 Y145.951 E2.09479
G1 X206.084 Y147.242 E2.12959
G1 X206.084 Y147.782 E2.13988
G1 X204.793 Y146.491 E2.17468
G1 X204.793 Y146.884 E2.18217
G1 X204.646 Y146.884 E2.18497
G1 X206.084 Y148.323 E2.22375
G1 X206.084 Y148.863 E2.23404
G1 X204.105 Y146.884 E2.28739
G1 X203.565 Y146.884 E2.29768
G1 X206.084 Y149.404 E2.3656
G1 X206.084 Y149.944 E2.37589
G1 X203.48 Y147.34 E2.44609
G1 X203.48 Y147.88 E2.45638
G1 X206.084 Y150.484 E2.52658
G1 X206.084 Y151.025 E2.53689
G1 X203.48 Y148.42 E2.6071
G1 X203.48 Y148.961 E2.61741
G1 X206.254 Y151.735 E2.69219
G1 X206.646 Y152.127 F4200
G1 F288
G1 X207.03 Y152.51 E2.70253
G1 X207.03 Y153.051 E2.71284
G1 X203.48 Y149.501 E2.80854
G1 X203.48 Y150.041 E2.81883
G1 X207.03 Y153.591 E2.91453
G1 X207.03 Y154.131 E2.92482
G1 X203.48 Y150.582 E3.02051
G1 X203.48 Y151.122 E3.0308
G1 X207.03 Y154.672 E3.1265
G1 X207.03 Y155.212 E3.13679
G1 X203.48 Y151.662 E3.23249
G1 X203.48 Y152.203 E3.2428
G1 X207.03 Y155.753 E3.3385
G1 X207.03 Y156.293 E3.34879
G1 X203.48 Y152.743 E3.44449
G1 X203.48 Y153.284 E3.4548
G1 X207.03 Y156.833 E3.55049
G1 X207.03 Y157.374 E3.5608
G1 X203.48 Y153.824 E3.6565
G1 X203.48 Y154.364 E3.66679
G1 X204.861 Y155.745 E3.70402
G1 X204.6 Y155.779 E3.70904
G1 X204.427 Y155.851 E3.71261
G1 X203.48 Y154.905 E3.73813
G1 X203.48 Y155.445 E3.74842
G1 X204.097 Y156.062 E3.76505
G1 X204.051 Y156.097 E3.76615
G1 X203.853 Y156.359 E3.77241
G1 X203.48 Y155.985 E3.78248
G1 X203.48 Y156.526 E3.79279
G1 X203.871 Y156.917 E3.80333
G1 E1.80333 F1800
G92 E0
G1 X205.952 Y156.836 F4200
G1 E2 F1800
G1 F288
G1 X207.03 Y157.914 E2.02906
G1 X207.03 Y158.454 E2.03935
G1 X206.027 Y157.451 E2.06639
G1 X205.976 Y157.573 E2.06891
G1 X205.816 Y157.781 E2.07391
G1 X206.614 Y158.579 E2.09542
G1 X206.073 Y158.579 E2.10573
G1 X205.519 Y158.025 E2.12066
G1 X205.234 Y158.143 E2.12654
G1 X205.113 Y158.159 E2.12887
G1 X205.533 Y158.579 E2.14019
G1 X204.993 Y158.579 E2.15048
G1 X203.48 Y157.066 E2.19127
G1 X203.48 Y157.606 E2.20156
G1 X204.452 Y158.579 E2.22778
G1 X203.912 Y158.579 E2.23807
G1 X203.31 Y157.976 E2.25431
G1 E.25431 F1800
G92 E0
G1 X206.368 Y152.014 F4200
G1 E2 F1800
;TYPE:External perimeter
;WIDTH:0.4
G1 F252
G1 X207.314 Y152.014 E2.01787
G1 X207.314 Y158.863 E2.14722
G1 X203.196 Y158.863 E2.22499
G1 X203.196 Y146.6 E2.45658
G1 X204.509 Y146.6 E2.48138
G1 X204.509 Y144.099 E2.52861
G1 X203.721 Y144.099 E2.54349
G1 X203.721 Y141.137 E2.59943
G1 X206.368 Y141.137 E2.64942
G1 X206.368 Y151.954 E2.8537
G1 E.8537 F1800
G92 E0
G1 X205.32 Y143.393 F4200
G1 E2 F1800
G1 F270
G1 X205.063 Y143.36 E2.00489
G1 X204.824 Y143.261 E2.00978
G1 X204.619 Y143.103 E2.01467
G1 X204.462 Y142.898 E2.01955
G1 X204.398 Y142.745 E2.02268
G1 X204.363 Y142.659 E2.02443
G1 X204.329 Y142.403 E2.02931
G1 X204.363 Y142.147 E2.03419
G1 X204.426 Y141.993 E2.03733
G1 X204.462 Y141.908 E2.03907
G1 X204.619 Y141.703 E2.04395
G1 X204.824 Y141.545 E2.04884
G1 X205.063 Y141.446 E2.05373
G1 X205.32 Y141.412 E2.05863
G1 X205.576 Y141.446 E2.06351
G1 X205.815 Y141.545 E2.0684
G1 X206.02 Y141.703 E2.07329
G1 X206.177 Y141.908 E2.07817
G1 X206.276 Y142.147 E2.08306
G1 X206.31 Y142.403 E2.08794
G1 X206.276 Y142.659 E2.09282
G1 X206.177 Y142.898 E2.09771
G1 X206.02 Y143.103 E2.10259
G1 X205.815 Y143.261 E2.10748
G1 X205.576 Y143.36 E2.11237
G1 X205.379 Y143.386 E2.11612
G1 E.11612 F1800
G92 E0
G1 X204.913 Y156.024 F4200
G1 E2 F1800
G1 F270
G1 X205.159 Y156.056 E2.00468
G1 X205.385 Y156.15 E2.0093
G1 X205.58 Y156.298 E2.01392
G1 X205.729 Y156.493 E2.01855
G1 X205.822 Y156.719 E2.02317
G1 X205.854 Y156.961 E2.02778
G1 X205.822 Y157.204 E2.03241
G1 X205.729 Y157.43 E2.03703
G1 X205.58 Y157.624 E2.04165
G1 X205.385 Y157.773 E2.04628
G1 X205.159 Y157.866 E2.0509
G1 X204.917 Y157.898 E2.05551
G1 X204.674 Y157.866 E2.06014
G1 X204.448 Y157.773 E2.06476
G1 X204.254 Y157.624 E2.06938
G1 X204.105 Y157.43 E2.074
G1 X204.012 Y157.204 E2.07862
G1 X203.98 Y156.961 E2.08325
G1 X204.012 Y156.719 E2.08786
G1 X204.104 Y156.496 E2.09242
G1 X204.254 Y156.299 E2.0971
G1 X204.448 Y156.15 E2.10172
G1 X204.674 Y156.056 E2.10634
G1 X204.854 Y156.032 E2.10977
G1 E.10977 F1800
G92 E0
G1 X201.151 Y153.933 F4200
G1 E2 F1800
;TYPE:Gap fill
;WIDTH:0.0940382
G1 F360
G1 X201.134 Y153.941 E2.00007
;WIDTH:0.0768042
G1 X201.127 Y153.944 E2.00009
;WIDTH:0.0710082
G1 X201.102 Y153.953 E2.00016
G1 X201.151 Y153.933 F4200
;WIDTH:0.0940376
G1 F360
G1 X201.211 Y153.829 E2.00059
G1 E.00059 F1800
G92 E0
G1 X199.525 Y153.953 F4200
G1 E2 F1800
;WIDTH:0.0704607
G1 F360
G1 X199.501 Y153.945 E2.00006
;WIDTH:0.0760847
G1 X199.494 Y153.942 E2.00008
;WIDTH:0.0941589
G1 X199.476 Y153.933 E2.00015
;WIDTH:0.09416
G1 X199.416 Y153.83 E2.00058
G1 E.00058 F1800
G92 E0
G1 X200.503 Y149.467 F4200
G1 E2 F1800
;TYPE:Solid infill
;WIDTH:0.410725
G1 F288
G1 X201.038 Y150.001 E2.01468
G1 X201.038 Y150.552 E2.02538
G1 X200.14 Y149.655 E2.05003
G1 X199.928 Y149.627 E2.05418
G1 X199.589 Y149.476 E2.06139
G1 X199.589 Y149.654 E2.06485
G1 X201.668 Y151.733 E2.12195
G1 X201.668 Y152.283 E2.13263
G1 X199.589 Y150.204 E2.18973
G1 X199.589 Y150.755 E2.20043
G1 X201.838 Y153.004 E2.2622
G1 X201.358 Y153.074 F4200
G1 F288
G1 X201.668 Y153.384 E2.27071
G1 X201.668 Y153.874 E2.28023
G1 X201.608 Y153.874 E2.2814
G1 X201.272 Y153.538 E2.29063
G1 E.29063 F1800
G92 E0
G1 X200.368 Y152.084 F4200
G1 E2 F1800
G1 F288
G1 X199.589 Y151.305 E2.0214
G1 X199.589 Y151.351 E2.02229
G1 X199.084 Y151.351 E2.0321
G1 X199.772 Y152.039 E2.051
G1 X199.702 Y152.068 E2.05247
G1 X199.447 Y152.264 E2.05872
G1 X198.959 Y151.776 E2.07212
G1 X198.959 Y152.326 E2.0828
G1 X199.223 Y152.59 E2.09005
G1 X199.131 Y152.811 E2.0947
G1 X199.104 Y153.022 E2.09883
G1 X198.959 Y152.877 E2.10281
G1 X198.959 Y153.427 E2.11349
G1 X199.298 Y153.767 E2.12281
