; generated by CreatWare 7.0.0 on 2022-06-24 at 22:25:50 UTC

; 

; external perimeters extrusion width = 0.40mm
; perimeters extrusion width = 0.40mm
; infill extrusion width = 0.40mm
; solid infill extrusion width = 0.40mm
; top infill extrusion width = 0.40mm

G21 ; set units to millimeters
G90 ; use absolute coordinates
M82 ; use absolute distances for extrusion
G92 E0
M107
M190 S45 ; set bed temperature and wait for it to be reached
M104 S210 ; set temperature
;TYPE:Custom
M109 S210 ; set temperature and wait for it to be reached
M6013 S0 ; set chamber temp

G28 X0 Y0  ;move X/Y to min endstops
G28 Z0     ;move Z to min endstops

;Add Clear Nozzle
G92 E0                   ;zero the extruded length again
G0 F4200 X0 Y0
G0 F400 X10 Z0.4         ;move a bit while down the Z
M221 T0 S300             ;set flow is 300%
G1 F200 X30 E8          ;extrude amont filament to clean the hotend
M221 T0 S100             ;reset flow is 100%
G92 E0                   ;zero the extruded length again
;Add End

G0 Z15.0 F4200 ;move the platform down 15mm

;Put printing message on LCD screen
M117 Printing...
; Filament gcode
M107
;LAYER_CHANGE
;Layer 1
;Z:0.2
;HEIGHT:0.2
;BEFORE_LAYER_CHANGE
;0.2


G1 Z.2 F4200
;AFTER_LAYER_CHANGE
;G92 E0   ;zero the extruded length again
;0.2
G1 E-2 F1800
G92 E0
G1 X182.879 Y141.698 F4200
G1 E2 F1800
;TYPE:Skirt/Brim
;WIDTH:0.4
G1 F360
G1 X185.222 Y139.355 E2.11806
G1 X187.066 Y138.072 E2.1981
G1 X189.717 Y137.493 E2.29478
G1 X200.42 Y137.512 E2.67612
G1 X210.773 Y138.312 E3.04609
G1 X212.947 Y138.878 E3.12613
G1 X214.778 Y140.155 E3.20567
G1 X217.121 Y142.498 E3.32373
G1 X218.404 Y144.342 E3.40377
G1 X218.983 Y146.993 E3.50045
G1 X218.983 Y153.307 E3.72541
G1 X218.586 Y155.518 E3.80545
G1 X217.121 Y157.802 E3.90213
G1 X214.778 Y160.145 E4.02019
G1 X212.934 Y161.428 E4.10023
G1 X210.892 Y161.978 E4.17558
G1 X205.083 Y162.507 E4.38341
G1 X189.717 Y162.507 E4.93089
G1 X187.506 Y162.11 E5.01093
G1 X185.222 Y160.645 E5.10761
G1 X182.879 Y158.302 E5.22567
G1 X181.596 Y156.458 E5.30571
G1 X181.017 Y153.807 E5.40239
G1 X181.017 Y146.193 E5.67367
G1 X181.414 Y143.982 E5.75371
G1 X182.846 Y141.749 E5.84823
G1 E3.84823 F1800
G92 E0
G1 X188.12 Y146.003 F4200
G1 E2 F1800
G1 F360
G1 X189.527 Y144.596 E2.0709
G1 X190.016 Y144.329 E2.09075
G1 X190.367 Y144.247 E2.10359
G1 X199.282 Y144.247 E2.42123
G1 X199.633 Y144.33 E2.43408
G1 X200.031 Y144.531 E2.44997
G1 X200.568 Y145.043 E2.47641
G1 X209.621 Y145.043 E2.79896
G1 X210.154 Y145.2 E2.81876
G1 X210.395 Y145.337 E2.82864
G1 X211.879 Y146.802 E2.90294
G1 X212.146 Y147.29 E2.92276
G1 X212.219 Y147.558 E2.93266
G1 X212.233 Y152.644 E3.11387
G1 X212.076 Y153.177 E3.13367
G1 X211.939 Y153.418 E3.14355
G1 X210.474 Y154.903 E3.21787
G1 X209.836 Y155.22 E3.24325
G1 X209.595 Y155.257 E3.25194
G1 X205.413 Y155.257 E3.40094
G1 X205.122 Y155.511 E3.4147
G1 X204.772 Y155.676 E3.42849
G1 X204.397 Y155.757 E3.44216
G1 X190.366 Y155.753 E3.94208
G1 X190.013 Y155.669 E3.95501
G1 X189.527 Y155.404 E3.97473
G1 X188.12 Y153.997 E4.04563
G1 X187.853 Y153.508 E4.06548
G1 X187.771 Y153.157 E4.07832
G1 X187.775 Y146.801 E4.30478
G1 X187.855 Y146.489 E4.31626
G1 X188.091 Y146.056 E4.33383
G1 X188.392 Y146.236 F4200
G1 F360
G1 X189.759 Y144.868 E4.40274
G1 X190.159 Y144.657 E4.41885
G1 X190.422 Y144.6 E4.42844
G1 X199.261 Y144.604 E4.74337
G1 X199.491 Y144.658 E4.75179
G1 X199.844 Y144.837 E4.76589
G1 X200.421 Y145.4 E4.79461
G1 X209.593 Y145.4 E5.1214
G1 X210.026 Y145.534 E5.13755
G1 X210.193 Y145.632 E5.14445
G1 X211.608 Y147.036 E5.21547
G1 X211.819 Y147.436 E5.23158
G1 X211.868 Y147.624 E5.2385
G1 X211.876 Y152.617 E5.4164
G1 X211.742 Y153.05 E5.43255
G1 X211.644 Y153.217 E5.43945
G1 X210.241 Y154.631 E5.51042
G1 X209.752 Y154.872 E5.52984
G1 X209.579 Y154.9 E5.53608
G1 X205.272 Y154.9 E5.68954
G1 X204.943 Y155.2 E5.7054
G1 X204.639 Y155.344 E5.71739
G1 X204.378 Y155.4 E5.7269
G1 X190.387 Y155.396 E6.22539
G1 X190.158 Y155.342 E6.23377
G1 X189.759 Y155.132 E6.24983
G1 X188.392 Y153.764 E6.31874
G1 X188.181 Y153.365 E6.33482
G1 X188.124 Y153.101 E6.34444
G1 X188.132 Y146.824 E6.56809
G1 X188.181 Y146.636 E6.57501
G1 X188.364 Y146.289 E6.58899
G1 X188.666 Y146.467 F4200
G1 F360
G1 X189.991 Y145.142 E6.65575
G1 X190.297 Y144.987 E6.66797
G1 X190.44 Y144.957 E6.67318
G1 X199.24 Y144.961 E6.98672
G1 X199.349 Y144.986 E6.9907
G1 X199.657 Y145.142 E7.003
G1 X200.272 Y145.757 E7.03399
G1 X209.563 Y145.757 E7.36502
G1 X209.891 Y145.865 E7.37732
G1 X209.986 Y145.924 E7.3813
G1 X211.334 Y147.267 E7.4491
G1 X211.49 Y147.575 E7.4614
G1 X211.516 Y147.684 E7.46539
G1 X211.519 Y152.587 E7.64008
G1 X211.411 Y152.915 E7.65238
G1 X211.352 Y153.01 E7.65636
G1 X210.01 Y154.357 E7.72411
G1 X209.666 Y154.525 E7.73775
G1 X209.563 Y154.543 E7.74148
G1 X205.127 Y154.543 E7.89953
G1 X204.763 Y154.891 E7.91747
G1 X204.505 Y155.012 E7.92762
G1 X204.36 Y155.043 E7.9329
G1 X190.407 Y155.039 E8.43004
G1 X190.299 Y155.014 E8.43399
G1 X189.991 Y154.858 E8.44629
G1 X188.666 Y153.533 E8.51305
G1 X188.511 Y153.227 E8.52527
G1 X188.481 Y153.084 E8.53048
G1 X188.484 Y146.884 E8.75138
G1 X188.51 Y146.775 E8.75537
G1 X188.639 Y146.521 E8.76552
G1 X188.942 Y146.696 F4200
G1 F360
G1 X190.22 Y145.418 E8.82992
G1 X190.457 Y145.314 E8.83914
G1 X199.191 Y145.314 E9.15033
G1 X199.428 Y145.418 E9.15955
G1 X200.124 Y146.114 E9.19462
G1 X209.53 Y146.114 E9.52975
G1 X209.771 Y146.209 E9.53898
G1 X211.058 Y147.496 E9.60383
G1 X211.156 Y147.703 E9.61199
G1 X211.162 Y152.554 E9.78483
G1 X211.068 Y152.795 E9.79405
G1 X209.78 Y154.082 E9.85892
G1 X209.543 Y154.186 E9.86814
G1 X204.977 Y154.186 E10.03082
G1 X204.58 Y154.582 E10.0508
G1 X204.343 Y154.686 E10.06002
G1 X190.427 Y154.68 E10.55584
G1 X190.22 Y154.582 E10.564
G1 X188.942 Y153.304 E10.6284
G1 X188.838 Y153.067 E10.63762
G1 X188.838 Y146.933 E10.85617
G1 X188.916 Y146.75 E10.86326
G1 X189.222 Y146.92 F4200
G1 F360
G1 X190.444 Y145.699 E10.92481
G1 X190.51 Y145.671 E10.92736
G1 X199.138 Y145.671 E11.23477
G1 X199.203 Y145.699 E11.23729
G1 X199.976 Y146.471 E11.27621
G1 X209.49 Y146.471 E11.61519
G1 X209.556 Y146.499 E11.61774
G1 X210.778 Y147.72 E11.67929
G1 X210.805 Y147.786 E11.68183
G1 X210.805 Y152.514 E11.85029
G1 X210.778 Y152.58 E11.85283
G1 X209.556 Y153.801 E11.91438
G1 X209.49 Y153.829 E11.91693
G1 X204.829 Y153.829 E12.083
G1 X204.356 Y154.301 E12.10681
G1 X204.29 Y154.329 E12.10936
G1 X190.51 Y154.329 E12.60034
G1 X190.444 Y154.301 E12.60289
G1 X189.222 Y153.08 E12.66444
G1 X189.195 Y153.014 E12.66698
G1 X189.199 Y146.976 E12.88211
G1 E10.88211 F1800
G92 E0
G1 X191.574 Y148.05 F4200
G1 E2 F1800
;TYPE:External perimeter
G1 F378
G1 X198.074 Y148.05 E2.23159
G1 X198.074 Y148.85 E2.26009
G1 X207.22 Y148.85 E2.58596
G1 X207.232 Y149.025 E2.59221
G1 X207.243 Y148.85 E2.59846
G1 X208.426 Y148.85 E2.64061
G1 X208.426 Y151.45 E2.73325
G1 X205.626 Y151.45 E2.83301
G1 X205.626 Y150.7 E2.85973
G1 X203.226 Y150.7 E2.94524
G1 X203.226 Y151.95 E2.98978
G1 X191.574 Y151.95 E3.40494
G1 X191.574 Y148.11 E3.54176
G1 X191.971 Y148.093 F4200
G1 E1.54176 F1800
G92 E0
G1 X193.799 Y148.386 F4200
G1 X197.738 Y149.186
G1 X205.962 Y150.364
G1 X206.344 Y149.939
G1 E2 F1800
G1 F270
G1 X206.374 Y149.709 E2.00826
G1 X206.418 Y149.602 E2.01238
G1 X206.463 Y149.494 E2.01655
G1 X206.604 Y149.311 E2.02478
G1 X206.788 Y149.169 E2.03306
G1 X207.002 Y149.081 E2.0413
G1 X207.232 Y149.05 E2.04957
G1 X207.462 Y149.081 E2.05784
G1 X207.676 Y149.169 E2.06608
G1 X207.86 Y149.311 E2.07436
G1 X208.001 Y149.495 E2.08262
G1 X208.09 Y149.709 E2.09088
G1 X208.12 Y149.939 E2.09914
G1 X208.09 Y150.168 E2.10737
G1 X208.001 Y150.383 E2.11566
G1 X207.86 Y150.567 E2.12392
G1 X207.676 Y150.708 E2.13218
G1 X207.462 Y150.796 E2.14042
G1 X207.232 Y150.827 E2.14869
G1 X207.002 Y150.796 E2.15696
G1 X206.895 Y150.752 E2.16108
G1 X206.788 Y150.708 E2.1652
G1 X206.604 Y150.567 E2.17346
G1 X206.463 Y150.383 E2.18172
G1 X206.374 Y150.168 E2.19001
G1 X206.352 Y149.998 E2.19612
G1 X206.143 Y149.823 F4200
G1 X206.129 Y150.534
;TYPE:Inner perimeter
G1 F270
G1 X206.349 Y150.821 E2.209
G1 X206.514 Y150.948 E2.21642
G1 X206.464 Y151.093 E2.22188
G1 X205.983 Y151.093 E2.23902
G1 X205.983 Y150.583 E2.25719
G1 X206.072 Y150.553 E2.26054
G1 E.26054 F1800
G92 E0
G1 X205.962 Y150.553 F4200
G1 X205.962 Y150.364
G1 X202.891 Y150.364
G1 X193.081 Y151.705
G1 X192.757 Y151.66
G1 X192.786 Y151.448
G1 E2 F1800
G1 F270
G1 X192.737 Y151.593 E2.00545
G1 X191.931 Y151.593 E2.03417
G1 X191.931 Y150.469 E2.07422
G1 X192.13 Y150.455 E2.08133
G1 X192.158 Y150.656 E2.08856
G1 X192.281 Y150.953 E2.10001
G1 X192.482 Y151.214 E2.11175
G1 X192.739 Y151.411 E2.12329
G1 E.12329 F1800
G92 E0
G1 X192.772 Y151.339 F4200
G1 X192.783 Y151.345
G1 X192.848 Y151.37
G1 X193.077 Y151.429
G1 X193.141 Y151.437
G1 X193.374 Y151.456
G1 X193.671 Y151.429
G1 X193.965 Y151.345
G1 X194.249 Y151.197
G1 X194.297 Y151.138
G1 X194.448 Y150.942
G1 X194.572 Y150.643
G1 X194.614 Y150.322
G1 X194.608 Y150.277
G1 X194.276 Y150.321
G1 E2 F1800
;TYPE:External perimeter
G1 F270
G1 X194.245 Y150.555 E2.00841
G1 X194.155 Y150.772 E2.01678
G1 X194.012 Y150.959 E2.02517
G1 X193.825 Y151.103 E2.03358
G1 X193.614 Y151.19 E2.04171
G1 X193.375 Y151.223 E2.05031
G1 X193.141 Y151.193 E2.05872
G1 X192.923 Y151.103 E2.06712
G1 X192.736 Y150.959 E2.07553
G1 X192.593 Y150.772 E2.08392
G1 X192.506 Y150.561 E2.09205
G1 X192.472 Y150.322 E2.10065
G1 X192.503 Y150.088 E2.10906
G1 X192.593 Y149.871 E2.11743
G1 X192.736 Y149.684 E2.12582
G1 X192.923 Y149.541 E2.13421
G1 X193.141 Y149.451 E2.14261
G1 X193.367 Y149.421 E2.15073
G1 X193.607 Y149.45 E2.15934
G1 X193.825 Y149.541 E2.16776
G1 X194.012 Y149.684 E2.17615
G1 X194.155 Y149.871 E2.18454
G1 X194.242 Y150.082 E2.19267
G1 X194.268 Y150.261 E2.19911
G1 X194.48 Y150.439 F4200
G1 X194.636 Y150.319
;TYPE:Inner perimeter
G1 F270
G1 X194.59 Y149.987 E2.21105
G1 X194.467 Y149.691 E2.22247
G1 X194.266 Y149.429 E2.23424
G1 X194.005 Y149.229 E2.24596
G1 X193.698 Y149.102 E2.2578
G1 X193.366 Y149.061 E2.26972
G1 X193.047 Y149.103 E2.28118
G1 X192.743 Y149.229 E2.2929
G1 X192.482 Y149.429 E2.30462
G1 X192.281 Y149.691 E2.31639
G1 X192.155 Y149.995 E2.32811
G1 X192.131 Y150.178 E2.33469
G1 X191.931 Y150.165 E2.34183
G1 X191.931 Y148.407 E2.40447
G1 X197.717 Y148.407 E2.61062
G1 X197.717 Y149.207 E2.63912
G1 X206.195 Y149.207 E2.94119
G1 X206.026 Y149.615 E2.95692
G1 X205.984 Y149.939 E2.96856
G1 X206.037 Y150.343 E2.98308
G1 X202.869 Y150.343 E3.09595
G1 X202.869 Y151.593 E3.14049
G1 X194.011 Y151.593 E3.4561
G1 X193.962 Y151.448 E3.46155
G1 X194.266 Y151.214 E3.47522
G1 X194.467 Y150.953 E3.48696
G1 X194.593 Y150.648 E3.49872
G1 X194.628 Y150.379 E3.50839
G1 E1.50839 F1800
G92 E0
G1 X194.543 Y151.181 F4200
G1 E2 F1800
;TYPE:Gap fill
;WIDTH:0.140301
G1 F360
G1 X194.436 Y151.366 E2.00208
;WIDTH:0.140302
G1 X194.43 Y151.369 E2.00215
;WIDTH:0.133856
G1 X194.348 Y151.403 E2.00296
G1 X193.811 Y151.558 F4200
;WIDTH:0.44102
G1 F360
G1 X193.351 Y151.587 E2.02127
G1 X192.937 Y151.56 E2.03775
G1 X192.4 Y151.403 F4200
;WIDTH:0.133851
G1 F360
G1 X192.109 Y151.282 E2.04061
G1 E.04061 F1800
G92 E0
G1 X192.126 Y149.573 F4200
G1 E2 F1800
;WIDTH:0.119267
G1 F360
G1 X192.148 Y149.509 E2.00052
;WIDTH:0.119266
G1 X192.241 Y149.415 E2.00153
G1 E.00153 F1800
G92 E0
G1 X192.726 Y148.805 F4200
G1 E2 F1800
;WIDTH:0.387538
G1 F360
G1 X192.978 Y148.758 E2.00881
G1 X193.346 Y148.734 E2.02149
;WIDTH:0.3394
G1 X193.383 Y148.734 E2.02258
;WIDTH:0.38615
G1 X193.765 Y148.757 E2.03569
;WIDTH:0.409763
G1 X194.022 Y148.805 E2.04526
G1 E.04526 F1800
G92 E0
G1 X195.285 Y151.486 F4200
G1 E2 F1800
;TYPE:Solid infill
;WIDTH:0.402455
G1 F432
G1 X194.755 Y150.956 E2.02689
G1 X194.854 Y150.718 E2.03614
G1 X194.874 Y150.566 E2.04164
G1 X195.633 Y151.325 E2.08015
G1 X196.142 Y151.325 E2.09841
G1 X194.869 Y150.053 E2.16297
G1 X194.85 Y149.916 E2.16793
G1 X194.701 Y149.556 E2.18191
G1 X194.457 Y149.238 E2.19629
G1 X194.242 Y149.073 E2.20601
G1 X194.268 Y148.943 E2.21077
G1 X196.65 Y151.325 E2.33162
G1 X197.159 Y151.325 E2.34988
G1 X194.508 Y148.675 E2.48435
G1 X195.017 Y148.675 E2.50261
G1 X197.667 Y151.325 E2.63706
G1 X198.175 Y151.325 E2.65528
G1 X195.525 Y148.675 E2.78973
G1 X196.034 Y148.675 E2.80799
G1 X198.845 Y151.486 E2.9506
G1 E.9506 F1800
G92 E0
G1 X197.61 Y149.234 F4200
G1 E2 F1800
G1 F432
G1 X197.051 Y148.675 E2.02836
G1 X196.542 Y148.675 E2.04662
G1 X199.192 Y151.325 E2.18107
G1 X199.701 Y151.325 E2.19933
G1 X197.851 Y149.475 E2.29319
G1 X198.359 Y149.475 E2.31141
G1 X200.209 Y151.325 E2.40527
G1 X200.718 Y151.325 E2.42353
G1 X198.868 Y149.475 E2.51739
G1 X199.376 Y149.475 E2.53561
G1 X201.226 Y151.325 E2.62947
G1 X201.735 Y151.325 E2.64773
G1 X199.884 Y149.475 E2.74161
G1 X200.393 Y149.475 E2.75987
G1 X202.243 Y151.325 E2.85373
G1 X202.601 Y151.325 E2.86657
G1 X202.601 Y151.175 E2.87195
G1 X200.901 Y149.475 E2.9582
G1 X201.41 Y149.475 E2.97646
G1 X202.601 Y150.666 E3.03688
G1 X202.601 Y150.158 E3.0551
G1 X201.918 Y149.475 E3.08975
G1 X202.427 Y149.475 E3.10801
G1 X203.027 Y150.075 E3.13845
G1 X203.535 Y150.075 E3.15667
G1 X202.935 Y149.475 E3.18711
G1 X203.444 Y149.475 E3.20537
G1 X204.044 Y150.075 E3.23581
G1 X204.552 Y150.075 E3.25403
G1 X203.952 Y149.475 E3.28447
G1 X204.461 Y149.475 E3.30273
G1 X205.061 Y150.075 E3.33317
G1 X205.569 Y150.075 E3.35139
G1 X204.969 Y149.475 E3.38183
G1 X205.477 Y149.475 E3.40005
G1 X205.883 Y149.881 E3.42065
G1 E1.42065 F1800
G92 E0
G1 X206.387 Y149.266 F4200
G1 E2 F1800
;TYPE:Gap fill
;WIDTH:0.116335
G1 F360
G1 X206.447 Y149.161 E2.00089
;WIDTH:0.120265
G1 X206.536 Y149.029 E2.00212
G1 E.00212 F1800
G92 E0
G1 X207.838 Y149.031 F4200
G1 E2 F1800
;WIDTH:0.235248
G1 F360
G1 X208.248 Y149.201 E2.00852
G1 X208.104 Y149.029 F4200
;WIDTH:0.144156
G1 F360
G1 X208.201 Y149.386 E2.01226
;WIDTH:0.137286
G1 X208.228 Y149.526 E2.0136
G1 E.0136 F1800
G92 E0
G1 X208.248 Y150.952 F4200
G1 E2 F1800
;WIDTH:0.497704
G1 F360
G1 X207.661 Y151.096 E2.02743
;WIDTH:0.392891
G1 X207.568 Y151.115 E2.03074
;WIDTH:0.35591
G1 X207.528 Y151.12 E2.032
;WIDTH:0.345292
G1 X207.249 Y151.139 E2.04044
;WIDTH:0.308737
G1 X207.214 Y151.139 E2.04137
;WIDTH:0.345294
G1 X206.936 Y151.12 E2.04978
;WIDTH:0.355911
G1 X206.895 Y151.115 E2.05107
;WIDTH:0.382295
G1 X206.661 Y151.068 E2.05915
G1 E.05915 F1800
G92 E0
G1 X208.35 Y151.445 F4200
G1 E2 F1800
;TYPE:Ironing
;WIDTH:0.400805
;HEIGHT:0.00375
G1 F270
G1 X208.35 Y148.9 E2.0019
G1 X208.25 Y148.9 E2.00197
G1 X208.25 Y151.4 E2.00384
G1 X208.15 Y151.4 E2.00391
G1 X208.15 Y148.9 E2.00578
G1 X208.05 Y148.9 E2.00585
G1 X208.05 Y149.482 E2.00629
G1 X207.95 Y149.346 E2.00642
G1 X207.95 Y148.9 E2.00675
G1 X207.85 Y148.9 E2.00682
G1 X207.85 Y149.24 E2.00707
G1 X207.75 Y149.163 E2.00716
G1 X207.75 Y148.9 E2.00736
G1 X207.65 Y148.9 E2.00743
G1 X207.65 Y149.105 E2.00758
G1 X207.55 Y149.063 E2.00766
G1 X207.55 Y148.9 E2.00778
G1 X207.45 Y148.9 E2.00785
G1 X207.45 Y149.029 E2.00795
G1 X207.35 Y149.016 E2.00803
G1 X207.35 Y148.9 E2.00812
G1 X207.25 Y148.9 E2.00819
G1 X207.25 Y149.002 E2.00827
G1 X207.15 Y149.011 E2.00835
G1 X207.15 Y148.9 E2.00843
G1 X207.05 Y148.9 E2.0085
G1 X207.05 Y149.024 E2.00859
G1 X206.95 Y149.048 E2.00867
G1 X206.95 Y148.9 E2.00878
G1 X206.85 Y148.9 E2.00885
G1 X206.85 Y149.09 E2.00899
G1 X206.75 Y149.135 E2.00907
G1 X206.75 Y148.9 E2.00925
G1 X206.65 Y148.9 E2.00932
G1 X206.65 Y149.212 E2.00955
G1 X206.55 Y149.299 E2.00965
G1 X206.55 Y148.9 E2.00995
G1 X206.45 Y148.9 E2.01002
G1 X206.45 Y149.429 E2.01042
G1 X206.35 Y149.636 E2.01059
G1 X206.35 Y148.855 E2.01117
G1 E.01117 F1800
G92 E0
G1 X206.379 Y148.947 F4200
G1 X208.257 Y149.002
G1 X208.174 Y151.151
G1 X207.998 Y151.186
G1 X208.05 Y151.445
G1 E2 F1800
G1 F270
G1 X208.05 Y150.395 E2.00079
G1 X207.95 Y150.531 E2.00092
G1 X207.95 Y151.4 E2.00157
G1 X207.85 Y151.4 E2.00164
G1 X207.85 Y150.637 E2.00221
G1 X207.75 Y150.714 E2.0023
G1 X207.75 Y151.4 E2.00281
G1 X207.65 Y151.4 E2.00288
G1 X207.65 Y150.773 E2.00335
G1 X207.55 Y150.814 E2.00343
G1 X207.55 Y151.4 E2.00387
G1 X207.45 Y151.4 E2.00394
G1 X207.45 Y150.848 E2.00435
G1 X207.35 Y150.862 E2.00443
G1 X207.35 Y151.4 E2.00483
