; generated by CreatWare 7.0.0 on 2022-06-24 at 21:03:57 UTC

; 

; external perimeters extrusion width = 0.40mm
; perimeters extrusion width = 0.40mm
; infill extrusion width = 0.40mm
; solid infill extrusion width = 0.40mm
; top infill extrusion width = 0.40mm

G21 ; set units to millimeters
G90 ; use absolute coordinates
M82 ; use absolute distances for extrusion
G92 E0
M107
M190 S45 ; set bed temperature and wait for it to be reached
M104 S210 ; set temperature
;TYPE:Custom
M109 S210 ; set temperature and wait for it to be reached
M6013 S0 ; set chamber temp

G28 X0 Y0  ;move X/Y to min endstops
G28 Z0     ;move Z to min endstops

;Add Clear Nozzle
G92 E0                   ;zero the extruded length again
G0 F4200 X0 Y0
G0 F400 X10 Z0.4         ;move a bit while down the Z
M221 T0 S300             ;set flow is 300%
G1 F200 X30 E8          ;extrude amont filament to clean the hotend
M221 T0 S100             ;reset flow is 100%
G92 E0                   ;zero the extruded length again
;Add End

G0 Z15.0 F4200 ;move the platform down 15mm

;Put printing message on LCD screen
M117 Printing...
; Filament gcode
M107
;LAYER_CHANGE
;Layer 1
;Z:0.2
;HEIGHT:0.2
;BEFORE_LAYER_CHANGE
;0.2


G1 Z.2 F4200
;AFTER_LAYER_CHANGE
;G92 E0   ;zero the extruded length again
;0.2
G1 E-2 F1800
G92 E0
G1 X186.004 Y141.848 F4200
G1 E2 F1800
;TYPE:Skirt/Brim
;WIDTH:0.4
G1 F360
G1 X188.347 Y139.505 E2.11806
G1 X190.191 Y138.222 E2.1981
G1 X192.842 Y137.643 E2.29478
G1 X207.158 Y137.643 E2.80485
G1 X209.369 Y138.04 E2.88489
G1 X211.653 Y139.505 E2.98157
G1 X213.996 Y141.848 E3.09963
G1 X215.279 Y143.692 E3.17967
G1 X215.858 Y146.343 E3.27635
G1 X215.858 Y153.657 E3.53694
G1 X215.461 Y155.868 E3.61698
G1 X213.996 Y158.152 E3.71366
G1 X211.653 Y160.495 E3.83172
G1 X209.809 Y161.778 E3.91176
G1 X207.158 Y162.357 E4.00844
G1 X192.842 Y162.357 E4.51851
G1 X190.631 Y161.96 E4.59855
G1 X188.347 Y160.495 E4.69523
G1 X186.004 Y158.152 E4.81329
G1 X184.721 Y156.308 E4.89333
G1 X184.142 Y153.657 E4.99001
G1 X184.142 Y146.343 E5.2506
G1 X184.539 Y144.132 E5.33064
G1 X185.971 Y141.899 E5.42516
G1 E3.42516 F1800
G92 E0
G1 X191.245 Y146.153 F4200
G1 E2 F1800
G1 F360
G1 X192.633 Y144.765 E2.06994
G1 X192.83 Y144.62 E2.07866
G1 X193.504 Y144.393 E2.104
G1 X206.509 Y144.397 E2.56736
G1 X206.862 Y144.481 E2.58029
G1 X207.348 Y144.746 E2.60001
G1 X208.755 Y146.153 E2.67091
G1 X209.021 Y146.642 E2.69074
G1 X209.108 Y147.03 E2.70491
G1 X209.108 Y152.968 E2.91648
G1 X209.071 Y153.21 E2.9252
G1 X208.755 Y153.847 E2.95054
G1 X207.367 Y155.235 E3.02048
G1 X207.17 Y155.38 E3.0292
G1 X206.496 Y155.607 E3.05454
G1 X193.491 Y155.603 E3.5179
G1 X193.138 Y155.519 E3.53083
G1 X192.652 Y155.254 E3.55055
G1 X191.264 Y153.866 E3.62049
G1 X191.119 Y153.669 E3.62921
G1 X190.892 Y152.995 E3.65455
G1 X190.906 Y146.908 E3.87143
G1 X190.979 Y146.64 E3.88133
G1 X191.216 Y146.206 E3.89895
G1 X191.517 Y146.386 F4200
G1 F360
G1 X192.875 Y145.028 E3.96738
G1 X193.017 Y144.926 E3.97361
G1 X193.533 Y144.75 E3.99303
G1 X206.488 Y144.754 E4.45461
G1 X206.716 Y144.808 E4.46296
G1 X207.115 Y145.018 E4.47902
G1 X208.483 Y146.386 E4.54795
G1 X208.694 Y146.785 E4.56403
G1 X208.751 Y147.049 E4.57365
G1 X208.751 Y152.953 E4.78401
G1 X208.723 Y153.126 E4.79025
G1 X208.482 Y153.615 E4.80967
G1 X207.125 Y154.972 E4.87805
G1 X206.983 Y155.074 E4.88428
G1 X206.467 Y155.25 E4.9037
G1 X193.512 Y155.246 E5.36528
G1 X193.284 Y155.192 E5.37363
G1 X192.885 Y154.982 E5.38969
G1 X191.527 Y153.624 E5.45812
G1 X191.425 Y153.482 E5.46435
G1 X191.249 Y152.966 E5.48377
G1 X191.257 Y146.974 E5.69726
G1 X191.306 Y146.786 E5.70418
G1 X191.489 Y146.439 E5.71816
G1 X191.791 Y146.617 F4200
G1 F360
G1 X193.116 Y145.292 E5.78492
G1 X193.201 Y145.232 E5.78863
G1 X193.563 Y145.107 E5.80228
G1 X206.467 Y145.111 E6.26204
G1 X206.576 Y145.136 E6.26602
G1 X206.884 Y145.292 E6.27832
G1 X208.209 Y146.617 E6.34508
G1 X208.364 Y146.923 E6.3573
G1 X208.394 Y147.066 E6.36251
G1 X208.394 Y152.937 E6.57169
G1 X208.376 Y153.039 E6.57538
G1 X208.208 Y153.384 E6.58905
G1 X206.884 Y154.708 E6.65576
G1 X206.799 Y154.768 E6.65947
G1 X206.437 Y154.893 E6.67312
G1 X193.533 Y154.889 E7.13288
G1 X193.424 Y154.864 E7.13686
G1 X193.116 Y154.708 E7.14916
G1 X191.791 Y153.383 E7.21592
G1 X191.731 Y153.298 E7.21963
G1 X191.606 Y152.936 E7.23328
G1 X191.61 Y147.034 E7.44357
G1 X191.635 Y146.925 E7.44755
G1 X191.764 Y146.671 E7.4577
G1 X192.067 Y146.846 F4200
G1 F360
G1 X193.354 Y145.559 E7.52255
G1 X193.595 Y145.464 E7.53178
G1 X206.448 Y145.47 E7.98973
G1 X206.655 Y145.568 E7.99789
G1 X207.933 Y146.846 E8.06229
G1 X208.031 Y147.053 E8.07045
G1 X208.031 Y152.947 E8.28045
G1 X207.933 Y153.154 E8.28861
G1 X206.646 Y154.441 E8.35346
G1 X206.405 Y154.536 E8.36269
G1 X193.552 Y154.53 E8.82064
G1 X193.345 Y154.432 E8.8288
G1 X192.057 Y153.145 E8.89367
G1 X191.963 Y152.904 E8.90289
G1 X191.963 Y147.083 E9.11029
G1 X192.041 Y146.9 E9.11738
G1 X192.348 Y147.07 F4200
G1 F360
G1 X193.569 Y145.849 E9.1789
G1 X193.635 Y145.821 E9.18145
G1 X206.365 Y145.821 E9.63501
G1 X206.431 Y145.849 E9.63756
G1 X207.652 Y147.07 E9.69908
G1 X207.68 Y147.136 E9.70163
G1 X207.68 Y152.864 E9.90572
G1 X207.652 Y152.93 E9.90827
G1 X206.431 Y154.151 E9.96979
G1 X206.365 Y154.179 E9.97234
G1 X193.635 Y154.179 E10.4259
G1 X193.569 Y154.151 E10.42845
G1 X192.348 Y152.93 E10.48997
G1 X192.32 Y152.864 E10.49252
G1 X192.325 Y147.126 E10.69696
G1 E8.69696 F1800
G92 E0
G1 X194.699 Y148.2 F4200
G1 E2 F1800
;TYPE:External perimeter
G1 F270
G1 X199.406 Y148.2 E2.16771
G1 X199.406 Y151.8 E2.29598
G1 X194.699 Y151.8 E2.46369
G1 X194.699 Y148.26 E2.58982
G1 X195.089 Y148.286 F4200
G1 X195.056 Y148.557
;TYPE:Inner perimeter
G1 F270
G1 X199.049 Y148.557 E2.73209
G1 X199.049 Y151.443 E2.83492
G1 X195.056 Y151.443 E2.97719
G1 X195.056 Y148.617 E3.07788
G1 E1.07788 F1800
G92 E0
G1 X196.022 Y149.504 F4200
G1 E2 F1800
;TYPE:External perimeter
G1 F270
G1 X196.169 Y149.391 E2.00661
G1 X196.338 Y149.321 E2.01313
G1 X196.505 Y149.299 E2.01913
G1 X196.699 Y149.321 E2.02609
G1 X196.871 Y149.391 E2.03271
G1 X197.016 Y149.503 E2.03924
G1 X197.127 Y149.648 E2.04575
G1 X197.198 Y149.818 E2.05231
G1 X197.221 Y149.999 E2.05881
G1 X197.198 Y150.181 E2.06535
G1 X197.133 Y150.337 E2.07137
G1 X197.018 Y150.494 E2.0783
G1 X196.871 Y150.607 E2.08491
G1 X196.701 Y150.677 E2.09146
G1 X196.52 Y150.701 E2.09797
G1 X196.338 Y150.677 E2.10451
G1 X196.182 Y150.612 E2.11053
G1 X196.025 Y150.497 E2.11746
G1 X195.912 Y150.35 E2.12407
G1 X195.842 Y150.181 E2.13059
G1 X195.818 Y149.999 E2.13713
G1 X195.842 Y149.818 E2.14364
G1 X195.906 Y149.662 E2.14965
G1 X195.986 Y149.553 E2.15447
G1 X195.974 Y149.325 F4200
G1 X195.698 Y149.342
;TYPE:Inner perimeter
G1 F270
G1 X195.764 Y149.252 E2.15845
G1 X195.989 Y149.08 E2.16854
G1 X196.245 Y148.973 E2.17843
G1 X196.501 Y148.94 E2.18763
G1 X196.789 Y148.971 E2.19795
G1 X197.051 Y149.08 E2.20806
G1 X197.271 Y149.248 E2.21792
G1 X197.439 Y149.468 E2.22778
G1 X197.545 Y149.724 E2.23765
G1 X197.582 Y149.999 E2.24754
G1 X197.545 Y150.274 E2.25743
G1 X197.446 Y150.513 E2.26665
G1 X197.276 Y150.746 E2.27693
G1 X197.051 Y150.919 E2.28704
G1 X196.795 Y151.025 E2.29691
G1 X196.52 Y151.061 E2.30679
G1 X196.245 Y151.025 E2.31667
G1 X196.006 Y150.926 E2.32589
G1 X195.773 Y150.755 E2.33619
G1 X195.6 Y150.53 E2.3463
G1 X195.494 Y150.274 E2.35617
G1 X195.458 Y149.999 E2.36605
G1 X195.494 Y149.724 E2.37593
G1 X195.593 Y149.485 E2.38515
G1 X195.663 Y149.39 E2.38935
G1 X195.339 Y149.357 F4200
;TYPE:Gap fill
;WIDTH:0.266279
G1 F360
G1 X195.503 Y148.736 E2.40366
G1 X195.234 Y149.002 F4200
;WIDTH:0.252574
G1 F360
G1 X195.861 Y148.833 E2.41724
;WIDTH:0.23835
G1 X195.969 Y148.812 E2.41939
;WIDTH:0.195357
G1 X196.077 Y148.79 E2.42107
;WIDTH:0.152364
G1 X196.186 Y148.769 E2.42228
;WIDTH:0.10937
G1 X196.194 Y148.768 E2.42233
;WIDTH:0.107116
G1 X196.342 Y148.758 E2.42328
G1 X196.067 Y148.736 F4200
;WIDTH:0.506262
G1 F360
G1 X195.466 Y148.967 E2.45305
;WIDTH:0.506261
G1 X195.234 Y149.608 E2.48457
G1 X195.339 Y149.357 F4200
;WIDTH:0.252673
G1 F360
G1 X195.319 Y149.458 E2.48672
;WIDTH:0.2124
G1 X195.299 Y149.559 E2.48846
;WIDTH:0.172128
G1 X195.279 Y149.661 E2.4898
;WIDTH:0.131856
G1 X195.277 Y149.672 E2.4899
;WIDTH:0.128839
G1 X195.257 Y149.985 E2.49259
G1 E.49259 F1800
G92 E0
G1 X195.234 Y151 F4200
G1 E2 F1800
;WIDTH:0.244145
G1 F360
G1 X195.882 Y151.17 E2.01345
;WIDTH:0.231886
G1 X195.983 Y151.19 E2.01539
;WIDTH:0.191614
G1 X196.084 Y151.21 E2.01692
;WIDTH:0.151341
G1 X196.185 Y151.23 E2.01803
;WIDTH:0.11107
G1 X196.194 Y151.231 E2.01809
;WIDTH:0.108758
G1 X196.354 Y151.242 E2.01914
G1 X196.049 Y151.264 F4200
;WIDTH:0.508029
G1 F360
G1 X195.467 Y151.032 E2.04822
;WIDTH:0.508026
G1 X195.234 Y150.366 E2.08096
G1 X195.234 Y150.257 F4200
;WIDTH:0.276702
G1 F360
G1 X195.506 Y151.264 E2.10529
G1 E.10529 F1800
G92 E0
G1 X196.685 Y151.242 F4200
G1 E2 F1800
;WIDTH:0.108756
G1 F360
G1 X196.845 Y151.231 E2.00105
;WIDTH:0.111068
G1 X197.173 Y151.188 E2.0033
G1 X197 Y151.264 F4200
;WIDTH:0.143384
G1 F360
G1 X197.17 Y151.112 E2.00559
;WIDTH:0.137989
G1 X197.303 Y150.976 E2.00739
G1 E.00739 F1800
G92 E0
G1 X197.972 Y151.336 F4200
G1 E2 F1800
;TYPE:Solid infill
;WIDTH:0.442926
G1 F432
G1 X197.694 Y151.058 E2.01569
G1 X197.731 Y151.02 E2.01781
G1 X197.542 Y150.836 E2.02834
G1 X197.681 Y150.645 E2.03777
G1 X197.73 Y150.528 E2.04283
G1 X198.377 Y151.175 E2.07935
G1 X198.781 Y151.175 E2.09547
G1 X198.781 Y151.013 E2.10194
G1 X197.842 Y150.074 E2.15494
G1 X197.852 Y149.999 E2.15796
G1 X197.806 Y149.654 E2.17185
G1 X197.678 Y149.345 E2.1852
G1 X198.781 Y150.448 E2.24746
G1 X198.781 Y149.882 E2.27005
G1 X197.724 Y148.825 E2.32971
G1 X198.29 Y148.825 E2.3523
G1 X198.942 Y149.477 E2.3891
G1 E.3891 F1800
G92 E0
G1 X196.991 Y148.736 F4200
G1 E2 F1800
;TYPE:Gap fill
;WIDTH:0.132843
G1 F360
G1 X197.167 Y148.89 E2.0021
;WIDTH:0.128273
G1 X197.285 Y149.008 E2.00352
G1 X197.177 Y148.833 F4200
;WIDTH:0.193399
G1 F360
G1 X197.011 Y148.8 E2.00606
;WIDTH:0.14973
G1 X196.846 Y148.767 E2.00785
;WIDTH:0.106059
G1 X196.837 Y148.766 E2.00791
;WIDTH:0.103836
G1 X196.694 Y148.758 E2.00878
G1 E.00878 F1800
G92 E0
G1 X199.35 Y151.795 F4200
G1 E2 F1800
;TYPE:Ironing
;WIDTH:0.400805
;HEIGHT:0.00375
G1 F270
G1 X199.35 Y148.25 E2.00265
G1 X199.25 Y148.25 E2.00272
G1 X199.25 Y151.75 E2.00534
G1 X199.15 Y151.75 E2.00541
G1 X199.15 Y148.25 E2.00803
G1 X199.05 Y148.25 E2.0081
G1 X199.05 Y151.75 E2.01072
G1 X198.95 Y151.75 E2.01079
G1 X198.95 Y148.25 E2.01341
G1 X198.85 Y148.25 E2.01348
G1 X198.85 Y151.75 E2.0161
G1 X198.75 Y151.75 E2.01617
G1 X198.75 Y148.25 E2.01879
G1 X198.65 Y148.25 E2.01886
G1 X198.65 Y151.75 E2.02148
G1 X198.55 Y151.75 E2.02155
G1 X198.55 Y148.25 E2.02417
G1 X198.45 Y148.25 E2.02424
G1 X198.45 Y151.75 E2.02686
G1 X198.35 Y151.75 E2.02693
G1 X198.35 Y148.25 E2.02955
G1 X198.25 Y148.25 E2.02962
G1 X198.25 Y151.75 E2.03224
G1 X198.15 Y151.75 E2.03231
G1 X198.15 Y148.25 E2.03493
G1 X198.05 Y148.25 E2.035
G1 X198.05 Y151.75 E2.03762
G1 X197.95 Y151.75 E2.03769
G1 X197.95 Y148.25 E2.04031
G1 X197.85 Y148.25 E2.04038
G1 X197.85 Y151.75 E2.043
G1 X197.75 Y151.75 E2.04307
G1 X197.75 Y148.25 E2.04569
G1 X197.65 Y148.25 E2.04576
G1 X197.65 Y151.75 E2.04838
G1 X197.55 Y151.75 E2.04845
G1 X197.55 Y148.25 E2.05107
G1 X197.45 Y148.25 E2.05114
G1 X197.45 Y151.75 E2.05376
G1 X197.35 Y151.75 E2.05383
G1 X197.35 Y148.25 E2.05645
G1 X197.25 Y148.25 E2.05652
G1 X197.25 Y151.75 E2.05914
G1 X197.15 Y151.75 E2.05921
G1 X197.15 Y150.403 E2.06022
G1 X197.05 Y150.532 E2.06034
G1 X197.05 Y151.75 E2.06125
G1 X196.95 Y151.75 E2.06132
G1 X196.95 Y150.609 E2.06217
G1 X196.85 Y150.67 E2.06226
G1 X196.85 Y151.75 E2.06307
G1 X196.75 Y151.75 E2.06314
G1 X196.75 Y150.711 E2.06392
G1 X196.65 Y150.734 E2.064
G1 X196.65 Y151.75 E2.06476
G1 X196.55 Y151.75 E2.06483
G1 X196.55 Y150.747 E2.06558
G1 X196.45 Y150.742 E2.06565
G1 X196.45 Y151.75 E2.0664
G1 X196.35 Y151.75 E2.06647
G1 X196.35 Y150.729 E2.06723
G1 X196.25 Y150.695 E2.06731
G1 X196.25 Y151.75 E2.0681
G1 X196.15 Y151.75 E2.06817
G1 X196.15 Y150.653 E2.06899
G1 X196.05 Y150.579 E2.06908
G1 X196.05 Y151.75 E2.06996
G1 X195.95 Y151.75 E2.07003
G1 X195.95 Y150.482 E2.07098
G1 X195.85 Y150.331 E2.07112
G1 X195.85 Y151.795 E2.07222
G1 E.07222 F1800
G92 E0
G1 X196.246 Y151.002 F4200
G1 X196.25 Y151.004
G1 X196.52 Y151.04
G1 X196.789 Y151.004
G1 X197.04 Y150.9
G1 X197.255 Y150.735
G1 X197.421 Y150.519
G1 X197.525 Y150.268
G1 X197.56 Y149.999
G1 X197.525 Y149.73
G1 X197.493 Y149.653
G1 X197.455 Y149.563
G1 X197.15 Y149.69
G1 E2 F1800
G1 F270
G1 X197.15 Y148.25 E2.00108
G1 X197.05 Y148.25 E2.00115
G1 X197.05 Y149.466 E2.00206
G1 X196.95 Y149.389 E2.00215
G1 X196.95 Y148.25 E2.003
G1 X196.85 Y148.25 E2.00307
G1 X196.85 Y149.329 E2.00388
G1 X196.75 Y149.287 E2.00396
G1 X196.75 Y148.25 E2.00474
G1 X196.65 Y148.25 E2.00481
G1 X196.65 Y149.264 E2.00557
G1 X196.55 Y149.251 E2.00565
G1 X196.55 Y148.25 E2.0064
G1 X196.45 Y148.25 E2.00647
G1 X196.45 Y149.256 E2.00722
G1 X196.35 Y149.269 E2.0073
G1 X196.35 Y148.25 E2.00806
G1 X196.25 Y148.25 E2.00813
G1 X196.25 Y149.304 E2.00892
G1 X196.15 Y149.345 E2.009
G1 X196.15 Y148.25 E2.00982
G1 X196.05 Y148.25 E2.00989
G1 X196.05 Y149.42 E2.01077
G1 X195.95 Y149.517 E2.01087
G1 X195.95 Y148.25 E2.01182
G1 X195.85 Y148.25 E2.01189
G1 X195.85 Y149.785 E2.01304
G1 E.01304 F1800
G92 E0
G1 X195.75 Y148.205 F4200
G1 E2 F1800
G1 F270
G1 X195.75 Y151.75 E2.00265
G1 X195.65 Y151.75 E2.00272
G1 X195.65 Y148.25 E2.00534
G1 X195.55 Y148.25 E2.00541
G1 X195.55 Y151.75 E2.00803
G1 X195.45 Y151.75 E2.0081
G1 X195.45 Y148.25 E2.01072
G1 X195.35 Y148.25 E2.01079
G1 X195.35 Y151.75 E2.01341
G1 X195.25 Y151.75 E2.01348
G1 X195.25 Y148.25 E2.0161
G1 X195.15 Y148.25 E2.01617
G1 X195.15 Y151.75 E2.01879
G1 X195.05 Y151.75 E2.01886
G1 X195.05 Y148.25 E2.02148
G1 X194.95 Y148.25 E2.02155
G1 X194.95 Y151.75 E2.02417
G1 X194.85 Y151.75 E2.02424
G1 X194.85 Y148.25 E2.02686
G1 X194.75 Y148.25 E2.02693
G1 X194.75 Y151.795 E2.02958
G1 E.02958 F1800
G92 E0
G1 X200.594 Y151.8 F4200
G1 E2 F1800
;TYPE:External perimeter
;WIDTH:0.4
;HEIGHT:0.2
G1 F270
G1 X200.594 Y148.2 E2.12827
G1 X205.301 Y148.2 E2.29598
G1 X205.301 Y151.8 E2.42425
G1 X200.654 Y151.8 E2.58982
G1 X200.714 Y151.419 F4200
G1 X200.951 Y151.443
;TYPE:Inner perimeter
G1 F270
G1 X200.951 Y148.557 E2.69265
G1 X204.944 Y148.557 E2.83492
G1 X204.944 Y151.443 E2.93775
G1 X201.011 Y151.443 E3.07788
G1 E1.07788 F1800
G92 E0
G1 X201.011 Y151.464 F4200
G1 X202.555 Y150.479
G1 X202.865 Y150.35
G1 E2 F1800
;TYPE:External perimeter
G1 F270
G1 X202.795 Y150.181 E2.00652
G1 X202.771 Y149.999 E2.01306
G1 X202.795 Y149.818 E2.01957
G1 X202.86 Y149.662 E2.02559
G1 X202.975 Y149.504 E2.03255
G1 X203.122 Y149.391 E2.03916
G1 X203.291 Y149.321 E2.04568
G1 X203.458 Y149.299 E2.05168
G1 X203.652 Y149.321 E2.05864
G1 X203.824 Y149.391 E2.06526
G1 X203.969 Y149.503 E2.07179
G1 X204.081 Y149.648 E2.07832
G1 X204.145 Y149.804 E2.08433
G1 X204.175 Y149.997 E2.09129
G1 X204.151 Y150.181 E2.0979
G1 X204.086 Y150.337 E2.10392
G1 X203.971 Y150.494 E2.11085
G1 X203.824 Y150.607 E2.11746
G1 X203.654 Y150.677 E2.12401
G1 X203.473 Y150.701 E2.13052
G1 X203.291 Y150.677 E2.13706
G1 X203.135 Y150.612 E2.14308
G1 X202.978 Y150.497 E2.15001
G1 X202.902 Y150.398 E2.15446
G1 X202.682 Y150.351 F4200
G1 X202.618 Y150.615
;TYPE:Inner perimeter
G1 F270
G1 X202.553 Y150.53 E2.15827
G1 X202.447 Y150.274 E2.16814
G1 X202.411 Y149.999 E2.17802
G1 X202.447 Y149.724 E2.1879
G1 X202.546 Y149.485 E2.19712
G1 X202.717 Y149.252 E2.20742
G1 X202.942 Y149.08 E2.21751
G1 X203.198 Y148.973 E2.2274
G1 X203.454 Y148.94 E2.2366
G1 X203.742 Y148.971 E2.24692
G1 X204.004 Y149.08 E2.25703
G1 X204.224 Y149.248 E2.26689
G1 X204.392 Y149.468 E2.27675
G1 X204.491 Y149.707 E2.28597
G1 X204.536 Y149.993 E2.29629
G1 X204.499 Y150.274 E2.30639
G1 X204.4 Y150.513 E2.31561
G1 X204.229 Y150.746 E2.32591
G1 X204.004 Y150.919 E2.33602
G1 X203.748 Y151.025 E2.34589
G1 X203.473 Y151.061 E2.35577
G1 X203.198 Y151.025 E2.36565
G1 X202.959 Y150.926 E2.37487
G1 X202.726 Y150.755 E2.38517
G1 X202.655 Y150.663 E2.38931
G1 X202.704 Y150.986 F4200
