; generated by CreatWare 7.0.0 on 2022-08-04 at 17:32:10 UTC

; 

; external perimeters extrusion width = 0.40mm
; perimeters extrusion width = 0.40mm
; infill extrusion width = 0.40mm
; solid infill extrusion width = 0.40mm
; top infill extrusion width = 0.40mm
; support material extrusion width = 0.40mm

; external perimeters extrusion width = 0.40mm
; perimeters extrusion width = 0.40mm
; infill extrusion width = 0.40mm
; solid infill extrusion width = 0.40mm
; top infill extrusion width = 0.40mm
; support material extrusion width = 0.40mm

; external perimeters extrusion width = 0.40mm
; perimeters extrusion width = 0.40mm
; infill extrusion width = 0.40mm
; solid infill extrusion width = 0.40mm
; top infill extrusion width = 0.40mm
; support material extrusion width = 0.40mm

; external perimeters extrusion width = 0.40mm
; perimeters extrusion width = 0.40mm
; infill extrusion width = 0.40mm
; solid infill extrusion width = 0.40mm
; top infill extrusion width = 0.40mm
; support material extrusion width = 0.40mm

; external perimeters extrusion width = 0.40mm
; perimeters extrusion width = 0.40mm
; infill extrusion width = 0.40mm
; solid infill extrusion width = 0.40mm
; top infill extrusion width = 0.40mm
; support material extrusion width = 0.40mm

; external perimeters extrusion width = 0.40mm
; perimeters extrusion width = 0.40mm
; infill extrusion width = 0.40mm
; solid infill extrusion width = 0.40mm
; top infill extrusion width = 0.40mm
; support material extrusion width = 0.40mm

; external perimeters extrusion width = 0.40mm
; perimeters extrusion width = 0.40mm
; infill extrusion width = 0.40mm
; solid infill extrusion width = 0.40mm
; top infill extrusion width = 0.40mm
; support material extrusion width = 0.40mm

; external perimeters extrusion width = 0.40mm
; perimeters extrusion width = 0.40mm
; infill extrusion width = 0.40mm
; solid infill extrusion width = 0.40mm
; top infill extrusion width = 0.40mm
; support material extrusion width = 0.40mm

; external perimeters extrusion width = 0.40mm
; perimeters extrusion width = 0.40mm
; infill extrusion width = 0.40mm
; solid infill extrusion width = 0.40mm
; top infill extrusion width = 0.40mm
; support material extrusion width = 0.40mm

; external perimeters extrusion width = 0.40mm
; perimeters extrusion width = 0.40mm
; infill extrusion width = 0.40mm
; solid infill extrusion width = 0.40mm
; top infill extrusion width = 0.40mm
; support material extrusion width = 0.40mm

G21 ; set units to millimeters
G90 ; use absolute coordinates
M82 ; use absolute distances for extrusion
G92 E0
M107
M190 S45 ; set bed temperature and wait for it to be reached
M104 S210 ; set temperature
;TYPE:Custom
M109 S210 ; set temperature and wait for it to be reached
M6013 S0 ; set chamber temp

G28 X0 Y0  ;move X/Y to min endstops
G28 Z0     ;move Z to min endstops

;Add Clear Nozzle
G92 E0                   ;zero the extruded length again
G0 F4200 X0 Y0
G0 F400 X10 Z0.4         ;move a bit while down the Z
M221 T0 S300             ;set flow is 300%
G1 F200 X30 E8          ;extrude amont filament to clean the hotend
M221 T0 S100             ;reset flow is 100%
G92 E0                   ;zero the extruded length again
;Add End

G0 Z15.0 F4200 ;move the platform down 15mm

;Put printing message on LCD screen
M117 Printing...
; Filament gcode
M107
;LAYER_CHANGE
;Layer 1
;Z:0.2
;HEIGHT:0.2
;BEFORE_LAYER_CHANGE
;0.2


G1 Z.2 F3000
;AFTER_LAYER_CHANGE
;G92 E0   ;zero the extruded length again
;0.2
G1 E-2 F1800
G92 E0
G1 X91.514 Y78.981 F3000
G1 E2 F1800
;TYPE:Skirt/Brim
;WIDTH:0.4
G1 F720
G1 X93.858 Y76.638 E2.11808
G1 X95.702 Y75.355 E2.19812
G1 X97.907 Y74.792 E2.2792
G1 X129.056 Y72.6 E3.39177
G1 X155.946 Y72.587 E4.34985
G1 X228.697 Y74.508 E6.94284
G1 X229.818 Y74.638 E6.98305
G1 X232.009 Y75.092 E7.06277
G1 X234.093 Y75.929 E7.14279
G1 X235.215 Y76.821 E7.19386
G1 X236.602 Y78.77 E7.27909
G1 X237.154 Y80.832 E7.35515
G1 X241.338 Y125.759 E8.96281
G1 X241.365 Y138.105 E9.40269
G1 X240.969 Y140.316 E9.48272
G1 X239.868 Y142.213 E9.56087
G1 X238.145 Y143.761 E9.6434
G1 X175.162 Y182.255 E12.27339
G1 X173.069 Y183.069 E12.3534
G1 X171.872 Y183.188 E12.39626
G1 X127.027 Y183.366 E13.99408
G1 X100.799 Y183.367 E14.92857
G1 X98.164 Y182.795 E15.02464
G1 X97.7 Y182.583 E15.04282
G1 X95.84 Y181.293 E15.12347
G1 X93.497 Y178.95 E15.24153
G1 X92.215 Y177.106 E15.32155
G1 X91.681 Y175.216 E15.39153
G1 X86.876 Y135.388 E16.82087
G1 X86.844 Y125.895 E17.1591
G1 X89.666 Y83.059 E18.68864
G1 X90.208 Y80.878 E18.76871
G1 X91.48 Y79.031 E18.84861
G1 E16.84861 F1800
G92 E0
G1 X96.756 Y83.286 F3000
G1 E2 F1800
G1 F720
G1 X98.241 Y81.82 E2.07435
G1 X98.482 Y81.683 E2.08423
G1 X99.015 Y81.526 E2.10403
G1 X110.963 Y81.53 E2.52973
G1 X111.316 Y81.614 E2.54266
G1 X111.802 Y81.879 E2.56238
G1 X113.209 Y83.286 E2.63328
G1 X113.475 Y83.775 E2.65311
G1 X113.562 Y84.163 E2.66728
G1 X113.548 Y91.225 E2.9189
G1 X113.475 Y91.493 E2.9288
G1 X113.208 Y91.981 E2.94862
G1 X111.723 Y93.446 E3.02294
G1 X111.482 Y93.583 E3.03282
G1 X110.95 Y93.74 E3.05258
G1 X99.04 Y93.74 E3.47693
G1 X98.651 Y93.653 E3.49113
G1 X98.162 Y93.386 E3.51098
G1 X96.697 Y91.902 E3.58528
G1 X96.559 Y91.661 E3.59517
G1 X96.403 Y91.128 E3.61496
G1 X96.417 Y84.041 E3.86747
G1 X96.49 Y83.774 E3.87733
G1 X96.728 Y83.338 E3.89503
G1 X97.028 Y83.519 F3000
G1 F720
G1 X98.443 Y82.116 E3.96603
G1 X98.61 Y82.017 E3.97295
G1 X99.043 Y81.883 E3.9891
G1 X110.942 Y81.887 E4.41306
G1 X111.17 Y81.941 E4.42141
G1 X111.569 Y82.152 E4.43749
G1 X112.937 Y83.519 E4.5064
G1 X113.148 Y83.918 E4.52248
G1 X113.205 Y84.182 E4.5321
G1 X113.197 Y91.159 E4.78069
G1 X113.148 Y91.347 E4.78761
G1 X112.936 Y91.748 E4.80377
G1 X111.522 Y93.151 E4.87474
G1 X111.355 Y93.249 E4.88164
G1 X110.922 Y93.383 E4.89779
G1 X99.058 Y93.383 E5.3205
G1 X98.795 Y93.326 E5.33009
G1 X98.395 Y93.115 E5.3462
G1 X96.992 Y91.7 E5.4172
G1 X96.893 Y91.533 E5.42412
G1 X96.76 Y91.1 E5.44026
G1 X96.768 Y84.107 E5.68942
G1 X96.816 Y83.92 E5.6963
G1 X97 Y83.572 E5.71033
G1 X97.302 Y83.75 F3000
G1 F720
G1 X98.65 Y82.407 E5.77813
G1 X98.745 Y82.348 E5.78211
G1 X99.073 Y82.241 E5.7944
G1 X110.921 Y82.244 E6.21654
G1 X111.03 Y82.27 E6.22053
G1 X111.338 Y82.425 E6.23282
G1 X112.663 Y83.75 E6.29958
G1 X112.818 Y84.056 E6.3118
G1 X112.848 Y84.2 E6.31704
G1 X112.844 Y91.1 E6.56288
G1 X112.819 Y91.208 E6.56683
G1 X112.663 Y91.516 E6.57913
G1 X111.315 Y92.859 E6.64693
G1 X111.22 Y92.918 E6.65091
G1 X110.892 Y93.026 E6.66321
G1 X99.076 Y93.026 E7.08421
G1 X98.933 Y92.996 E7.08942
G1 X98.627 Y92.841 E7.10164
G1 X97.283 Y91.493 E7.16946
G1 X97.225 Y91.398 E7.17343
G1 X97.117 Y91.07 E7.18573
G1 X97.12 Y84.167 E7.43168
G1 X97.146 Y84.058 E7.43567
G1 X97.275 Y83.804 E7.44582
G1 X97.578 Y83.979 F3000
G1 F720
G1 X98.865 Y82.692 E7.51067
G1 X99.106 Y82.598 E7.51989
G1 X110.872 Y82.598 E7.93911
G1 X111.109 Y82.701 E7.94832
G1 X112.387 Y83.979 E8.01272
G1 X112.491 Y84.216 E8.02194
G1 X112.491 Y91.05 E8.26543
G1 X112.387 Y91.287 E8.27465
G1 X111.099 Y92.575 E8.33955
G1 X110.859 Y92.669 E8.34873
G1 X99.093 Y92.669 E8.76795
G1 X98.856 Y92.565 E8.77717
G1 X97.568 Y91.278 E8.84204
G1 X97.474 Y91.037 E8.85126
G1 X97.474 Y84.216 E9.09429
G1 X97.552 Y84.033 E9.10138
G1 X97.858 Y84.204 F3000
G1 F720
G1 X99.08 Y82.982 E9.16295
G1 X99.146 Y82.955 E9.16549
G1 X110.819 Y82.955 E9.58139
G1 X110.885 Y82.982 E9.58393
G1 X112.106 Y84.204 E9.64548
G1 X112.134 Y84.269 E9.648
G1 X112.134 Y90.997 E9.88772
G1 X112.106 Y91.063 E9.89027
G1 X110.885 Y92.285 E9.95182
G1 X110.819 Y92.312 E9.95436
G1 X99.146 Y92.312 E10.37026
G1 X99.08 Y92.285 E10.3728
G1 X97.858 Y91.063 E10.43437
G1 X97.831 Y90.997 E10.43691
G1 X97.835 Y84.259 E10.67698
G1 E8.67698 F1800
G92 E0
G1 X127.088 Y84.259 F3000
G1 E2 F1800
G1 F720
G1 X127.088 Y82.185 E2.0739
G1 X127.125 Y81.943 E2.08262
G1 X127.441 Y81.306 E2.10796
G1 X128.848 Y79.899 E2.17886
G1 X129.336 Y79.633 E2.19866
G1 X129.725 Y79.546 E2.21286
G1 X147.01 Y79.55 E2.82872
G1 X147.363 Y79.634 E2.84165
G1 X147.849 Y79.899 E2.86137
G1 X149.256 Y81.306 E2.93227
G1 X149.522 Y81.794 E2.95207
G1 X149.609 Y82.183 E2.96627
G1 X149.609 Y87.791 E3.16608
G1 X149.572 Y88.033 E3.1748
G1 X149.256 Y88.67 E3.20014
G1 X147.849 Y90.077 E3.27104
G1 X147.361 Y90.343 E3.29084
G1 X146.972 Y90.43 E3.30504
G1 X129.688 Y90.426 E3.92086
G1 X129.336 Y90.343 E3.93375
G1 X128.848 Y90.077 E3.95355
G1 X127.441 Y88.67 E4.02445
G1 X127.175 Y88.181 E4.04428
G1 X127.088 Y87.793 E4.05845
G1 X127.088 Y84.319 E4.18223
G1 X127.445 Y84.319 F3000
G1 F720
G1 X127.445 Y82.2 E4.25773
G1 X127.473 Y82.027 E4.26397
G1 X127.714 Y81.538 E4.28339
G1 X129.081 Y80.171 E4.35227
G1 X129.48 Y79.96 E4.36835
G1 X129.743 Y79.903 E4.37794
G1 X146.989 Y79.907 E4.99241
G1 X147.218 Y79.961 E5.00079
G1 X147.617 Y80.171 E5.01685
G1 X148.984 Y81.539 E5.08576
G1 X149.195 Y81.938 E5.10184
G1 X149.252 Y82.201 E5.11143
G1 X149.252 Y87.776 E5.31006
G1 X149.224 Y87.949 E5.3163
G1 X148.983 Y88.438 E5.33572
G1 X147.617 Y89.805 E5.40457
G1 X147.217 Y90.016 E5.42068
G1 X146.954 Y90.073 E5.43027
G1 X129.708 Y90.069 E6.04474
G1 X129.481 Y90.016 E6.05305
G1 X129.081 Y89.805 E6.06916
G1 X127.713 Y88.437 E6.13809
G1 X127.502 Y88.038 E6.15417
G1 X127.445 Y87.774 E6.16379
G1 X127.445 Y84.379 E6.28475
G1 X127.802 Y84.379 F3000
G1 F720
G1 X127.802 Y82.216 E6.36182
G1 X127.82 Y82.114 E6.36551
G1 X127.988 Y81.769 E6.37918
G1 X129.312 Y80.445 E6.44589
G1 X129.618 Y80.29 E6.45811
G1 X129.761 Y80.26 E6.46332
G1 X146.969 Y80.264 E7.07643
G1 X147.077 Y80.289 E7.08038
G1 X147.385 Y80.445 E7.09268
G1 X148.71 Y81.77 E7.15944
G1 X148.865 Y82.076 E7.17166
G1 X148.895 Y82.219 E7.17687
G1 X148.895 Y87.76 E7.37429
G1 X148.877 Y87.862 E7.37798
G1 X148.709 Y88.207 E7.39165
G1 X147.385 Y89.531 E7.45836
G1 X147.079 Y89.686 E7.47058
G1 X146.936 Y89.716 E7.47579
G1 X129.761 Y89.716 E8.08773
G1 X129.618 Y89.686 E8.09294
G1 X129.312 Y89.531 E8.10516
G1 X127.987 Y88.206 E8.17192
G1 X127.832 Y87.9 E8.18414
G1 X127.802 Y87.757 E8.18935
G1 X127.802 Y84.439 E8.30757
G1 X128.159 Y84.439 F3000
G1 F720
G1 X128.165 Y82.206 E8.38713
G1 X128.263 Y81.999 E8.39529
G1 X129.541 Y80.721 E8.45969
G1 X129.748 Y80.623 E8.46785
G1 X146.919 Y80.617 E9.07965
G1 X147.156 Y80.721 E9.08887
G1 X148.434 Y81.999 E9.15327
G1 X148.532 Y82.206 E9.16143
G1 X148.538 Y87.74 E9.3586
G1 X148.434 Y87.977 E9.36782
G1 X147.156 Y89.255 E9.43222
G1 X146.919 Y89.359 E9.44144
G1 X129.778 Y89.359 E10.05217
G1 X129.541 Y89.255 E10.06139
G1 X128.263 Y87.977 E10.12579
G1 X128.165 Y87.77 E10.13395
G1 X128.159 Y84.499 E10.25049
G1 X128.516 Y84.499 F3000
G1 F720
G1 X128.516 Y82.289 E10.32923
G1 X128.544 Y82.223 E10.33178
G1 X129.765 Y81.002 E10.3933
G1 X129.831 Y80.974 E10.39585
G1 X146.866 Y80.974 E11.0028
G1 X146.932 Y81.002 E11.00535
G1 X148.154 Y82.223 E11.0669
G1 X148.181 Y82.289 E11.06944
G1 X148.181 Y87.687 E11.26177
G1 X148.154 Y87.753 E11.26431
G1 X146.932 Y88.974 E11.32586
G1 X146.866 Y89.002 E11.32841
G1 X129.831 Y89.002 E11.93536
G1 X129.765 Y88.974 E11.93791
G1 X128.544 Y87.753 E11.99943
G1 X128.516 Y87.687 E12.00198
G1 X128.516 Y84.559 E12.11343
G1 E10.11343 F1800
G92 E0
G1 X170.14 Y85.523 F3000
G1 E2 F1800
G1 F720
G1 X170.177 Y85.281 E2.00872
G1 X170.493 Y84.644 E2.03406
G1 X171.9 Y83.237 E2.10496
G1 X172.389 Y82.971 E2.12479
G1 X172.777 Y82.884 E2.13896
G1 X190.062 Y82.887 E2.75482
G1 X190.415 Y82.972 E2.76776
G1 X190.902 Y83.237 E2.78751
G1 X192.309 Y84.644 E2.85841
G1 X192.575 Y85.132 E2.87821
G1 X192.661 Y85.521 E2.8924
G1 X192.661 Y91.129 E3.09221
G1 X192.624 Y91.371 E3.10093
G1 X192.309 Y92.008 E3.12625
G1 X190.902 Y93.415 E3.19715
G1 X190.413 Y93.681 E3.21698
G1 X190.025 Y93.768 E3.23115
G1 X172.74 Y93.764 E3.84701
G1 X172.389 Y93.681 E3.85986
G1 X171.9 Y93.415 E3.87969
G1 X170.493 Y92.008 E3.95059
G1 X170.227 Y91.519 E3.97042
G1 X170.14 Y91.131 E3.98459
G1 X170.14 Y85.583 E4.18226
G1 X170.497 Y85.583 F3000
G1 F720
G1 X170.525 Y85.365 E4.19009
G1 X170.766 Y84.876 E4.20951
G1 X172.133 Y83.509 E4.27839
G1 X172.532 Y83.298 E4.29447
G1 X172.796 Y83.241 E4.30409
G1 X190.042 Y83.244 E4.91856
G1 X190.27 Y83.298 E4.92691
G1 X190.669 Y83.509 E4.94299
G1 X192.036 Y84.877 E5.0119
G1 X192.247 Y85.276 E5.02798
G1 X192.304 Y85.539 E5.03757
G1 X192.304 Y91.114 E5.2362
G1 X192.277 Y91.287 E5.24244
G1 X192.035 Y91.776 E5.26188
G1 X190.669 Y93.143 E5.33073
G1 X190.269 Y93.353 E5.34683
G1 X190.006 Y93.411 E5.35643
G1 X172.76 Y93.407 E5.9709
G1 X172.534 Y93.354 E5.97917
G1 X172.133 Y93.143 E5.99531
G1 X170.766 Y91.775 E6.06422
G1 X170.555 Y91.376 E6.0803
G1 X170.497 Y91.112 E6.08993
G1 X170.497 Y85.643 E6.28479
G1 X170.855 Y85.643 F3000
G1 F720
G1 X170.872 Y85.452 E6.29162
G1 X171.04 Y85.107 E6.30529
G1 X172.364 Y83.783 E6.372
G1 X172.67 Y83.628 E6.38422
G1 X172.814 Y83.598 E6.38946
G1 X190.021 Y83.602 E7.00254
G1 X190.129 Y83.627 E7.00649
G1 X190.438 Y83.783 E7.01882
G1 X191.763 Y85.108 E7.08558
G1 X191.917 Y85.414 E7.09779
G1 X191.947 Y85.557 E7.103
G1 X191.947 Y91.098 E7.30042
G1 X191.929 Y91.2 E7.30411
G1 X191.762 Y91.545 E7.31777
G1 X190.438 Y92.869 E7.38448
G1 X190.131 Y93.024 E7.39673
G1 X189.988 Y93.054 E7.40194
G1 X172.814 Y93.054 E8.01384
G1 X172.67 Y93.024 E8.01908
G1 X172.364 Y92.869 E8.0313
G1 X171.039 Y91.544 E8.09806
G1 X170.884 Y91.238 E8.11028
G1 X170.855 Y91.095 E8.11548
G1 X170.855 Y85.703 E8.30759
G1 X171.212 Y85.703 F3000
G1 F720
G1 X171.218 Y85.544 E8.31326
G1 X171.315 Y85.337 E8.3214
G1 X172.593 Y84.059 E8.3858
G1 X172.83 Y83.955 E8.39502
G1 X190.002 Y83.961 E9.00685
G1 X190.209 Y84.059 E9.01501
G1 X191.487 Y85.337 E9.07941
G1 X191.584 Y85.544 E9.08755
G1 X191.584 Y91.108 E9.28579
G1 X191.487 Y91.315 E9.29393
G1 X190.209 Y92.593 E9.35833
G1 X189.972 Y92.697 E9.36755
G1 X172.8 Y92.691 E9.97938
G1 X172.593 Y92.593 E9.98754
G1 X171.315 Y91.315 E10.05194
G1 X171.218 Y91.108 E10.06008
G1 X171.212 Y85.763 E10.25052
G1 X171.569 Y85.763 F3000
G1 F720
G1 X171.569 Y85.627 E10.25537
G1 X171.596 Y85.561 E10.25791
G1 X172.818 Y84.339 E10.31948
G1 X172.883 Y84.312 E10.32199
G1 X189.919 Y84.312 E10.92898
G1 X189.984 Y84.339 E10.93149
G1 X191.206 Y85.561 E10.99306
G1 X191.233 Y85.627 E10.9956
G1 X191.233 Y91.025 E11.18793
G1 X191.206 Y91.09 E11.19044
G1 X189.984 Y92.312 E11.25201
G1 X189.919 Y92.339 E11.25452
G1 X172.883 Y92.339 E11.86151
G1 X172.818 Y92.312 E11.86402
G1 X171.596 Y91.09 E11.92559
G1 X171.569 Y91.025 E11.9281
G1 X171.569 Y85.823 E12.11344
G1 E10.11344 F1800
G92 E0
G1 X213.33 Y85.904 F3000
G1 E2 F1800
G1 F720
G1 X213.334 Y83.771 E2.076
G1 X213.407 Y83.503 E2.0859
G1 X213.674 Y83.015 E2.10572
G1 X215.158 Y81.55 E2.18002
G1 X215.399 Y81.413 E2.1899
G1 X215.932 Y81.256 E2.2097
G1 X227.88 Y81.26 E2.6354
G1 X228.233 Y81.344 E2.64833
G1 X228.719 Y81.609 E2.66805
G1 X230.126 Y83.016 E2.73895
G1 X230.392 Y83.505 E2.75878
G1 X230.479 Y83.893 E2.77295
G1 X230.465 Y90.955 E3.02457
G1 X230.392 Y91.223 E3.03447
G1 X230.125 Y91.711 E3.05429
G1 X228.641 Y93.176 E3.12859
G1 X228.399 Y93.313 E3.1385
G1 X227.867 Y93.47 E3.15826
G1 X215.957 Y93.47 E3.58261
G1 X215.568 Y93.383 E3.59681
G1 X215.079 Y93.116 E3.61666
G1 X213.614 Y91.632 E3.69096
G1 X213.477 Y91.39 E3.70087
G1 X213.32 Y90.858 E3.72063
G1 X213.329 Y85.964 E3.895
G1 X213.683 Y85.965 F3000
G1 F720
G1 X213.685 Y83.837 E3.97082
G1 X213.734 Y83.649 E3.97774
G1 X213.945 Y83.249 E3.99385
G1 X215.36 Y81.845 E4.06487
G1 X215.527 Y81.747 E4.07177
G1 X215.96 Y81.613 E4.08792
G1 X227.859 Y81.617 E4.51188
G1 X228.087 Y81.671 E4.52023
G1 X228.486 Y81.881 E4.53629
G1 X229.854 Y83.249 E4.60522
G1 X230.065 Y83.648 E4.6213
G1 X230.122 Y83.912 E4.63092
G1 X230.114 Y90.889 E4.87951
G1 X230.065 Y91.077 E4.88643
G1 X229.854 Y91.477 E4.90254
G1 X228.439 Y92.881 E4.97356
G1 X228.272 Y92.979 E4.98046
G1 X227.839 Y93.113 E4.99661
G1 X215.975 Y93.113 E5.41932
G1 X215.712 Y93.056 E5.42891
G1 X215.312 Y92.845 E5.44502
G1 X213.909 Y91.43 E5.51602
G1 X213.811 Y91.263 E5.52292
G1 X213.677 Y90.83 E5.53907
G1 X213.683 Y86.025 E5.71027
G1 X214.036 Y86.025 F3000
G1 F720
G1 X214.038 Y83.897 E5.78609
G1 X214.063 Y83.788 E5.79007
G1 X214.219 Y83.48 E5.80237
G1 X215.567 Y82.137 E5.87017
G1 X215.662 Y82.078 E5.87415
