; generated by CreatWare 7.0.0 on 2022-06-29 at 20:35:02 UTC

; 

; external perimeters extrusion width = 0.40mm
; perimeters extrusion width = 0.40mm
; infill extrusion width = 0.40mm
; solid infill extrusion width = 0.40mm
; top infill extrusion width = 0.40mm
; support material extrusion width = 0.40mm

G21 ; set units to millimeters
G90 ; use absolute coordinates
M82 ; use absolute distances for extrusion
G92 E0
M107
M190 S130 ; set bed temperature and wait for it to be reached
M104 S460 ; set temperature
;TYPE:Custom
M109 S460 ; set temperature and wait for it to be reached
M6013 S70 ; set chamber temp

G28 X0 Y0  ;move X/Y to min endstops
G28 Z0     ;move Z to min endstops

;Add Clear Nozzle
G92 E0                   ;zero the extruded length again
G0 F4200 X0 Y0
G0 F400 X10 Z0.4         ;move a bit while down the Z
M221 T0 S300             ;set flow is 300%
G1 F200 X30 E8          ;extrude amont filament to clean the hotend
M221 T0 S100             ;reset flow is 100%
G92 E0                   ;zero the extruded length again
;Add End

G0 Z15.0 F4200 ;move the platform down 15mm

;Put printing message on LCD screen
M117 Printing...
; Filament gcode
M107
;LAYER_CHANGE
;Layer 1
;Z:0.1
;HEIGHT:0.1
;BEFORE_LAYER_CHANGE
;0.1


G1 Z.1 F4200
;AFTER_LAYER_CHANGE
;G92 E0   ;zero the extruded length again
;0.1
G1 E-2 F1800
G92 E0
G1 X180.797 Y133.786 F4200
G1 E2 F1800
;TYPE:Skirt/Brim
;WIDTH:0.4
G1 F720
G1 X182.755 Y132.39 E2.09083
G1 X184.246 Y131.916 E2.14992
G1 X187.892 Y131.277 E2.28973
G1 X203.337 Y130.211 E2.87449
G1 X211.63 Y130.211 E3.18772
G1 X213.845 Y130.608 E3.27272
G1 X216.141 Y132.079 E3.37571
G1 X218.484 Y134.422 E3.50086
G1 X219.769 Y136.269 E3.58585
G1 X220.352 Y138.906 E3.68786
G1 X220.384 Y161.06 E4.52464
G1 X219.987 Y163.275 E4.60964
G1 X218.516 Y165.57 E4.7126
G1 X216.173 Y167.913 E4.83775
G1 X214.326 Y169.199 E4.92276
G1 X211.665 Y169.782 E5.02565
G1 X188.341 Y169.79 E5.90662
G1 X185.278 Y169.008 E6.02602
G1 X182.357 Y167.41 E6.15178
G1 X180.908 Y166.324 E6.22018
G1 X179.512 Y164.367 E6.31098
G1 X178.929 Y161.703 E6.41398
G1 X178.929 Y138.297 E7.29804
G1 X179.326 Y136.082 E7.38304
G1 X180.765 Y133.837 E7.48376
G1 E5.48376 F1800
G92 E0
G1 X186.684 Y139.713 F4200
G1 E2 F1800
G1 F720
G1 X188.131 Y138.278 E2.07697
G1 X188.423 Y138.103 E2.08983
G1 X188.989 Y137.937 E2.11211
G1 X202.41 Y137.937 E2.61903
G1 X203.182 Y137.191 E2.65958
G1 X203.603 Y136.978 E2.6774
G1 X203.932 Y136.895 E2.69022
G1 X211.081 Y136.901 E2.96024
G1 X211.365 Y136.978 E2.97135
G1 X211.882 Y137.26 E2.99359
G1 X213.284 Y138.663 E3.06851
G1 X213.51 Y139.019 E3.08444
G1 X213.677 Y139.585 E3.10673
G1 X213.673 Y145.18 E3.31806
G1 X213.585 Y145.553 E3.33254
G1 X213.371 Y145.976 E3.35045
G1 X213.105 Y146.272 E3.36548
G1 X213.367 Y146.546 E3.3798
G1 X213.503 Y146.757 E3.38928
G1 X213.709 Y147.408 E3.41507
G1 X213.709 Y160.408 E3.90609
G1 X213.543 Y160.974 E3.92837
G1 X213.316 Y161.33 E3.94432
G1 X211.869 Y162.765 E4.02129
G1 X211.578 Y162.94 E4.03412
G1 X211.011 Y163.107 E4.05645
G1 X188.991 Y163.115 E4.88816
G1 X188.425 Y162.948 E4.91045
G1 X188.068 Y162.722 E4.92641
G1 X186.665 Y161.319 E5.00135
G1 X186.383 Y160.801 E5.02363
G1 X186.291 Y160.39 E5.03954
G1 X186.291 Y154.775 E5.25162
G1 X186.377 Y154.377 E5.267
G1 X186.606 Y153.891 E5.28729
G1 X186.483 Y153.686 E5.29632
G1 X186.291 Y153.067 E5.3208
G1 X186.291 Y147.425 E5.5339
G1 X186.381 Y147.015 E5.54975
G1 X186.597 Y146.589 E5.56779
G1 X186.875 Y146.282 E5.58343
G1 X186.634 Y146.028 E5.59666
G1 X186.477 Y145.774 E5.60794
G1 X186.291 Y145.166 E5.63196
G1 X186.291 Y140.635 E5.8031
G1 X186.457 Y140.069 E5.82538
G1 X186.651 Y139.764 E5.83903
G1 X186.965 Y139.967 F4200
G1 F720
G1 X188.35 Y138.587 E5.91288
G1 X188.56 Y138.457 E5.92221
G1 X189.019 Y138.315 E5.94036
G1 X202.565 Y138.315 E6.452
G1 X203.379 Y137.515 E6.49511
G1 X203.756 Y137.325 E6.51106
G1 X203.956 Y137.273 E6.51887
G1 X211.012 Y137.273 E6.78538
G1 X211.21 Y137.324 E6.7931
G1 X211.635 Y137.549 E6.81126
G1 X213.003 Y138.916 E6.88431
G1 X213.157 Y139.157 E6.89511
G1 X213.298 Y139.614 E6.91317
G1 X213.295 Y145.158 E7.12257
G1 X213.237 Y145.402 E7.13204
G1 X213.047 Y145.777 E7.14792
G1 X212.568 Y146.273 E7.17396
G1 X213.061 Y146.77 E7.2004
G1 X213.172 Y146.942 E7.20813
G1 X213.331 Y147.438 E7.2278
G1 X213.331 Y160.378 E7.71655
G1 X213.189 Y160.836 E7.73466
G1 X213.035 Y161.076 E7.74543
G1 X211.65 Y162.456 E7.81928
G1 X211.44 Y162.586 E7.82861
G1 X210.981 Y162.728 E7.84676
G1 X189.02 Y162.736 E8.67625
G1 X188.562 Y162.595 E8.69435
G1 X188.322 Y162.44 E8.70514
G1 X186.954 Y161.073 E8.77819
G1 X186.73 Y160.649 E8.7963
G1 X186.669 Y160.37 E8.80709
G1 X186.669 Y154.795 E9.01766
G1 X186.728 Y154.518 E9.02836
G1 X186.881 Y154.194 E9.04189
G1 X187.133 Y153.908 E9.05629
G1 X186.947 Y153.713 E9.06647
G1 X186.833 Y153.54 E9.0743
G1 X186.669 Y153.036 E9.09432
G1 X186.669 Y147.445 E9.3055
G1 X186.73 Y147.164 E9.31636
G1 X186.92 Y146.788 E9.33227
G1 X187.412 Y146.28 E9.35898
G1 X186.939 Y145.803 E9.38435
G1 X186.828 Y145.632 E9.39205
G1 X186.669 Y145.136 E9.41172
G1 X186.669 Y140.665 E9.58059
G1 X186.811 Y140.207 E9.5987
G1 X186.933 Y140.018 E9.6072
G1 X187.246 Y140.222 F4200
G1 F720
G1 X188.575 Y138.892 E9.67822
G1 X188.705 Y138.807 E9.68409
G1 X189.051 Y138.694 E9.69784
G1 X202.723 Y138.694 E10.21424
G1 X203.578 Y137.839 E10.25991
G1 X203.905 Y137.674 E10.27374
G1 X204.02 Y137.647 E10.2782
G1 X210.948 Y137.647 E10.53988
G1 X211.063 Y137.674 E10.54434
G1 X211.39 Y137.839 E10.55817
G1 X212.722 Y139.171 E10.62932
G1 X212.806 Y139.3 E10.63513
G1 X212.92 Y139.646 E10.64889
G1 X212.916 Y145.136 E10.85625
G1 X212.889 Y145.251 E10.86071
G1 X212.724 Y145.578 E10.87454
G1 X212.032 Y146.27 E10.9115
G1 X212.776 Y147.02 E10.9514
G1 X212.838 Y147.121 E10.95588
G1 X212.952 Y147.468 E10.96968
G1 X212.952 Y160.347 E11.45613
G1 X212.839 Y160.692 E11.46984
G1 X212.754 Y160.822 E11.47571
G1 X211.425 Y162.151 E11.5467
G1 X211.295 Y162.236 E11.55257
G1 X210.949 Y162.349 E11.56632
G1 X189.052 Y162.357 E12.39339
G1 X188.706 Y162.244 E12.40714
G1 X188.576 Y162.159 E12.41301
G1 X187.244 Y160.827 E12.48416
G1 X187.08 Y160.503 E12.49788
G1 X187.048 Y160.351 E12.50375
G1 X187.048 Y154.814 E12.71289
G1 X187.08 Y154.66 E12.71883
G1 X187.209 Y154.387 E12.73023
G1 X187.671 Y153.905 E12.75545
G1 X187.244 Y153.477 E12.77829
G1 X187.18 Y153.387 E12.78246
G1 X187.048 Y153.003 E12.7978
G1 X187.048 Y147.464 E13.00701
G1 X187.08 Y147.312 E13.01288
G1 X187.244 Y146.988 E13.0266
G1 X187.948 Y146.283 E13.06423
G1 X187.224 Y145.553 E13.10306
G1 X187.162 Y145.453 E13.1075
G1 X187.048 Y145.105 E13.12133
G1 X187.048 Y140.697 E13.28782
G1 X187.161 Y140.351 E13.30157
G1 X187.213 Y140.272 E13.30514
G1 X187.524 Y140.48 F4200
G1 F720
G1 X188.831 Y139.172 E13.37498
G1 X189.086 Y139.072 E13.38533
G1 X202.88 Y139.072 E13.90634
G1 X203.821 Y138.131 E13.9566
G1 X204.072 Y138.022 E13.96694
G1 X210.896 Y138.022 E14.22469
G1 X211.147 Y138.131 E14.23503
G1 X212.441 Y139.426 E14.30418
G1 X212.541 Y139.681 E14.31453
G1 X212.541 Y145.084 E14.51861
G1 X212.431 Y145.335 E14.52896
G1 X211.496 Y146.27 E14.5789
G1 X212.474 Y147.248 E14.63114
G1 X212.574 Y147.504 E14.64152
G1 X212.574 Y160.311 E15.12525
G1 X212.474 Y160.567 E15.13563
G1 X211.169 Y161.871 E15.20531
G1 X210.914 Y161.971 E15.21566
G1 X189.087 Y161.979 E16.04008
G1 X188.832 Y161.879 E16.05043
G1 X187.536 Y160.585 E16.1196
G1 X187.426 Y160.333 E16.12999
G1 X187.426 Y154.832 E16.33777
G1 X187.536 Y154.58 E16.34816
G1 X188.209 Y153.907 E16.38411
G1 X187.526 Y153.225 E16.42057
G1 X187.426 Y152.969 E16.43095
G1 X187.426 Y147.482 E16.6382
G1 X187.536 Y147.23 E16.64859
G1 X188.484 Y146.283 E16.6992
G1 X187.526 Y145.325 E16.75037
G1 X187.426 Y145.07 E16.76072
G1 X187.426 Y140.732 E16.92457
G1 X187.497 Y140.534 E16.93251
G1 X187.834 Y140.704 F4200
G1 F720
G1 X189.059 Y139.479 E16.99794
G1 X189.128 Y139.451 E17.00075
G1 X203.037 Y139.451 E17.5261
G1 X204.059 Y138.429 E17.58069
G1 X204.128 Y138.4 E17.58352
G1 X210.84 Y138.4 E17.83704
G1 X210.909 Y138.429 E17.83987
G1 X212.134 Y139.654 E17.9053
G1 X212.163 Y139.723 E17.90813
G1 X212.163 Y145.028 E18.1085
G1 X212.134 Y145.097 E18.11133
G1 X210.961 Y146.27 E18.17399
G1 X212.166 Y147.476 E18.23838
G1 X212.195 Y147.546 E18.24124
G1 X212.195 Y160.269 E18.7218
G1 X212.166 Y160.339 E18.72466
G1 X210.941 Y161.564 E18.79009
G1 X210.872 Y161.592 E18.7929
G1 X189.129 Y161.6 E19.61415
G1 X189.059 Y161.572 E19.617
G1 X187.834 Y160.347 E19.68243
G1 X187.805 Y160.277 E19.68529
G1 X187.805 Y154.888 E19.88884
G1 X187.834 Y154.818 E19.8917
G1 X188.744 Y153.907 E19.94034
G1 X187.834 Y152.997 E19.98895
G1 X187.805 Y152.927 E19.99181
G1 X187.805 Y147.538 E20.19536
G1 X187.834 Y147.468 E20.19822
G1 X189.02 Y146.283 E20.26154
G1 X187.834 Y145.097 E20.32489
G1 X187.805 Y145.028 E20.32772
G1 X187.811 Y140.76 E20.48893
G1 E18.48893 F1800
G92 E0
G1 X187.352 Y138.375 F4200
G1 E2 F1800
;TYPE:Support material
G1 F720
G1 X186.204 Y139.818 E2.06965
G1 X185.794 Y141.617 E2.13934
G1 X185.794 Y144.173 E2.23588
G1 X185.901 Y145.116 E2.27173
G1 X186.457 Y146.265 E2.31994
G1 X186.204 Y146.582 E2.33526
G1 X185.794 Y148.382 E2.40499
G1 X185.794 Y152.072 E2.54436
G1 X185.901 Y153.015 E2.58021
G1 X186.292 Y153.822 E2.61408
G1 X186.204 Y153.932 E2.6194
G1 X185.794 Y155.731 E2.68909
G1 X185.794 Y159.422 E2.8285
G1 X185.902 Y160.367 E2.86443
G1 X186.511 Y161.625 E2.91722
G1 X185.497 Y161.625 E2.95552
G1 X185.497 Y138.375 E3.83369
G1 X187.296 Y138.375 E3.90164
G1 X186.12 Y139.65 F4200
G1 F720
G1 X186.12 Y138.546 E3.94334
G1 E1.94334 F1800
G92 E0
G1 X208.244 Y142.375 F4200
G1 E2 F1800
G1 F720
G1 X207.912 Y142.95 E2.02508
G1 X207.248 Y142.95 E2.05016
G1 X206.916 Y142.375 E2.07524
G1 X207.248 Y141.8 E2.10032
G1 X207.912 Y141.8 E2.1254
G1 X208.215 Y142.326 E2.14833
G1 X207.571 Y142.78 F4200
G1 F720
G1 X207.571 Y141.971 E2.17889
G1 E.17889 F1800
G92 E0
G1 X209.692 Y158.11 F4200
G1 E2 F1800
;TYPE:Solid infill
;WIDTH:0.406314
G1 F288
G1 X209.324 Y157.742 E2.01998
G1 X209.125 Y158.087 E2.03527
G1 X209.522 Y158.483 E2.0568
G1 X209.522 Y158.919 E2.07354
G1 X209.414 Y158.92 E2.07769
G1 X208.926 Y158.432 E2.10419
G1 X208.727 Y158.777 E2.11948
G1 X209.04 Y159.09 E2.13648
G1 E.13648 F1800
G92 E0
G1 X208.914 Y154.61 F4200
G1 E2 F1800
G1 F288
G1 X209.522 Y155.218 E2.03302
G1 X209.522 Y155.762 E2.05391
G1 X208.54 Y154.78 E2.10724
G1 X207.995 Y154.78 E2.12817
G1 X209.522 Y156.306 E2.21107
G1 X209.522 Y156.851 E2.232
G1 X207.451 Y154.78 E2.34447
G1 X206.907 Y154.78 E2.36536
G1 X207.743 Y155.616 E2.41076
G1 X207.199 Y155.616 E2.43165
G1 X206.363 Y154.78 E2.47705
G1 X205.818 Y154.78 E2.49798
G1 X206.655 Y155.616 E2.54341
G1 X206.49 Y155.616 E2.54975
G1 X206.351 Y155.856 E2.5604
G1 X205.49 Y154.995 E2.60716
G1 X205.49 Y155.54 E2.62809
G1 X206.151 Y156.202 E2.66401
G1 X205.952 Y156.547 E2.6793
G1 X205.49 Y156.084 E2.70442
G1 X205.49 Y156.238 E2.71033
G1 X205.099 Y156.238 E2.72534
G1 X205.753 Y156.892 E2.76086
G1 X205.554 Y157.237 E2.77615
G1 X204.555 Y156.238 E2.8304
G1 X204.011 Y156.238 E2.85129
G1 X205.92 Y158.147 E2.95496
G1 X206.366 Y158.921 E2.98926
G1 X206.149 Y158.921 E2.99759
G1 X203.466 Y156.238 E3.1433
G1 X202.922 Y156.238 E3.16419
G1 X205.605 Y158.921 E3.3099
G1 X205.061 Y158.921 E3.33079
G1 X202.378 Y156.238 E3.4765
G1 X201.834 Y156.238 E3.49739
G1 X204.517 Y158.921 E3.6431
G1 X203.973 Y158.922 E3.66399
G1 X201.289 Y156.238 E3.80975
G1 X200.745 Y156.238 E3.83064
G1 X203.429 Y158.922 E3.9764
G1 X202.885 Y158.922 E3.99729
G1 X200.201 Y156.238 E4.14305
G1 X199.657 Y156.238 E4.16394
G1 X202.341 Y158.922 E4.3097
G1 X201.797 Y158.922 E4.33059
G1 X199.112 Y156.238 E4.47638
G1 X198.568 Y156.238 E4.49727
G1 X201.253 Y158.923 E4.64308
G1 X200.709 Y158.923 E4.66397
G1 X198.024 Y156.238 E4.80978
G1 X197.479 Y156.238 E4.83071
G1 X200.165 Y158.923 E4.97655
G1 X199.621 Y158.923 E4.99744
G1 X196.935 Y156.238 E5.14328
G1 X196.391 Y156.238 E5.16417
G1 X199.077 Y158.923 E5.31001
G1 X198.533 Y158.924 E5.3309
G1 X195.847 Y156.238 E5.47677
G1 X195.302 Y156.238 E5.4977
G1 X197.988 Y158.924 E5.64357
G1 X197.444 Y158.924 E5.66446
G1 X194.758 Y156.238 E5.81033
G1 X194.214 Y156.238 E5.83122
G1 X196.9 Y158.924 E5.97709
G1 X196.356 Y158.924 E5.99798
G1 X193.67 Y156.238 E6.14385
G1 X193.125 Y156.238 E6.16478
G1 X195.812 Y158.925 E6.3107
G1 X195.268 Y158.925 E6.33159
G1 X192.581 Y156.238 E6.47751
G1 X192.037 Y156.238 E6.4984
G1 X194.724 Y158.925 E6.64432
G1 X194.18 Y158.925 E6.66521
G1 X191.493 Y156.238 E6.81113
G1 X190.948 Y156.238 E6.83206
G1 X193.636 Y158.925 E6.97801
G1 X193.092 Y158.926 E6.9989
G1 X190.478 Y156.312 E7.14086
G1 X190.478 Y156.856 E7.16175
G1 X192.548 Y158.926 E7.27417
G1 X192.004 Y158.926 E7.29506
G1 X190.478 Y157.4 E7.37793
G1 X190.478 Y157.945 E7.39886
G1 X191.46 Y158.926 E7.45216
G1 X190.916 Y158.926 E7.47305
G1 X190.308 Y158.319 E7.50604
G1 E5.50604 F1800
G92 E0
G1 X205.206 Y155.954 F4200
G1 E2 F1800
;TYPE:External perimeter
;WIDTH:0.4
G1 F252
G1 X205.206 Y154.496 E2.05507
G1 X209.806 Y154.496 E2.22882
G1 X209.806 Y159.203 E2.40661
G1 X190.194 Y159.211 E3.14737
G1 X190.194 Y155.954 E3.27039
G1 X205.146 Y155.954 E3.83514
G1 E1.83514 F1800
G92 E0
G1 X206.653 Y155.9 F4200
G1 E2 F1800
G1 F270
G1 X208.357 Y155.9 E2.06436
G1 X209.208 Y157.375 E2.12868
G1 X208.357 Y158.85 E2.193
G1 X206.653 Y158.85 E2.25736
G1 X205.802 Y157.375 E2.32168
G1 X206.623 Y155.952 E2.38373
G1 E.38373 F1800
G92 E0
G1 X209.692 Y149.51 F4200
G1 E2 F1800
;TYPE:Solid infill
;WIDTH:0.409204
G1 F288
G1 X209.078 Y148.896 E2.03359
G1 X208.644 Y148.896 E2.05038
G1 X208.801 Y149.167 E2.0625
G1 X209.692 Y150.058 E2.11125
G1 E.11125 F1800
G92 E0
G1 X209.207 Y150.67 F4200
G1 E2 F1800
G1 F288
G1 X209.522 Y150.985 E2.01724
G1 X209.522 Y151.533 E2.03844
G1 X209.131 Y151.142 E2.05983
G1 X208.93 Y151.49 E2.07538
G1 X209.522 Y152.081 E2.10774
G1 X209.522 Y152.63 E2.12898
G1 X208.729 Y151.837 E2.17237
G1 X208.529 Y152.185 E2.1879
G1 X209.379 Y153.035 E2.23441
G1 X208.83 Y153.035 E2.25565
G1 X207.994 Y152.199 E2.30139
G1 X207.446 Y152.199 E2.32259
G1 X208.452 Y153.205 E2.37763
G1 E.37763 F1800
G92 E0
G1 X206.48 Y149.039 F4200
G1 E2 F1800
G1 F288
G1 X206.336 Y148.896 E2.00785
G1 X205.788 Y148.896 E2.02905
G1 X206.154 Y149.262 E2.04908
G1 X205.953 Y149.61 E2.06463
G1 X205.239 Y148.896 E2.1037
G1 X204.691 Y148.896 E2.1249
G1 X205.753 Y149.957 E2.18298
G1 X205.552 Y150.305 E2.19853
G1 X204.142 Y148.895 E2.27568
G1 X203.594 Y148.895 E2.29688
G1 X205.932 Y151.233 E2.4248
G1 X206.49 Y152.199 E2.46796
G1 X206.898 Y152.199 E2.48375
G1 X207.734 Y153.035 E2.52949
G1 X207.185 Y153.035 E2.55073
G1 X203.045 Y148.895 E2.77725
G1 X202.496 Y148.894 E2.79849
G1 X206.637 Y153.035 E3.02506
G1 X206.089 Y153.035 E3.04626
G1 X205.49 Y152.436 E3.07903
G1 X205.49 Y152.984 E3.10023
G1 X205.711 Y153.205 E3.11232
G1 E1.11232 F1800
G92 E0
G1 X204.801 Y151.748 F4200
G1 E2 F1800
G1 F288
G1 X201.948 Y148.894 E2.15613
G1 X201.399 Y148.894 E2.17737
G1 X204.082 Y151.577 E2.32417
G1 X203.534 Y151.577 E2.34537
G1 X200.851 Y148.894 E2.49217
G1 X200.302 Y148.893 E2.51341
G1 X202.986 Y151.577 E2.66026
G1 X202.437 Y151.577 E2.6815
G1 X199.753 Y148.893 E2.82835
G1 X199.205 Y148.893 E2.84955
G1 X201.889 Y151.577 E2.9964
G1 X201.341 Y151.577 E3.0176
G1 X198.656 Y148.893 E3.16448
G1 X198.107 Y148.892 E3.18572
G1 X200.792 Y151.577 E3.33263
G1 X200.244 Y151.577 E3.35383
G1 X197.559 Y148.892 E3.50074
G1 X197.01 Y148.892 E3.52198
G1 X199.696 Y151.577 E3.66892
G1 X199.147 Y151.577 E3.69016
G1 X196.462 Y148.891 E3.8371
G1 X195.913 Y148.891 E3.85834
G1 X198.599 Y151.577 E4.0053
G1 X198.051 Y151.577 E4.0265
G1 X195.364 Y148.891 E4.17349
G1 X194.816 Y148.891 E4.19469
G1 X197.502 Y151.577 E4.34165
G1 X196.954 Y151.577 E4.36285
G1 X194.267 Y148.89 E4.50987
G1 X193.718 Y148.89 E4.53111
G1 X196.406 Y151.577 E4.67816
G1 X195.857 Y151.577 E4.6994
G1 X193.17 Y148.89 E4.84642
G1 X192.621 Y148.89 E4.86766
G1 X195.309 Y151.577 E5.01471
G1 X194.76 Y151.577 E5.03595
G1 X192.073 Y148.889 E5.183
G1 X191.524 Y148.889 E5.20424
G1 X194.212 Y151.577 E5.35131
G1 X193.664 Y151.577 E5.37251
G1 X190.975 Y148.889 E5.51961
G1 X190.478 Y148.888 E5.53884
