; generated by CreatWare 7.0.0 on 2022-06-29 at 04:05:48 UTC

; 

; external perimeters extrusion width = 0.40mm
; perimeters extrusion width = 0.40mm
; infill extrusion width = 0.40mm
; solid infill extrusion width = 0.40mm
; top infill extrusion width = 0.40mm
; support material extrusion width = 0.40mm

G21 ; set units to millimeters
G90 ; use absolute coordinates
M82 ; use absolute distances for extrusion
G92 E0
M107
M190 S45 ; set bed temperature and wait for it to be reached
M104 S210 ; set temperature
;TYPE:Custom
M109 S210 ; set temperature and wait for it to be reached
M6013 S0 ; set chamber temp

G28 X0 Y0  ;move X/Y to min endstops
G28 Z0     ;move Z to min endstops

;Add Clear Nozzle
G92 E0                   ;zero the extruded length again
G0 F4200 X0 Y0
G0 F400 X10 Z0.4         ;move a bit while down the Z
M221 T0 S300             ;set flow is 300%
G1 F200 X30 E8          ;extrude amont filament to clean the hotend
M221 T0 S100             ;reset flow is 100%
G92 E0                   ;zero the extruded length again
;Add End

G0 Z15.0 F4200 ;move the platform down 15mm

;Put printing message on LCD screen
M117 Printing...
; Filament gcode
M107
;LAYER_CHANGE
;Layer 1
;Z:0.1
;HEIGHT:0.1
;BEFORE_LAYER_CHANGE
;0.1


G1 Z.1 F4200
;AFTER_LAYER_CHANGE
;G92 E0   ;zero the extruded length again
;0.1
G1 E-2 F1800
G92 E0
G1 X182.259 Y134.317 F4200
G1 E2 F1800
;TYPE:Skirt/Brim
;WIDTH:0.4
G1 F720
G1 X184.602 Y131.974 E2.06258
G1 X186.448 Y130.688 E2.10507
G1 X189.112 Y130.105 E2.15657
G1 X210.888 Y130.105 E2.56782
G1 X213.103 Y130.502 E2.61032
G1 X215.398 Y131.974 E2.66181
G1 X217.741 Y134.317 E2.72439
G1 X219.027 Y136.163 E2.76688
G1 X219.61 Y138.827 E2.81838
G1 X219.61 Y161.152 E3.24
G1 X219.126 Y163.588 E3.2869
G1 X217.709 Y167.018 E3.35699
G1 X216.325 Y169.092 E3.40408
G1 X214.367 Y170.488 E3.44949
G1 X211.703 Y171.071 E3.50099
G1 X188.297 Y171.071 E3.94302
G1 X186.082 Y170.674 E3.98552
G1 X183.786 Y169.203 E4.03702
G1 X182.296 Y167.03 E4.08678
G1 X180.879 Y163.621 E4.1565
G1 X180.39 Y161.173 E4.20364
G1 X180.39 Y138.827 E4.62565
G1 X180.787 Y136.612 E4.66815
G1 X182.226 Y134.367 E4.71851
G1 E2.71851 F1800
G92 E0
G1 X187.439 Y138.576 F4200
G1 E2 F1800
G1 F720
G1 X188.862 Y137.154 E2.03799
G1 X189.432 Y136.853 E2.05016
G1 X189.794 Y136.78 E2.05713
G1 X194.309 Y136.784 E2.1424
G1 X194.67 Y136.867 E2.1494
G1 X195.162 Y137.102 E2.1597
G1 X195.377 Y136.972 E2.16444
G1 X195.995 Y136.78 E2.17666
G1 X202.061 Y136.78 E2.29122
G1 X202.669 Y136.966 E2.30323
G1 X202.925 Y137.125 E2.30892
G1 X203.115 Y137.299 E2.31379
G1 X203.306 Y137.125 E2.31867
G1 X203.562 Y136.966 E2.32436
G1 X204.17 Y136.78 E2.33637
G1 X210.236 Y136.78 E2.45093
G1 X210.803 Y136.947 E2.46209
G1 X211.127 Y137.149 E2.4693
G1 X212.541 Y138.556 E2.50697
G1 X212.694 Y138.764 E2.51185
G1 X212.935 Y139.479 E2.5261
G1 X212.935 Y160.5 E2.92309
G1 X212.768 Y161.067 E2.93425
G1 X212.566 Y161.392 E2.94148
G1 X211.159 Y162.805 E2.97914
G1 X210.951 Y162.958 E2.98402
G1 X210.236 Y163.199 E2.99827
G1 X204.57 Y163.199 E3.10527
G1 X204.005 Y163.033 E3.11639
G1 X203.749 Y162.887 E3.12196
G1 X203.112 Y162.269 E3.13872
G1 X202.474 Y162.887 E3.15549
G1 X202.218 Y163.033 E3.16106
G1 X201.654 Y163.199 E3.17216
G1 X195.986 Y163.199 E3.2792
G1 X195.365 Y163.006 E3.29148
G1 X195.162 Y162.877 E3.29602
G1 X194.915 Y163.028 E3.30149
G1 X194.297 Y163.22 E3.31371
G1 X189.764 Y163.22 E3.39932
G1 X189.197 Y163.053 E3.41048
G1 X188.873 Y162.851 E3.41769
G1 X187.459 Y161.444 E3.45536
G1 X187.306 Y161.236 E3.46024
G1 X187.065 Y160.521 E3.47449
G1 X187.065 Y139.507 E3.87135
G1 X187.105 Y139.251 E3.87624
G1 X187.413 Y138.63 E3.88933
G1 X187.729 Y138.821 F4200
G1 F720
G1 X189.107 Y137.443 E3.92613
G1 X189.578 Y137.203 E3.93611
G1 X189.811 Y137.159 E3.94059
G1 X194.287 Y137.163 E4.02512
G1 X194.526 Y137.218 E4.02975
G1 X194.85 Y137.371 E4.03652
G1 X195.145 Y137.632 E4.04396
G1 X195.35 Y137.436 E4.04932
G1 X195.523 Y137.322 E4.05323
G1 X196.026 Y137.159 E4.06322
G1 X202.031 Y137.159 E4.17663
G1 X202.527 Y137.318 E4.18647
G1 X202.698 Y137.429 E4.19032
G1 X203.115 Y137.842 E4.2014
G1 X203.533 Y137.429 E4.2125
G1 X203.704 Y137.318 E4.21635
G1 X204.2 Y137.159 E4.22619
G1 X210.206 Y137.159 E4.33962
G1 X210.664 Y137.3 E4.34867
G1 X210.904 Y137.455 E4.35407
G1 X212.262 Y138.812 E4.39033
G1 X212.37 Y138.962 E4.39382
G1 X212.556 Y139.51 E4.40475
G1 X212.556 Y160.471 E4.80061
G1 X212.415 Y160.928 E4.80964
G1 X212.26 Y161.169 E4.81505
G1 X210.903 Y162.526 E4.85129
G1 X210.753 Y162.634 E4.85478
G1 X210.205 Y162.82 E4.86571
G1 X204.599 Y162.82 E4.97158
G1 X204.14 Y162.679 E4.98065
G1 X203.963 Y162.574 E4.98454
G1 X203.112 Y161.735 E5.00711
G1 X202.26 Y162.574 E5.02969
G1 X202.083 Y162.679 E5.03358
G1 X201.624 Y162.82 E5.04265
G1 X196.017 Y162.82 E5.14854
G1 X195.518 Y162.658 E5.15845
G1 X195.136 Y162.378 E5.16739
G1 X194.942 Y162.564 E5.17247
G1 X194.769 Y162.677 E5.17637
G1 X194.266 Y162.841 E5.18636
G1 X189.794 Y162.841 E5.27082
G1 X189.336 Y162.7 E5.27987
G1 X189.096 Y162.545 E5.28527
G1 X187.738 Y161.188 E5.32153
G1 X187.63 Y161.038 E5.32502
G1 X187.444 Y160.49 E5.33595
G1 X187.444 Y139.523 E5.73192
G1 X187.474 Y139.34 E5.73542
G1 X187.703 Y138.875 E5.74521
G1 X188.019 Y139.066 F4200
G1 F720
G1 X189.352 Y137.734 E5.7808
G1 X189.717 Y137.556 E5.78847
G1 X189.826 Y137.537 E5.79056
G1 X194.265 Y137.541 E5.87439
G1 X194.382 Y137.569 E5.87666
G1 X194.657 Y137.699 E5.8824
G1 X195.148 Y138.169 E5.89524
G1 X195.585 Y137.733 E5.9069
G1 X195.675 Y137.67 E5.90897
G1 X196.059 Y137.537 E5.91664
G1 X202 Y137.537 E6.02884
G1 X202.348 Y137.652 E6.03576
G1 X202.448 Y137.714 E6.03798
G1 X203.115 Y138.375 E6.05571
G1 X203.783 Y137.714 E6.07346
G1 X203.883 Y137.652 E6.07568
G1 X204.231 Y137.537 E6.0826
G1 X210.175 Y137.537 E6.19485
G1 X210.52 Y137.651 E6.20171
G1 X210.65 Y137.736 E6.20464
G1 X211.981 Y139.067 E6.24019
G1 X212.045 Y139.158 E6.24229
G1 X212.178 Y139.542 E6.24996
G1 X212.178 Y160.439 E6.64461
G1 X212.064 Y160.784 E6.65147
G1 X211.979 Y160.914 E6.6544
G1 X210.648 Y162.246 E6.68996
G1 X210.557 Y162.309 E6.69205
G1 X210.173 Y162.442 E6.69972
G1 X204.631 Y162.442 E6.80438
G1 X204.283 Y162.328 E6.8113
G1 X204.183 Y162.265 E6.81353
G1 X203.112 Y161.2 E6.84205
G1 X202.041 Y162.265 E6.87057
G1 X201.94 Y162.328 E6.87282
G1 X201.592 Y162.442 E6.87974
G1 X196.05 Y162.442 E6.9844
G1 X195.666 Y162.309 E6.99207
G1 X195.576 Y162.246 E6.99414
G1 X195.152 Y161.822 E7.00546
G1 X194.707 Y162.267 E7.01735
G1 X194.617 Y162.33 E7.01942
G1 X194.232 Y162.463 E7.02711
G1 X189.825 Y162.463 E7.11034
G1 X189.48 Y162.349 E7.1172
G1 X189.35 Y162.264 E7.12013
G1 X188.019 Y160.933 E7.15568
G1 X187.955 Y160.842 E7.15778
G1 X187.823 Y160.458 E7.16545
G1 X187.823 Y139.541 E7.56048
G1 X187.841 Y139.432 E7.56257
G1 X187.993 Y139.12 E7.56912
G1 X188.311 Y139.31 F4200
G1 F720
G1 X189.595 Y138.026 E7.60341
G1 X189.846 Y137.916 E7.60859
G1 X194.213 Y137.916 E7.69106
G1 X194.464 Y138.026 E7.69624
G1 X195.145 Y138.707 E7.71443
G1 X195.838 Y138.016 E7.73291
G1 X196.093 Y137.916 E7.73808
G1 X201.965 Y137.916 E7.84898
G1 X202.22 Y138.016 E7.85415
G1 X203.115 Y138.911 E7.87805
G1 X204.011 Y138.016 E7.90197
G1 X204.266 Y137.916 E7.90714
G1 X210.139 Y137.916 E8.01805
G1 X210.395 Y138.016 E8.02324
G1 X211.699 Y139.32 E8.05807
G1 X211.799 Y139.576 E8.06326
G1 X211.799 Y160.404 E8.45661
G1 X211.699 Y160.659 E8.46178
G1 X210.395 Y161.963 E8.49661
G1 X210.139 Y162.063 E8.5018
G1 X204.666 Y162.063 E8.60516
G1 X204.411 Y161.963 E8.61033
G1 X203.112 Y160.664 E8.64502
G1 X201.813 Y161.963 E8.67971
G1 X201.557 Y162.063 E8.6849
G1 X196.084 Y162.063 E8.78826
G1 X195.829 Y161.963 E8.79343
G1 X195.152 Y161.286 E8.81151
G1 X194.454 Y161.984 E8.83015
G1 X194.199 Y162.084 E8.83532
G1 X189.861 Y162.084 E8.91724
G1 X189.605 Y161.984 E8.92243
G1 X188.301 Y160.68 E8.95726
G1 X188.201 Y160.424 E8.96245
G1 X188.201 Y139.561 E9.35646
G1 X188.285 Y139.365 E9.36049
G1 X188.608 Y139.548 F4200
G1 F720
G1 X189.833 Y138.323 E9.39321
G1 X189.903 Y138.295 E9.39463
G1 X194.157 Y138.295 E9.47497
G1 X194.226 Y138.323 E9.47638
G1 X195.145 Y139.242 E9.50092
G1 X196.065 Y138.323 E9.52548
G1 X196.135 Y138.295 E9.5269
G1 X201.922 Y138.295 E9.63619
G1 X201.992 Y138.323 E9.63761
G1 X203.115 Y139.447 E9.66762
G1 X204.239 Y138.323 E9.69764
G1 X204.308 Y138.295 E9.69905
G1 X210.097 Y138.295 E9.80838
G1 X210.167 Y138.323 E9.8098
G1 X211.392 Y139.548 E9.84252
G1 X211.42 Y139.618 E9.84394
G1 X211.42 Y160.362 E10.2357
G1 X211.392 Y160.431 E10.23711
G1 X210.167 Y161.656 E10.26983
G1 X210.097 Y161.685 E10.27126
G1 X204.708 Y161.685 E10.37303
G1 X204.639 Y161.656 E10.37444
G1 X203.414 Y160.431 E10.40716
G1 X203.385 Y160.362 E10.40857
G1 X203.385 Y145.79 E10.68377
G1 X203.115 Y145.521 E10.69097
G1 X202.838 Y145.798 E10.69837
G1 X202.838 Y160.362 E10.97342
G1 X202.81 Y160.431 E10.97483
G1 X201.585 Y161.656 E11.00755
G1 X201.515 Y161.685 E11.00898
G1 X196.126 Y161.685 E11.11075
G1 X196.057 Y161.656 E11.11216
G1 X195.152 Y160.751 E11.13633
G1 X194.226 Y161.677 E11.16106
G1 X194.157 Y161.705 E11.16247
G1 X189.903 Y161.705 E11.24281
G1 X189.833 Y161.677 E11.24423
G1 X188.608 Y160.452 E11.27695
G1 X188.58 Y160.382 E11.27837
G1 X188.585 Y139.604 E11.67077
G1 E9.67077 F1800
G92 E0
G1 X199.403 Y142.268 F4200
G1 E2 F1800
;TYPE:Support material
G1 F720
G1 X199.403 Y142.701 E2.00818
G1 X199.028 Y142.918 E2.01636
G1 X198.653 Y142.701 E2.02454
G1 X198.653 Y142.268 E2.03272
G1 X199.028 Y142.052 E2.04089
G1 X199.354 Y142.24 E2.048
G1 E.048 F1800
G92 E0
G1 X207.578 Y142.268 F4200
G1 E2 F1800
G1 F720
G1 X207.578 Y142.701 E2.00818
G1 X207.203 Y142.918 E2.01636
G1 X206.828 Y142.701 E2.02454
G1 X206.828 Y142.268 E2.03272
G1 X207.203 Y142.052 E2.04089
G1 X207.529 Y142.24 E2.048
G1 E.048 F1800
G92 E0
G1 X203.752 Y163.285 F4200
G1 E2 F1800
G1 F720
G1 X205.552 Y163.695 E2.03486
G1 X209.242 Y163.695 E2.10455
G1 X210.185 Y163.588 E2.12247
G1 X211.625 Y162.892 E2.15267
G1 X211.625 Y164.503 E2.18309
G1 X188.375 Y164.503 E2.62218
G1 X188.375 Y162.851 E2.65338
G1 X188.947 Y163.306 E2.66718
G1 X190.746 Y163.716 E2.70203
G1 X193.302 Y163.716 E2.7503
G1 X194.245 Y163.609 E2.76822
G1 X195.073 Y163.208 E2.78559
G1 X195.17 Y163.285 E2.78793
G1 X196.97 Y163.695 E2.82279
G1 X200.66 Y163.695 E2.89248
G1 X201.603 Y163.588 E2.9104
G1 X203.177 Y162.827 E2.94342
G1 X203.708 Y163.25 E2.95624
G1 X210.599 Y164.333 F4200
G1 F720
G1 X210.599 Y163.767 E2.96693
G1 X210.281 Y163.92 E2.97359
G1 X209.842 Y163.97 E2.98193
G1 X209.842 Y164.163 E2.98557
G1 X209.085 Y164.163 E2.99987
G1 X209.085 Y164.036 E3.00227
G1 X208.328 Y164.036 E3.01657
G1 X208.328 Y164.163 E3.01897
G1 X207.571 Y164.163 E3.03327
G1 X207.571 Y164.036 E3.03567
G1 X206.814 Y164.036 E3.04997
G1 X206.814 Y164.163 E3.05237
G1 X206.057 Y164.163 E3.06667
G1 X206.057 Y164.036 E3.06907
G1 X205.514 Y164.036 E3.07932
G1 X205.3 Y163.987 E3.08347
G1 X205.3 Y164.163 E3.08679
G1 X204.542 Y164.163 E3.10111
G1 X204.542 Y163.815 E3.10768
G1 X203.785 Y163.642 E3.12234
G1 X203.785 Y164.163 E3.13218
G1 X203.028 Y164.163 E3.14648
G1 X203.028 Y163.278 E3.16319
G1 X202.271 Y163.644 E3.17907
G1 X202.271 Y164.163 E3.18887
G1 X201.514 Y164.163 E3.20317
G1 X201.514 Y163.941 E3.20736
G1 X200.757 Y164.027 E3.22175
G1 X200.757 Y164.163 E3.22432
G1 X200 Y164.163 E3.23862
G1 X200 Y164.036 E3.24102
G1 X199.243 Y164.036 E3.25532
G1 X199.243 Y164.163 E3.25772
G1 X198.486 Y164.163 E3.27202
G1 X198.486 Y164.036 E3.27442
G1 X197.729 Y164.036 E3.28872
G1 X197.729 Y164.163 E3.29112
G1 X196.972 Y164.163 E3.30542
G1 X196.972 Y164.036 E3.30782
G1 X196.215 Y163.873 E3.32244
G1 X196.215 Y164.163 E3.32792
G1 X195.458 Y164.163 E3.34222
G1 X195.458 Y163.7 E3.35096
G1 X195.037 Y163.604 E3.35911
G1 X194.7 Y163.767 E3.36618
G1 X194.7 Y164.163 E3.37366
G1 X193.943 Y164.163 E3.38796
G1 X193.943 Y163.986 E3.3913
G1 X193.321 Y164.057 E3.40312
G1 X193.186 Y164.057 E3.40567
G1 X193.186 Y164.163 E3.40767
G1 X192.429 Y164.163 E3.42197
G1 X192.429 Y164.057 E3.42397
G1 X191.672 Y164.057 E3.43827
G1 X191.672 Y164.163 E3.44027
G1 X190.915 Y164.163 E3.45457
G1 X190.915 Y164.057 E3.45657
G1 X190.708 Y164.057 E3.46048
G1 X190.158 Y163.932 E3.47113
G1 X190.158 Y164.163 E3.47549
G1 X189.401 Y164.163 E3.48979
G1 X189.401 Y163.584 E3.50072
G1 E1.50072 F1800
G92 E0
G1 X208.918 Y144.09 F4200
G1 E2 F1800
;TYPE:Solid infill
;WIDTH:0.404757
G1 F288
G1 X208.56 Y143.732 E2.00968
G1 X208.216 Y143.931 E2.01728
G1 X208.747 Y144.462 E2.03164
G1 X208.747 Y145.004 E2.042
G1 X207.872 Y144.129 E2.06566
G1 X207.529 Y144.328 E2.07324
G1 X208.747 Y145.546 E2.10618
G1 X208.747 Y146.088 E2.11654
G1 X207.136 Y144.477 E2.16011
G1 X205.853 Y143.737 E2.18843
G1 X208.747 Y146.63 E2.26668
G1 X208.747 Y147.172 E2.27704
G1 X206.058 Y144.483 E2.34976
G1 X206.058 Y145.025 E2.36012
G1 X208.747 Y147.714 E2.43284
G1 X208.747 Y148.257 E2.44322
G1 X206.058 Y145.568 E2.51594
G1 X206.058 Y146.11 E2.5263
G1 X208.747 Y148.799 E2.59902
G1 X208.747 Y149.341 E2.60938
G1 X206.058 Y146.652 E2.6821
G1 X206.058 Y147.194 E2.69246
G1 X208.747 Y149.883 E2.76518
G1 X208.747 Y150.425 E2.77554
G1 X206.058 Y147.736 E2.84826
G1 X206.058 Y148.278 E2.85862
G1 X208.747 Y150.967 E2.93134
G1 X208.747 Y151.509 E2.9417
G1 X206.058 Y148.82 E3.01442
G1 X206.058 Y149.362 E3.02478
G1 X208.747 Y152.051 E3.0975
G1 X208.747 Y152.593 E3.10786
G1 X206.058 Y149.904 E3.18058
G1 X206.058 Y150.446 E3.19094
G1 X208.747 Y153.135 E3.26366
G1 X208.747 Y153.677 E3.27402
G1 X206.058 Y150.988 E3.34674
G1 X206.058 Y151.53 E3.3571
G1 X208.747 Y154.219 E3.42982
G1 X208.747 Y154.761 E3.44018
G1 X206.058 Y152.072 E3.5129
G1 X206.058 Y152.614 E3.52326
G1 X208.747 Y155.303 E3.59598
G1 X208.747 Y155.845 E3.60634
G1 X206.058 Y153.156 E3.67906
G1 X206.058 Y153.699 E3.68944
G1 X208.747 Y156.388 E3.76216
G1 X208.747 Y156.93 E3.77252
G1 X206.058 Y154.241 E3.84524
G1 X206.058 Y154.783 E3.8556
G1 X208.747 Y157.472 E3.92832
G1 X208.747 Y158.014 E3.93868
G1 X206.058 Y155.325 E4.0114
G1 X206.058 Y155.867 E4.02176
G1 X208.747 Y158.556 E4.09448
G1 X208.747 Y159.012 E4.1032
G1 X208.661 Y159.012 E4.10484
G1 X206.058 Y156.409 E4.17523
G1 X206.058 Y156.951 E4.18559
G1 X208.119 Y159.012 E4.24133
G1 X207.577 Y159.012 E4.25169
G1 X206.058 Y157.493 E4.29277
G1 X206.058 Y158.035 E4.30313
G1 X207.035 Y159.012 E4.32955
G1 X206.493 Y159.012 E4.33991
G1 X205.888 Y158.407 E4.35627
G1 E2.35627 F1800
G92 E0
G1 X205.737 Y140.797 F4200
G1 E2 F1800
;WIDTH:0.475707
G1 F288
G1 X206.181 Y141.241 E2.01423
G1 E.01423 F1800
G92 E0
G1 X207.992 Y140.797 F4200
G1 E2 F1800
G1 F288
G1 X208.722 Y141.527 E2.0234
G1 E.0234 F1800
G92 E0
G1 X205.774 Y144.284 F4200
G1 E2 F1800
;TYPE:External perimeter
;WIDTH:0.4
G1 F252
G1 X205.375 Y144.284 E2.00754
G1 X205.375 Y140.684 E2.07553
G1 X209.031 Y140.684 E2.14458
G1 X209.031 Y159.295 E2.49606
G1 X205.774 Y159.295 E2.55757
G1 X205.774 Y144.344 E2.83993
G1 E.83993 F1800
G92 E0
G1 X205.728 Y143.336 F4200
G1 E2 F1800
G1 F270
G1 X205.728 Y141.633 E2.03216
G1 X207.203 Y140.781 E2.06433
G1 X208.678 Y141.633 E2.0965
G1 X208.678 Y143.336 E2.12866
G1 X207.203 Y144.188 E2.16083
G1 X205.78 Y143.366 E2.19187
G1 E.19187 F1800
G92 E0
G1 X192.198 Y144.83 F4200
G1 E2 F1800
;TYPE:Solid infill
;WIDTH:0.406671
G1 F288
G1 X192.807 Y145.439 E2.01655
G1 X192.807 Y145.984 E2.02702
G1 X191.823 Y145 E2.05376
G1 X191.278 Y145 E2.06423
G1 X192.807 Y146.528 E2.10577
G1 X192.807 Y147.073 E2.11624
G1 X191.253 Y145.519 E2.15848
G1 X191.253 Y146.064 E2.16895
G1 X192.807 Y147.618 E2.21119
G1 X192.807 Y148.163 E2.22166
G1 X191.253 Y146.609 E2.2639
G1 X191.253 Y147.154 E2.27437
G1 X192.807 Y148.707 E2.31659
G1 X192.807 Y149.252 E2.32706
G1 X191.253 Y147.698 E2.3693
G1 X191.253 Y148.243 E2.37977
G1 X192.807 Y149.797 E2.42201
G1 X192.807 Y150.342 E2.43248
G1 X191.253 Y148.788 E2.47472
G1 X191.253 Y149.333 E2.48519
G1 X192.807 Y150.886 E2.52741
G1 X192.807 Y151.431 E2.53788
G1 X191.253 Y149.877 E2.58012
G1 X191.253 Y150.422 E2.59059
G1 X192.807 Y151.976 E2.63283
G1 X192.807 Y152.521 E2.6433
G1 X191.253 Y150.967 E2.68554
G1 X191.253 Y151.512 E2.69601
G1 X192.807 Y153.066 E2.73825
G1 X192.807 Y153.61 E2.7487
G1 X191.253 Y152.056 E2.79094
G1 X191.253 Y152.601 E2.80141
