; generated by CreatWare 7.0.0 on 2022-06-28 at 23:00:55 UTC

; 

; external perimeters extrusion width = 0.40mm
; perimeters extrusion width = 0.40mm
; infill extrusion width = 0.40mm
; solid infill extrusion width = 0.40mm
; top infill extrusion width = 0.40mm
; support material extrusion width = 0.40mm

G21 ; set units to millimeters
G90 ; use absolute coordinates
M82 ; use absolute distances for extrusion
G92 E0
M107
M190 S45 ; set bed temperature and wait for it to be reached
M104 S210 ; set temperature
;TYPE:Custom
M109 S210 ; set temperature and wait for it to be reached
M6013 S0 ; set chamber temp

G28 X0 Y0  ;move X/Y to min endstops
G28 Z0     ;move Z to min endstops

;Add Clear Nozzle
G92 E0                   ;zero the extruded length again
G0 F4200 X0 Y0
G0 F400 X10 Z0.4         ;move a bit while down the Z
M221 T0 S300             ;set flow is 300%
G1 F200 X30 E8          ;extrude amont filament to clean the hotend
M221 T0 S100             ;reset flow is 100%
G92 E0                   ;zero the extruded length again
;Add End

G0 Z15.0 F4200 ;move the platform down 15mm

;Put printing message on LCD screen
M117 Printing...
; Filament gcode
M107
;LAYER_CHANGE
;Layer 1
;Z:0.1
;HEIGHT:0.1
;BEFORE_LAYER_CHANGE
;0.1


G1 Z.1 F4200
;AFTER_LAYER_CHANGE
;G92 E0   ;zero the extruded length again
;0.1
G1 E-2 F1800
G92 E0
G1 X184.338 Y135.207 F4200
G1 E2 F1800
;TYPE:Skirt/Brim
;WIDTH:0.4
G1 F720
G1 X186.681 Y132.863 E2.06259
G1 X188.528 Y131.578 E2.10508
G1 X191.191 Y130.995 E2.15656
G1 X208.809 Y130.995 E2.48928
G1 X211.023 Y131.392 E2.53176
G1 X213.319 Y132.863 E2.58326
G1 X215.662 Y135.207 E2.64585
G1 X216.948 Y137.053 E2.68834
G1 X217.53 Y139.717 E2.73984
G1 X217.506 Y150.483 E2.94316
G1 X216.606 Y160.836 E3.13942
G1 X216.019 Y163.008 E3.18191
G1 X214.762 Y164.793 E3.22314
G1 X212.419 Y167.137 E3.28573
G1 X210.572 Y168.422 E3.32822
G1 X207.909 Y169.005 E3.3797
G1 X192.091 Y169.005 E3.67843
G1 X189.877 Y168.608 E3.72091
G1 X187.581 Y167.137 E3.77241
G1 X185.238 Y164.793 E3.835
G1 X183.952 Y162.947 E3.87749
G1 X183.394 Y160.836 E3.91873
G1 X182.47 Y149.931 E4.12541
G1 X182.47 Y139.717 E4.31831
G1 X182.867 Y137.502 E4.36081
G1 X184.306 Y135.257 E4.41117
G1 E2.41117 F1800
G92 E0
G1 X189.537 Y139.447 F4200
G1 E2 F1800
G1 F720
G1 X190.921 Y138.063 E2.03696
G1 X191.237 Y137.854 E2.04411
G1 X191.59 Y137.717 E2.05126
G1 X191.873 Y137.67 E2.05668
G1 X198.166 Y137.674 E2.17553
G1 X198.493 Y137.744 E2.18185
G1 X198.768 Y137.858 E2.18747
G1 X199.016 Y138.016 E2.19302
G1 X200 Y138.988 E2.21914
G1 X200.984 Y138.016 E2.24526
G1 X201.232 Y137.858 E2.25081
G1 X201.508 Y137.743 E2.25646
G1 X201.75 Y137.684 E2.26116
G1 X208.254 Y137.684 E2.38399
G1 X208.495 Y137.743 E2.38868
G1 X208.77 Y137.857 E2.3943
G1 X209.079 Y138.063 E2.40131
G1 X210.463 Y139.447 E2.43827
G1 X210.652 Y139.724 E2.4446
G1 X210.783 Y140.033 E2.45094
G1 X210.855 Y140.396 E2.45793
G1 X210.855 Y149.253 E2.6252
G1 X210.793 Y149.581 E2.6315
G1 X210.656 Y149.916 E2.63834
G1 X210.516 Y150.135 E2.64325
G1 X209.955 Y150.706 E2.65837
G1 X209.942 Y159.728 E2.82875
G1 X209.882 Y159.97 E2.83346
G1 X209.768 Y160.245 E2.83908
G1 X209.562 Y160.553 E2.84608
G1 X208.178 Y161.937 E2.88304
G1 X207.902 Y162.126 E2.88936
G1 X207.593 Y162.257 E2.8957
G1 X207.23 Y162.33 E2.90269
G1 X202.375 Y162.33 E2.99438
G1 X202.102 Y162.28 E2.99962
G1 X201.829 Y162.33 E3.00486
G1 X192.646 Y162.316 E3.17829
G1 X192.405 Y162.257 E3.18298
G1 X192.13 Y162.143 E3.1886
G1 X191.821 Y161.937 E3.19561
G1 X190.437 Y160.553 E3.23257
G1 X190.248 Y160.276 E3.2389
G1 X190.117 Y159.967 E3.24524
G1 X190.045 Y159.604 E3.25223
G1 X190.045 Y150.706 E3.42027
G1 X189.484 Y150.135 E3.43539
G1 X189.344 Y149.916 E3.4403
G1 X189.207 Y149.581 E3.44714
G1 X189.145 Y149.253 E3.45344
G1 X189.145 Y140.396 E3.62071
G1 X189.217 Y140.033 E3.6277
G1 X189.348 Y139.724 E3.63404
G1 X189.503 Y139.497 E3.63923
G1 X189.816 Y139.706 F4200
G1 F720
G1 X191.176 Y138.344 E3.67558
G1 X191.393 Y138.2 E3.6805
G1 X191.707 Y138.078 E3.68686
G1 X191.888 Y138.049 E3.69032
G1 X198.146 Y138.053 E3.80851
G1 X198.363 Y138.1 E3.8127
G1 X198.606 Y138.2 E3.81766
G1 X198.793 Y138.322 E3.82188
G1 X200 Y139.523 E3.85404
G1 X201.207 Y138.322 E3.8862
G1 X201.394 Y138.2 E3.89042
G1 X201.639 Y138.099 E3.89542
G1 X201.815 Y138.057 E3.89884
G1 X208.189 Y138.057 E4.01922
G1 X208.365 Y138.099 E4.02264
G1 X208.608 Y138.2 E4.02761
G1 X208.824 Y138.344 E4.03251
G1 X210.181 Y139.701 E4.06875
G1 X210.326 Y139.917 E4.07366
G1 X210.426 Y140.159 E4.07861
G1 X210.477 Y140.414 E4.08352
G1 X210.477 Y149.233 E4.25007
G1 X210.426 Y149.488 E4.25498
G1 X210.325 Y149.731 E4.25995
G1 X210.23 Y149.886 E4.26338
G1 X209.577 Y150.551 E4.28098
G1 X209.568 Y159.663 E4.45306
G1 X209.527 Y159.839 E4.45647
G1 X209.426 Y160.083 E4.46146
G1 X209.281 Y160.299 E4.46637
G1 X207.924 Y161.656 E4.50261
G1 X207.708 Y161.8 E4.50751
G1 X207.466 Y161.9 E4.51246
G1 X207.211 Y161.951 E4.51737
G1 X202.394 Y161.951 E4.60834
G1 X202.102 Y161.894 E4.61396
G1 X201.809 Y161.951 E4.6196
G1 X192.711 Y161.943 E4.79142
G1 X192.535 Y161.901 E4.79484
G1 X192.292 Y161.8 E4.79981
G1 X192.076 Y161.656 E4.80471
G1 X190.719 Y160.299 E4.84095
G1 X190.574 Y160.083 E4.84586
G1 X190.474 Y159.841 E4.85081
G1 X190.423 Y159.586 E4.85572
G1 X190.423 Y150.551 E5.02635
G1 X189.77 Y149.886 E5.04395
G1 X189.675 Y149.731 E5.04738
G1 X189.574 Y149.488 E5.05235
G1 X189.523 Y149.233 E5.05726
G1 X189.523 Y140.414 E5.22381
G1 X189.574 Y140.159 E5.22872
G1 X189.674 Y139.917 E5.23367
G1 X189.782 Y139.756 E5.23733
G1 X190.094 Y139.964 F4200
G1 F720
G1 X191.43 Y138.625 E5.27305
G1 X191.553 Y138.543 E5.27584
G1 X191.794 Y138.447 E5.28074
G1 X191.905 Y138.427 E5.28287
G1 X198.124 Y138.431 E5.40032
G1 X198.233 Y138.455 E5.40243
G1 X198.443 Y138.543 E5.40673
G1 X198.566 Y138.625 E5.40952
G1 X200 Y140.059 E5.44782
G1 X201.434 Y138.625 E5.48612
G1 X201.557 Y138.543 E5.48891
G1 X201.767 Y138.455 E5.49321
G1 X201.876 Y138.431 E5.49532
G1 X208.127 Y138.431 E5.61337
G1 X208.236 Y138.455 E5.61548
G1 X208.446 Y138.543 E5.61978
G1 X208.57 Y138.625 E5.62259
G1 X209.901 Y139.956 E5.65814
G1 X209.983 Y140.079 E5.66093
G1 X210.069 Y140.287 E5.66518
G1 X210.098 Y140.433 E5.66799
G1 X210.098 Y149.215 E5.83384
G1 X210.069 Y149.36 E5.83663
G1 X209.982 Y149.57 E5.84092
G1 X209.922 Y149.665 E5.84304
G1 X209.198 Y150.395 E5.86246
G1 X209.195 Y159.602 E6.03634
G1 X209.17 Y159.711 E6.03845
G1 X209.083 Y159.921 E6.04274
G1 X209.001 Y160.044 E6.04553
G1 X207.67 Y161.375 E6.08108
G1 X207.546 Y161.457 E6.08389
G1 X207.338 Y161.544 E6.08815
G1 X207.193 Y161.573 E6.09094
G1 X202.409 Y161.573 E6.18129
G1 X202.296 Y161.553 E6.18346
G1 X202.102 Y161.474 E6.18742
G1 X201.908 Y161.553 E6.19138
G1 X201.795 Y161.573 E6.19355
G1 X192.773 Y161.569 E6.36393
G1 X192.664 Y161.545 E6.36604
G1 X192.454 Y161.457 E6.37034
G1 X192.33 Y161.375 E6.37315
G1 X190.999 Y160.044 E6.4087
G1 X190.917 Y159.921 E6.41149
G1 X190.831 Y159.713 E6.41574
G1 X190.802 Y159.567 E6.41855
G1 X190.802 Y150.395 E6.59177
G1 X190.078 Y149.665 E6.61119
G1 X190.018 Y149.57 E6.61331
G1 X189.931 Y149.36 E6.6176
G1 X189.902 Y149.215 E6.62039
G1 X189.902 Y140.433 E6.78624
G1 X189.931 Y140.287 E6.78905
G1 X190.017 Y140.079 E6.7933
G1 X190.061 Y140.014 E6.79478
G1 X190.372 Y140.222 F4200
G1 F720
G1 X191.685 Y138.906 E6.82989
G1 X191.926 Y138.806 E6.83482
G1 X198.107 Y138.813 E6.95155
G1 X198.312 Y138.906 E6.9558
G1 X199.637 Y140.241 E6.99132
G1 X199.716 Y140.451 E6.99556
G1 X199.716 Y143.284 E7.04906
G1 X200.284 Y143.284 E7.05979
G1 X200.291 Y140.415 E7.11397
G1 X200.384 Y140.21 E7.11822
G1 X201.688 Y138.906 E7.15305
G1 X201.893 Y138.813 E7.1573
G1 X208.074 Y138.806 E7.27403
G1 X208.315 Y138.906 E7.27896
G1 X209.62 Y140.21 E7.3138
G1 X209.72 Y140.451 E7.31873
G1 X209.72 Y149.196 E7.48388
G1 X209.62 Y149.437 E7.48881
G1 X208.82 Y150.237 E7.51018
G1 X208.82 Y159.549 E7.68604
G1 X208.72 Y159.79 E7.69097
G1 X207.415 Y161.094 E7.72581
G1 X207.174 Y161.194 E7.73074
G1 X202.429 Y161.194 E7.82035
G1 X202.102 Y161.057 E7.82705
G1 X201.774 Y161.194 E7.83376
G1 X192.826 Y161.194 E8.00275
G1 X192.585 Y161.094 E8.00768
G1 X191.28 Y159.79 E8.04252
G1 X191.18 Y159.549 E8.04745
G1 X191.18 Y150.237 E8.22331
G1 X190.38 Y149.437 E8.24468
G1 X190.28 Y149.196 E8.24961
G1 X190.28 Y140.451 E8.41476
G1 X190.345 Y140.275 E8.4183
G1 X190.688 Y140.438 F4200
G1 F720
G1 X191.913 Y139.213 E8.45102
G1 X191.982 Y139.184 E8.45243
G1 X198.014 Y139.184 E8.56635
G1 X198.084 Y139.213 E8.56778
G1 X199.309 Y140.438 E8.6005
G1 X199.337 Y140.508 E8.60192
G1 X199.337 Y143.662 E8.66148
G1 X200.663 Y143.662 E8.68652
G1 X200.663 Y140.508 E8.74608
G1 X200.691 Y140.438 E8.7475
G1 X201.916 Y139.213 E8.78022
G1 X201.986 Y139.184 E8.78165
G1 X208.018 Y139.184 E8.89557
G1 X208.087 Y139.213 E8.89698
G1 X209.312 Y140.438 E8.9297
G1 X209.341 Y140.508 E8.93113
G1 X209.341 Y149.14 E9.09415
G1 X209.312 Y149.209 E9.09556
G1 X208.441 Y150.081 E9.11884
G1 X208.441 Y159.492 E9.29657
G1 X208.412 Y159.562 E9.298
G1 X207.187 Y160.787 E9.33072
G1 X207.118 Y160.816 E9.33213
G1 X202.486 Y160.816 E9.41961
G1 X202.416 Y160.787 E9.42104
G1 X202.102 Y160.472 E9.42944
G1 X201.787 Y160.787 E9.43785
G1 X201.718 Y160.816 E9.43926
G1 X197.686 Y160.816 E9.51541
G1 X197.6 Y160.78 E9.51717
G1 X197.514 Y160.816 E9.51893
G1 X192.882 Y160.816 E9.60641
G1 X192.813 Y160.787 E9.60782
G1 X191.588 Y159.562 E9.64054
G1 X191.559 Y159.492 E9.64197
G1 X191.559 Y150.081 E9.8197
G1 X190.688 Y149.209 E9.84298
G1 X190.659 Y149.14 E9.84439
G1 X190.665 Y140.494 E10.00767
G1 E8.00767 F1800
G92 E0
G1 X196.835 Y142.456 F4200
G1 E2 F1800
;TYPE:Solid infill
;WIDTH:0.401683
G1 F288
G1 X196.236 Y141.858 E2.01606
G1 X195.698 Y141.858 E2.02627
G1 X196.664 Y142.823 E2.05217
G1 X196.664 Y143.361 E2.06238
G1 X196.482 Y143.179 E2.06726
G1 X196.467 Y143.066 E2.06942
G1 X196.349 Y142.78 E2.07529
G1 X196.16 Y142.534 E2.08117
G1 X195.914 Y142.345 E2.08705
G1 X195.626 Y142.226 E2.09296
G1 X195.515 Y142.212 E2.09508
G1 X194.99 Y141.687 E2.10916
G1 E.10916 F1800
G92 E0
G1 X195.146 Y142.381 F4200
G1 E2 F1800
G1 F288
G1 X194.623 Y141.858 E2.01403
G1 X194.085 Y141.858 E2.02424
G1 X194.639 Y142.412 E2.0391
G1 X194.479 Y142.535 E2.04293
G1 X194.369 Y142.679 E2.04637
G1 X193.548 Y141.858 E2.06839
G1 X193.332 Y141.858 E2.07249
G1 X193.332 Y142.18 E2.0786
G1 X194.329 Y143.177 E2.10535
G1 E.10535 F1800
G92 E0
G1 X196.313 Y143.548 F4200
G1 E2 F1800
G1 F288
G1 X196.664 Y143.899 E2.00942
G1 X196.664 Y144.437 E2.01963
G1 X196.282 Y144.054 E2.02989
G1 X196.161 Y144.213 E2.03368
G1 X196.015 Y144.325 E2.03717
G1 X196.664 Y144.974 E2.05458
G1 X196.664 Y145.512 E2.06479
G1 X195.517 Y144.364 E2.09557
G1 E.09557 F1800
G92 E0
G1 X196.835 Y146.22 F4200
G1 E2 F1800
G1 F288
G1 X195.155 Y144.54 E2.04507
G1 X195.012 Y144.522 E2.0478
G1 X194.73 Y144.404 E2.0536
G1 X194.48 Y144.215 E2.05955
G1 X194.291 Y143.968 E2.06545
G1 X194.172 Y143.681 E2.07134
G1 X194.153 Y143.539 E2.07406
G1 X193.332 Y142.718 E2.09608
G1 X193.332 Y143.255 E2.10627
G1 X196.664 Y146.587 E2.19566
G1 X196.664 Y147.125 E2.20587
G1 X193.332 Y143.793 E2.29526
G1 X193.332 Y144.331 E2.30547
G1 X196.664 Y147.663 E2.39486
G1 X196.664 Y148.201 E2.40507
G1 X193.332 Y144.868 E2.49447
G1 X193.332 Y145.406 E2.50468
G1 X196.664 Y148.738 E2.59407
G1 X196.664 Y149.276 E2.60428
G1 X193.332 Y145.944 E2.69367
G1 X193.332 Y146.482 E2.70388
G1 X196.664 Y149.814 E2.79327
G1 X196.664 Y150.351 E2.80346
G1 X193.332 Y147.019 E2.89285
G1 X193.332 Y147.557 E2.90306
G1 X193.735 Y147.96 E2.91387
G1 X194.062 Y148.287 F4200
G1 F288
G1 X196.664 Y150.889 E2.98367
G1 X196.664 Y151.427 E2.99388
G1 X194.232 Y148.995 E3.05912
G1 X194.232 Y149.532 E3.06931
G1 X196.664 Y151.965 E3.13457
G1 X196.664 Y152.502 E3.14476
G1 X194.232 Y150.07 E3.21
G1 X194.232 Y150.608 E3.22021
G1 X196.567 Y152.942 E3.28284
G1 X196.029 Y152.942 E3.29305
G1 X194.232 Y151.146 E3.34124
G1 X194.232 Y151.683 E3.35143
G1 X195.491 Y152.942 E3.3852
G1 X195.414 Y152.942 E3.38666
G1 X195.414 Y153.403 E3.3954
G1 X194.232 Y152.221 E3.42711
G1 X194.232 Y152.759 E3.43732
G1 X195.414 Y153.941 E3.46903
G1 X195.414 Y154.479 E3.47924
G1 X194.232 Y153.296 E3.51096
G1 X194.232 Y153.834 E3.52117
G1 X195.585 Y155.187 E3.55747
G1 E1.55747 F1800
G92 E0
G1 X196.335 Y156.474 F4200
G1 E2 F1800
G1 F288
G1 X195.77 Y155.91 E2.01514
G1 X195.414 Y155.91 E2.02189
G1 X195.414 Y155.554 E2.02864
G1 X194.232 Y154.372 E2.06035
G1 X194.232 Y154.91 E2.07056
G1 X195.42 Y156.098 E2.10243
G1 X195.258 Y156.031 E2.10576
G1 X194.937 Y155.988 E2.1119
G1 X194.792 Y156.007 E2.11467
G1 X194.232 Y155.447 E2.12969
G1 X194.232 Y155.985 E2.1399
G1 X194.507 Y156.26 E2.14728
G1 E.14728 F1800
G92 E0
G1 X196.112 Y156.713 F4200
G1 E2 F1800
;TYPE:Gap fill
;WIDTH:0.26649
G1 F360
G1 X196.148 Y156.892 E2.00223
;WIDTH:0.24378
G1 X196.152 Y156.92 E2.00254
;WIDTH:0.236238
G1 X196.171 Y157.22 E2.00576
;WIDTH:0.196966
G1 X196.171 Y157.243 E2.00596
;WIDTH:0.236238
G1 X196.152 Y157.542 E2.00917
;WIDTH:0.24378
G1 X196.148 Y157.571 E2.00949
;WIDTH:0.26649
G1 X196.112 Y157.749 E2.01171
G1 E.01171 F1800
G92 E0
G1 X195.698 Y153.226 F4200
G1 E2 F1800
;TYPE:External perimeter
;WIDTH:0.4
G1 F252
G1 X195.698 Y155.626 E2.04533
G1 X196.448 Y155.626 E2.05949
G1 X196.448 Y158.426 E2.11237
G1 X193.948 Y158.426 E2.15958
G1 X193.948 Y148.074 E2.35508
G1 X193.048 Y148.074 E2.37208
G1 X193.048 Y141.574 E2.49484
G1 X196.948 Y141.574 E2.56849
G1 X196.948 Y153.226 E2.78854
G1 X195.758 Y153.226 E2.81101
G1 E.81101 F1800
G92 E0
G1 X195.32 Y144.276 F4200
G1 E2 F1800
G1 F270
G1 X195.086 Y144.245 E2.00446
G1 X194.872 Y144.156 E2.00884
G1 X194.682 Y144.012 E2.01334
G1 X194.539 Y143.825 E2.01779
G1 X194.449 Y143.607 E2.02224
G1 X194.418 Y143.374 E2.02668
G1 X194.449 Y143.141 E2.03112
G1 X194.538 Y142.926 E2.03551
G1 X194.682 Y142.737 E2.04
G1 X194.869 Y142.593 E2.04446
G1 X195.086 Y142.503 E2.0489
G1 X195.316 Y142.473 E2.05328
G1 X195.553 Y142.503 E2.05779
G1 X195.771 Y142.593 E2.06224
G1 X195.957 Y142.736 E2.06667
G1 X196.101 Y142.923 E2.07113
G1 X196.191 Y143.141 E2.07558
G1 X196.222 Y143.374 E2.08002
G1 X196.191 Y143.607 E2.08446
G1 X196.102 Y143.822 E2.08885
G1 X195.958 Y144.011 E2.09334
G1 X195.771 Y144.155 E2.0978
G1 X195.553 Y144.245 E2.10225
G1 X195.379 Y144.268 E2.10556
G1 E.10556 F1800
G92 E0
G1 X194.842 Y156.287 F4200
G1 E2 F1800
G1 F270
G1 X194.937 Y156.275 E2.00181
G1 X195.184 Y156.307 E2.00651
G1 X195.415 Y156.403 E2.01123
G1 X195.613 Y156.555 E2.01594
G1 X195.765 Y156.753 E2.02065
G1 X195.861 Y156.984 E2.02537
G1 X195.893 Y157.231 E2.03007
G1 X195.861 Y157.479 E2.03479
G1 X195.765 Y157.71 E2.03951
G1 X195.613 Y157.908 E2.04422
G1 X195.415 Y158.06 E2.04893
G1 X195.184 Y158.155 E2.05365
G1 X194.937 Y158.188 E2.05836
G1 X194.689 Y158.155 E2.06308
G1 X194.458 Y158.06 E2.0678
G1 X194.26 Y157.908 E2.07251
G1 X194.108 Y157.71 E2.07722
G1 X194.012 Y157.479 E2.08194
G1 X193.98 Y157.231 E2.08666
G1 X194.012 Y156.984 E2.09136
G1 X194.108 Y156.753 E2.09608
G1 X194.26 Y156.555 E2.10079
G1 X194.458 Y156.403 E2.1055
G1 X194.689 Y156.307 E2.11022
G1 X194.782 Y156.295 E2.11199
G1 E.11199 F1800
G92 E0
G1 X200.05 Y152.57 F4200
G1 E2 F1800
;TYPE:Solid infill
;WIDTH:0.41544
G1 F288
G1 X200.368 Y152.889 E2.00885
G1 X200.368 Y153.446 E2.0198
G1 X199.702 Y152.78 E2.03831
G1 X199.428 Y152.744 E2.04374
G1 X199.127 Y152.619 E2.05015
G1 X199.036 Y152.549 E2.05241
G1 X199.036 Y152.671 E2.05481
G1 X199.457 Y153.092 E2.06651
G1 X199.836 Y153.092 E2.07396
G1 X199.836 Y153.471 E2.08141
G1 X200.368 Y154.003 E2.0962
G1 X200.368 Y154.56 E2.10715
G1 X199.836 Y154.028 E2.12194
G1 X199.836 Y154.585 E2.13289
G1 X200.368 Y155.117 E2.14768
G1 X200.368 Y155.674 E2.15863
G1 X199.836 Y155.142 E2.17342
G1 X199.836 Y155.699 E2.18437
G1 X200.368 Y156.232 E2.19917
G1 X200.368 Y156.789 E2.21012
G1 X199.689 Y156.11 E2.22899
G1 X199.132 Y156.11 E2.23994
G1 X200.368 Y157.346 E2.2743
G1 X200.368 Y157.903 E2.28525
G1 X199.036 Y156.571 E2.32228
G1 X199.036 Y157.128 E2.33323
G1 X200.05 Y158.142 E2.36142
G1 X199.493 Y158.142 E2.37237
G1 X198.865 Y157.515 E2.38981
G1 E.38981 F1800
G92 E0
G1 X201.138 Y148.292 F4200
G1 E2 F1800
;WIDTH:0.429645
G1 F288
