; generated by CreatWare 7.0.0 on 2022-07-14 at 22:14:44 UTC

; 

; external perimeters extrusion width = 0.40mm
; perimeters extrusion width = 0.40mm
; infill extrusion width = 0.40mm
; solid infill extrusion width = 0.40mm
; top infill extrusion width = 0.40mm
; support material extrusion width = 0.40mm

; external perimeters extrusion width = 0.40mm
; perimeters extrusion width = 0.40mm
; infill extrusion width = 0.40mm
; solid infill extrusion width = 0.40mm
; top infill extrusion width = 0.40mm
; support material extrusion width = 0.40mm

; external perimeters extrusion width = 0.40mm
; perimeters extrusion width = 0.40mm
; infill extrusion width = 0.40mm
; solid infill extrusion width = 0.40mm
; top infill extrusion width = 0.40mm
; support material extrusion width = 0.40mm

; external perimeters extrusion width = 0.40mm
; perimeters extrusion width = 0.40mm
; infill extrusion width = 0.40mm
; solid infill extrusion width = 0.40mm
; top infill extrusion width = 0.40mm
; support material extrusion width = 0.40mm

; external perimeters extrusion width = 0.40mm
; perimeters extrusion width = 0.40mm
; infill extrusion width = 0.40mm
; solid infill extrusion width = 0.40mm
; top infill extrusion width = 0.40mm
; support material extrusion width = 0.40mm

; external perimeters extrusion width = 0.40mm
; perimeters extrusion width = 0.40mm
; infill extrusion width = 0.40mm
; solid infill extrusion width = 0.40mm
; top infill extrusion width = 0.40mm
; support material extrusion width = 0.40mm

G21 ; set units to millimeters
G90 ; use absolute coordinates
M82 ; use absolute distances for extrusion
G92 E0
M107
M190 S45 ; set bed temperature and wait for it to be reached
M104 S220 ; set temperature
;TYPE:Custom
M109 S220 ; set temperature and wait for it to be reached
M6013 S0 ; set chamber temp

G28 X0 Y0  ;move X/Y to min endstops
G28 Z0     ;move Z to min endstops

;Add Clear Nozzle
G92 E0                   ;zero the extruded length again
G0 F4200 X0 Y0
G0 F400 X10 Z0.4         ;move a bit while down the Z
M221 T0 S300             ;set flow is 300%
G1 F200 X30 E8          ;extrude amont filament to clean the hotend
M221 T0 S100             ;reset flow is 100%
G92 E0                   ;zero the extruded length again
;Add End

G0 Z15.0 F4200 ;move the platform down 15mm

;Put printing message on LCD screen
M117 Printing...
; Filament gcode
M107
;LAYER_CHANGE
;Layer 1
;Z:0.1
;HEIGHT:0.1
;BEFORE_LAYER_CHANGE
;0.1


G1 E-2 F1800
G92 E0
G1 Z.1 F3000
;AFTER_LAYER_CHANGE
;G92 E0   ;zero the extruded length again
;0.1
G1 X111.689 Y39.764
G1 E2 F1800
;TYPE:Skirt/Brim
;WIDTH:0.4
G1 F480
G1 X113.024 Y37.807 E2.04474
G1 X115.368 Y35.464 E2.10733
G1 X117.214 Y34.178 E2.14982
G1 X119.878 Y33.595 E2.20132
G1 X128.454 Y33.601 E2.36328
G1 X290.583 Y40.286 E5.42776
G1 X292.78 Y40.774 E5.47026
G1 X294.831 Y42.149 E5.51689
G1 X297.174 Y44.492 E5.57947
G1 X298.459 Y46.339 E5.62196
G1 X299.011 Y48.378 E5.66185
G1 X299.534 Y53.764 E5.76405
G1 X308.382 Y230.918 E9.11385
G1 X308.39 Y255.561 E9.57924
G1 X307.993 Y257.776 E9.62174
G1 X306.522 Y260.072 E9.67324
G1 X304.179 Y262.415 E9.73582
G1 X302.332 Y263.7 E9.77831
G1 X299.757 Y264.282 E9.82817
G1 X132.39 Y266.61 E12.98927
G1 X108.941 Y266.61 E13.43211
G1 X106.726 Y266.213 E13.47461
G1 X104.431 Y264.742 E13.52609
G1 X102.088 Y262.399 E13.58867
G1 X100.802 Y260.552 E13.63117
G1 X100.22 Y257.889 E13.68265
G1 X100.23 Y233.199 E14.14893
G1 X111.167 Y41.953 E17.76659
G1 X111.675 Y39.823 E17.80794
;WIPE_START
G1 F2400
G1 X113.024 Y37.807 E16.07962
G1 X113.294 Y37.537 E15.80794
;WIPE_END
G92 E0
G1 X111.501 Y231.518 F3000
G1 E2 F1800
G1 F480
G1 X113.666 Y231.52 E2.04089
G1 X114.04 Y231.61 E2.04815
G1 X114.556 Y231.891 E2.05925
G1 X115.958 Y233.293 E2.09669
G1 X116.179 Y233.636 E2.1044
G1 X116.317 Y234.021 E2.11212
G1 X116.35 Y247.525 E2.36715
G1 X117.17 Y247.538 E2.38264
G1 X117.777 Y247.744 E2.39475
G1 X118.013 Y247.905 E2.40015
G1 X119.434 Y249.323 E2.43806
G1 X119.734 Y249.887 E2.45012
G1 X119.809 Y250.252 E2.45716
G1 X119.809 Y257.236 E2.58906
G1 X119.642 Y257.802 E2.6002
G1 X119.416 Y258.158 E2.60816
G1 X118.032 Y259.543 E2.64514
G1 X117.689 Y259.764 E2.65285
G1 X117.304 Y259.902 E2.66057
G1 X109.594 Y259.935 E2.80618
G1 X109.027 Y259.769 E2.81734
G1 X108.671 Y259.542 E2.82531
G1 X107.237 Y258.095 E2.86378
G1 X107.062 Y257.803 E2.87021
G1 X106.895 Y257.237 E2.88135
G1 X106.895 Y234.215 E3.31613
G1 X107.061 Y233.649 E3.32727
G1 X107.287 Y233.293 E3.33523
G1 X108.69 Y231.891 E3.37269
G1 X109.208 Y231.608 E3.38384
G1 X109.62 Y231.517 E3.39181
G1 X111.441 Y231.518 E3.4262
G1 X111.44 Y231.897 F3000
G1 F480
G1 X113.644 Y231.899 E3.46782
G1 X113.886 Y231.956 E3.47252
G1 X114.309 Y232.179 E3.48155
G1 X115.677 Y233.547 E3.51809
G1 X115.83 Y233.784 E3.52342
G1 X115.95 Y234.118 E3.53012
G1 X115.972 Y247.907 E3.79053
G1 X117.079 Y247.907 E3.81144
G1 X117.627 Y248.093 E3.82237
G1 X117.777 Y248.201 E3.82586
G1 X119.146 Y249.57 E3.86242
G1 X119.369 Y249.994 E3.87147
G1 X119.43 Y250.273 E3.87686
G1 X119.43 Y257.207 E4.00781
G1 X119.289 Y257.664 E4.01684
G1 X119.134 Y257.905 E4.02225
G1 X117.778 Y259.261 E4.05847
G1 X117.541 Y259.415 E4.06381
G1 X117.207 Y259.534 E4.07051
G1 X109.623 Y259.557 E4.21374
G1 X109.165 Y259.415 E4.2228
G1 X108.925 Y259.261 E4.22819
G1 X107.545 Y257.875 E4.26513
G1 X107.415 Y257.666 E4.26978
G1 X107.273 Y257.207 E4.27885
G1 X107.273 Y234.245 E4.7125
G1 X107.414 Y233.787 E4.72155
G1 X107.569 Y233.547 E4.72695
G1 X108.937 Y232.179 E4.76349
G1 X109.36 Y231.956 E4.77252
G1 X109.639 Y231.895 E4.77791
G1 X111.38 Y231.897 E4.81079
G1 X111.38 Y232.275 F3000
G1 F480
G1 X113.622 Y232.277 E4.85313
G1 X113.737 Y232.304 E4.85536
G1 X114.064 Y232.47 E4.86229
G1 X115.395 Y233.801 E4.89784
G1 X115.482 Y233.933 E4.90083
G1 X115.583 Y234.215 E4.90649
G1 X115.594 Y248.285 E5.17221
G1 X117.047 Y248.285 E5.19965
G1 X117.431 Y248.418 E5.20732
G1 X117.522 Y248.481 E5.20941
G1 X118.856 Y249.815 E5.24504
G1 X119.02 Y250.14 E5.25191
G1 X119.052 Y250.292 E5.25484
G1 X119.052 Y257.175 E5.38483
G1 X118.938 Y257.521 E5.39171
G1 X118.853 Y257.65 E5.39463
G1 X117.524 Y258.98 E5.43014
G1 X117.392 Y259.066 E5.43312
G1 X117.11 Y259.167 E5.43878
G1 X109.655 Y259.178 E5.57957
G1 X109.309 Y259.065 E5.58644
G1 X109.179 Y258.98 E5.58937
G1 X107.85 Y257.65 E5.62488
G1 X107.765 Y257.521 E5.6278
G1 X107.652 Y257.175 E5.63467
G1 X107.652 Y234.277 E6.06711
G1 X107.765 Y233.931 E6.07398
G1 X107.85 Y233.801 E6.07691
G1 X109.182 Y232.47 E6.11247
G1 X109.506 Y232.305 E6.11934
G1 X109.658 Y232.274 E6.12227
G1 X111.32 Y232.275 E6.15366
G1 X111.32 Y232.652 F3000
G1 F480
G1 X113.602 Y232.659 E6.19676
G1 X113.821 Y232.762 E6.20133
G1 X115.115 Y234.056 E6.23589
G1 X115.215 Y234.312 E6.24108
G1 X115.215 Y248.664 E6.51212
G1 X117.013 Y248.664 E6.54608
G1 X117.242 Y248.746 E6.55067
G1 X118.563 Y250.058 E6.58583
G1 X118.673 Y250.309 E6.59101
G1 X118.673 Y257.14 E6.72002
G1 X118.573 Y257.395 E6.72519
G1 X117.269 Y258.7 E6.76003
G1 X117.013 Y258.799 E6.76521
G1 X109.69 Y258.799 E6.90351
G1 X109.435 Y258.7 E6.90868
G1 X108.13 Y257.395 E6.94353
G1 X108.03 Y257.14 E6.9487
G1 X108.03 Y234.312 E7.37982
G1 X108.13 Y234.056 E7.38501
G1 X109.425 Y232.762 E7.41958
G1 X109.676 Y232.652 E7.42476
G1 X111.26 Y232.652 E7.45467
G1 X111.26 Y233.031 F3000
G1 F480
G1 X113.513 Y233.031 E7.49722
G1 X113.583 Y233.06 E7.49865
G1 X114.808 Y234.284 E7.53135
G1 X114.837 Y234.354 E7.53278
G1 X114.837 Y249.042 E7.81017
G1 X116.971 Y249.042 E7.85047
G1 X117.041 Y249.071 E7.8519
G1 X118.266 Y250.296 E7.88462
G1 X118.295 Y250.366 E7.88605
G1 X118.295 Y257.098 E8.01319
G1 X118.266 Y257.167 E8.0146
G1 X117.041 Y258.392 E8.04732
G1 X116.971 Y258.421 E8.04875
G1 X109.732 Y258.421 E8.18546
G1 X109.662 Y258.392 E8.18689
G1 X108.438 Y257.167 E8.21959
G1 X108.409 Y257.098 E8.221
G1 X108.409 Y234.354 E8.65053
G1 X108.438 Y234.284 E8.65196
G1 X109.662 Y233.06 E8.68465
G1 X109.732 Y233.031 E8.68608
G1 X111.2 Y233.031 E8.7138
;WIPE_START
G1 F2400
G1 X113.513 Y233.031 E7.06579
G1 X113.583 Y233.06 E7.0118
G1 X113.879 Y233.356 E6.7138
;WIPE_END
G92 E0
G1 X124.892 Y234.243 F3000
G1 E2 F1800
G1 F480
G1 X124.931 Y233.987 E2.00489
G1 X125.266 Y233.312 E2.01912
G1 X126.688 Y231.89 E2.0571
G1 X127.259 Y231.589 E2.06929
G1 X127.621 Y231.517 E2.07626
G1 X131.663 Y231.52 E2.15259
G1 X132.037 Y231.61 E2.15985
G1 X132.553 Y231.891 E2.17095
G1 X133.955 Y233.293 E2.20839
G1 X134.181 Y233.649 E2.21635
G1 X134.348 Y234.215 E2.22749
G1 X134.348 Y257.208 E2.66172
G1 X134.309 Y257.464 E2.66661
G1 X133.974 Y258.14 E2.68086
G1 X132.571 Y259.543 E2.71833
G1 X132.229 Y259.764 E2.72602
G1 X131.843 Y259.902 E2.73376
G1 X124.161 Y259.935 E2.87884
G1 X123.905 Y259.896 E2.88373
G1 X123.229 Y259.561 E2.89798
G1 X121.808 Y258.14 E2.93593
G1 X121.473 Y257.464 E2.95018
G1 X121.434 Y257.208 E2.95507
G1 X121.434 Y250.227 E3.08691
G1 X121.601 Y249.66 E3.09807
G1 X121.776 Y249.368 E3.1045
G1 X123.233 Y247.902 E3.14353
G1 X123.513 Y247.72 E3.14984
G1 X124.009 Y247.549 E3.15975
G1 X124.892 Y247.528 E3.17643
G1 X124.892 Y234.303 E3.42619
G1 X125.27 Y234.303 F3000
G1 F480
G1 X125.3 Y234.076 E3.43051
G1 X125.555 Y233.558 E3.44141
G1 X126.934 Y232.179 E3.47824
G1 X127.404 Y231.94 E3.4882
G1 X127.637 Y231.895 E3.49268
G1 X131.641 Y231.899 E3.5683
G1 X131.883 Y231.956 E3.573
G1 X132.306 Y232.179 E3.58203
G1 X133.673 Y233.547 E3.61855
G1 X133.828 Y233.787 E3.62395
G1 X133.969 Y234.245 E3.633
G1 X133.969 Y257.192 E4.06636
G1 X133.94 Y257.375 E4.06986
G1 X133.684 Y257.894 E4.08079
G1 X132.317 Y259.261 E4.1173
G1 X132.08 Y259.415 E4.12264
G1 X131.746 Y259.534 E4.12934
G1 X124.177 Y259.557 E4.27228
G1 X123.993 Y259.527 E4.2758
G1 X123.475 Y259.271 E4.28671
G1 X122.098 Y257.894 E4.32349
G1 X121.842 Y257.375 E4.33442
G1 X121.812 Y257.192 E4.33792
G1 X121.812 Y250.256 E4.46891
G1 X121.954 Y249.798 E4.47797
G1 X122.085 Y249.588 E4.48264
G1 X123.488 Y248.183 E4.52014
G1 X123.66 Y248.07 E4.52403
G1 X124.103 Y247.917 E4.53288
G1 X125.27 Y247.905 E4.55492
G1 X125.27 Y234.363 E4.81067
G1 X125.649 Y234.363 F3000
G1 F480
G1 X125.668 Y234.168 E4.81437
G1 X125.846 Y233.803 E4.82204
G1 X127.178 Y232.471 E4.85762
G1 X127.543 Y232.293 E4.86529
G1 X127.652 Y232.274 E4.86738
G1 X131.619 Y232.277 E4.9423
G1 X131.734 Y232.304 E4.94453
G1 X132.061 Y232.47 E4.95146
G1 X133.392 Y233.801 E4.98701
G1 X133.477 Y233.931 E4.98994
G1 X133.591 Y234.277 E4.99682
G1 X133.591 Y257.175 E5.42926
G1 X133.572 Y257.284 E5.43135
G1 X133.394 Y257.649 E5.43902
G1 X132.063 Y258.98 E5.47457
G1 X131.931 Y259.066 E5.47755
G1 X131.649 Y259.167 E5.48321
G1 X124.194 Y259.178 E5.624
G1 X124.085 Y259.159 E5.62609
G1 X123.72 Y258.981 E5.63376
G1 X122.388 Y257.649 E5.66934
G1 X122.21 Y257.284 E5.67701
G1 X122.191 Y257.175 E5.6791
G1 X122.191 Y250.288 E5.80916
G1 X122.304 Y249.943 E5.81602
G1 X122.389 Y249.813 E5.81895
G1 X123.721 Y248.481 E5.85453
G1 X123.811 Y248.418 E5.8566
G1 X124.195 Y248.285 E5.86427
G1 X125.649 Y248.285 E5.89173
G1 X125.649 Y234.423 E6.15352
G1 X126.027 Y234.423 F3000
G1 F480
G1 X126.034 Y234.266 E6.15649
G1 X126.137 Y234.046 E6.16108
G1 X127.422 Y232.762 E6.19539
G1 X127.673 Y232.652 E6.20057
G1 X131.599 Y232.659 E6.27471
G1 X131.818 Y232.762 E6.27928
G1 X133.112 Y234.056 E6.31384
G1 X133.212 Y234.312 E6.31903
G1 X133.212 Y257.154 E6.75041
G1 X133.102 Y257.405 E6.75559
G1 X131.808 Y258.7 E6.79016
G1 X131.552 Y258.799 E6.79534
G1 X124.215 Y258.799 E6.9339
G1 X123.964 Y258.69 E6.93907
G1 X122.679 Y257.405 E6.97339
G1 X122.576 Y257.186 E6.97796
G1 X122.569 Y250.324 E7.10755
G1 X122.651 Y250.095 E7.11214
G1 X124.001 Y248.746 E7.14818
G1 X124.229 Y248.664 E7.15276
G1 X126.027 Y248.664 E7.18672
G1 X126.027 Y234.483 E7.45453
G1 X126.406 Y234.483 F3000
G1 F480
G1 X126.406 Y234.354 E7.45697
G1 X126.435 Y234.284 E7.4584
G1 X127.659 Y233.06 E7.49109
G1 X127.729 Y233.031 E7.49252
G1 X131.51 Y233.031 E7.56393
G1 X131.58 Y233.06 E7.56536
G1 X132.805 Y234.284 E7.59806
G1 X132.834 Y234.354 E7.59949
G1 X132.834 Y257.098 E8.02902
G1 X132.805 Y257.167 E8.03043
G1 X131.58 Y258.392 E8.06315
G1 X131.51 Y258.421 E8.06458
G1 X124.271 Y258.421 E8.20129
G1 X124.202 Y258.392 E8.2027
G1 X122.977 Y257.167 E8.23542
G1 X122.948 Y257.098 E8.23683
G1 X122.948 Y250.366 E8.36397
G1 X122.977 Y250.296 E8.3654
G1 X124.202 Y249.071 E8.39812
G1 X124.271 Y249.042 E8.39953
G1 X126.406 Y249.042 E8.43985
G1 X126.406 Y234.543 E8.71367
;WIPE_START
G1 F2400
G1 X126.406 Y234.354 E8.57901
G1 X126.435 Y234.284 E8.52502
G1 X127.659 Y233.06 E7.29168
G1 X127.729 Y233.031 E7.23769
G1 X128.464 Y233.031 E6.71367
;WIPE_END
G92 E0
G1 X126.195 Y155.327 F3000
G1 E2 F1800
G1 F480
G1 X120.911 Y155.341 E2.09979
G1 X120.197 Y155.1 E2.11402
G1 X119.988 Y154.947 E2.11891
G1 X118.606 Y153.564 E2.15583
G1 X118.38 Y153.21 E2.16376
G1 X118.232 Y152.76 E2.17271
G1 X118.213 Y145.024 E2.31881
G1 X118.454 Y144.309 E2.33306
G1 X118.607 Y144.101 E2.33794
G1 X119.99 Y142.718 E2.37488
G1 X120.332 Y142.497 E2.38257
G1 X120.718 Y142.359 E2.39031
G1 X128.024 Y142.34 E2.52829
G1 X128.308 Y142.418 E2.53385
G1 X128.825 Y142.699 E2.54496
G1 X130.227 Y144.102 E2.58242
G1 X130.448 Y144.444 E2.59011
G1 X130.586 Y144.83 E2.59785
G1 X130.62 Y152.642 E2.74538
G1 X130.379 Y153.357 E2.75963
G1 X130.226 Y153.566 E2.76452
G1 X128.843 Y154.949 E2.80146
G1 X128.489 Y155.174 E2.80938
G1 X128.039 Y155.322 E2.81833
G1 X126.255 Y155.327 E2.85202
G1 X126.255 Y154.956 F3000
G1 F480
G1 X120.943 Y154.963 E2.95234
G1 X120.395 Y154.777 E2.96327
G1 X120.245 Y154.668 E2.96677
G1 X118.887 Y153.311 E3.00303
G1 X118.732 Y153.069 E3.00846
G1 X118.601 Y152.671 E3.01637
G1 X118.592 Y145.055 E3.1602
G1 X118.778 Y144.507 E3.17113
G1 X118.886 Y144.357 E3.17462
G1 X120.244 Y142.999 E3.21089
G1 X120.481 Y142.846 E3.21622
G1 X120.815 Y142.726 E3.22292
G1 X127.955 Y142.712 E3.35776
G1 X128.153 Y142.764 E3.36163
G1 X128.578 Y142.988 E3.3707
G1 X129.946 Y144.356 E3.40724
G1 X130.099 Y144.593 E3.41257
G1 X130.219 Y144.927 E3.41927
G1 X130.241 Y152.612 E3.56441
G1 X130.055 Y153.159 E3.57532
G1 X129.947 Y153.31 E3.57883
G1 X128.59 Y154.667 E3.61507
G1 X128.348 Y154.822 E3.6205
G1 X127.949 Y154.953 E3.62843
G1 X126.315 Y154.955 E3.65929
G1 X126.315 Y154.584 F3000
G1 F480
G1 X120.975 Y154.584 E3.76014
G1 X120.59 Y154.452 E3.76783
G1 X120.5 Y154.388 E3.76992
G1 X119.168 Y153.057 E3.80548
G1 X119.084 Y152.927 E3.8084
G1 X118.97 Y152.581 E3.81528
G1 X118.97 Y145.087 E3.95681
G1 X119.103 Y144.702 E3.9645
G1 X119.166 Y144.612 E3.96657
G1 X120.498 Y143.281 E4.00213
G1 X120.63 Y143.194 E4.00512
G1 X120.912 Y143.093 E4.01078
G1 X127.891 Y143.086 E4.14258
G1 X128.006 Y143.113 E4.14481
G1 X128.333 Y143.278 E4.15173
G1 X129.665 Y144.61 E4.18731
G1 X129.751 Y144.742 E4.19029
G1 X129.852 Y145.024 E4.19595
G1 X129.863 Y152.58 E4.33865
G1 X129.73 Y152.964 E4.34632
G1 X129.667 Y153.054 E4.34839
G1 X128.335 Y154.386 E4.38397
G1 X128.205 Y154.471 E4.3869
G1 X127.86 Y154.584 E4.39376
G1 X126.375 Y154.584 E4.4218
G1 X126.375 Y154.206 F3000
G1 F480
G1 X121.008 Y154.206 E4.52316
G1 X120.753 Y154.106 E4.52833
G1 X119.43 Y152.774 E4.56379
G1 X119.349 Y152.546 E4.56836
G1 X119.349 Y145.121 E4.70858
G1 X119.449 Y144.865 E4.71377
G1 X120.78 Y143.543 E4.7492
G1 X121.008 Y143.461 E4.75378
G1 X127.839 Y143.461 E4.88279
G1 X128.09 Y143.571 E4.88797
G1 X129.403 Y144.892 E4.92314
G1 X129.484 Y145.121 E4.92773
G1 X129.484 Y152.546 E5.06795
G1 X129.384 Y152.801 E5.07312
G1 X128.053 Y154.124 E5.10856
G1 X127.825 Y154.206 E5.11314
G1 X126.435 Y154.206 E5.13939
G1 X126.435 Y153.827 F3000
G1 F480
G1 X121.05 Y153.827 E5.24109
G1 X120.981 Y153.798 E5.2425
G1 X119.756 Y152.573 E5.27522
G1 X119.727 Y152.504 E5.27663
G1 X119.727 Y145.163 E5.41527
G1 X119.756 Y145.093 E5.4167
G1 X120.981 Y143.868 E5.44942
G1 X121.05 Y143.839 E5.45083
G1 X127.783 Y143.839 E5.57799
G1 X127.852 Y143.868 E5.5794
G1 X129.077 Y145.093 E5.61212
G1 X129.106 Y145.163 E5.61355
G1 X129.106 Y152.504 E5.75219
G1 X129.077 Y152.573 E5.7536
G1 X127.852 Y153.798 E5.78632
G1 X127.783 Y153.827 E5.78773
G1 X126.495 Y153.827 E5.81205
;WIPE_START
G1 F2400
G1 X123.688 Y153.827 E3.81205
;WIPE_END
G92 E0
G1 X126.087 Y66.417 F3000
G1 E2 F1800
G1 F480
