; generated by CreatWare 7.0.0 on 2022-08-03 at 20:50:11 UTC

; 

; external perimeters extrusion width = 0.40mm
; perimeters extrusion width = 0.40mm
; infill extrusion width = 0.40mm
; solid infill extrusion width = 0.40mm
; top infill extrusion width = 0.40mm
; support material extrusion width = 0.40mm

; external perimeters extrusion width = 0.40mm
; perimeters extrusion width = 0.40mm
; infill extrusion width = 0.40mm
; solid infill extrusion width = 0.40mm
; top infill extrusion width = 0.40mm
; support material extrusion width = 0.40mm

; external perimeters extrusion width = 0.40mm
; perimeters extrusion width = 0.40mm
; infill extrusion width = 0.40mm
; solid infill extrusion width = 0.40mm
; top infill extrusion width = 0.40mm
; support material extrusion width = 0.40mm

; external perimeters extrusion width = 0.40mm
; perimeters extrusion width = 0.40mm
; infill extrusion width = 0.40mm
; solid infill extrusion width = 0.40mm
; top infill extrusion width = 0.40mm
; support material extrusion width = 0.40mm

; external perimeters extrusion width = 0.40mm
; perimeters extrusion width = 0.40mm
; infill extrusion width = 0.40mm
; solid infill extrusion width = 0.40mm
; top infill extrusion width = 0.40mm
; support material extrusion width = 0.40mm

; external perimeters extrusion width = 0.40mm
; perimeters extrusion width = 0.40mm
; infill extrusion width = 0.40mm
; solid infill extrusion width = 0.40mm
; top infill extrusion width = 0.40mm
; support material extrusion width = 0.40mm

; external perimeters extrusion width = 0.40mm
; perimeters extrusion width = 0.40mm
; infill extrusion width = 0.40mm
; solid infill extrusion width = 0.40mm
; top infill extrusion width = 0.40mm
; support material extrusion width = 0.40mm

; external perimeters extrusion width = 0.40mm
; perimeters extrusion width = 0.40mm
; infill extrusion width = 0.40mm
; solid infill extrusion width = 0.40mm
; top infill extrusion width = 0.40mm
; support material extrusion width = 0.40mm

; external perimeters extrusion width = 0.40mm
; perimeters extrusion width = 0.40mm
; infill extrusion width = 0.40mm
; solid infill extrusion width = 0.40mm
; top infill extrusion width = 0.40mm
; support material extrusion width = 0.40mm

; external perimeters extrusion width = 0.40mm
; perimeters extrusion width = 0.40mm
; infill extrusion width = 0.40mm
; solid infill extrusion width = 0.40mm
; top infill extrusion width = 0.40mm
; support material extrusion width = 0.40mm

; external perimeters extrusion width = 0.40mm
; perimeters extrusion width = 0.40mm
; infill extrusion width = 0.40mm
; solid infill extrusion width = 0.40mm
; top infill extrusion width = 0.40mm
; support material extrusion width = 0.40mm

; external perimeters extrusion width = 0.40mm
; perimeters extrusion width = 0.40mm
; infill extrusion width = 0.40mm
; solid infill extrusion width = 0.40mm
; top infill extrusion width = 0.40mm
; support material extrusion width = 0.40mm

; external perimeters extrusion width = 0.40mm
; perimeters extrusion width = 0.40mm
; infill extrusion width = 0.40mm
; solid infill extrusion width = 0.40mm
; top infill extrusion width = 0.40mm
; support material extrusion width = 0.40mm

; external perimeters extrusion width = 0.40mm
; perimeters extrusion width = 0.40mm
; infill extrusion width = 0.40mm
; solid infill extrusion width = 0.40mm
; top infill extrusion width = 0.40mm
; support material extrusion width = 0.40mm

; external perimeters extrusion width = 0.40mm
; perimeters extrusion width = 0.40mm
; infill extrusion width = 0.40mm
; solid infill extrusion width = 0.40mm
; top infill extrusion width = 0.40mm
; support material extrusion width = 0.40mm

; external perimeters extrusion width = 0.40mm
; perimeters extrusion width = 0.40mm
; infill extrusion width = 0.40mm
; solid infill extrusion width = 0.40mm
; top infill extrusion width = 0.40mm
; support material extrusion width = 0.40mm

; external perimeters extrusion width = 0.40mm
; perimeters extrusion width = 0.40mm
; infill extrusion width = 0.40mm
; solid infill extrusion width = 0.40mm
; top infill extrusion width = 0.40mm
; support material extrusion width = 0.40mm

; external perimeters extrusion width = 0.40mm
; perimeters extrusion width = 0.40mm
; infill extrusion width = 0.40mm
; solid infill extrusion width = 0.40mm
; top infill extrusion width = 0.40mm
; support material extrusion width = 0.40mm

G21 ; set units to millimeters
G90 ; use absolute coordinates
M82 ; use absolute distances for extrusion
G92 E0
M107
M190 S45 ; set bed temperature and wait for it to be reached
M104 S210 ; set temperature
;TYPE:Custom
M109 S210 ; set temperature and wait for it to be reached
M6013 S0 ; set chamber temp

G28 X0 Y0  ;move X/Y to min endstops
G28 Z0     ;move Z to min endstops

;Add Clear Nozzle
G92 E0                   ;zero the extruded length again
G0 F4200 X0 Y0
G0 F400 X10 Z0.4         ;move a bit while down the Z
M221 T0 S300             ;set flow is 300%
G1 F200 X30 E8          ;extrude amont filament to clean the hotend
M221 T0 S100             ;reset flow is 100%
G92 E0                   ;zero the extruded length again
;Add End

G0 Z15.0 F4200 ;move the platform down 15mm

;Put printing message on LCD screen
M117 Printing...
; Filament gcode
M107
;LAYER_CHANGE
;Layer 1
;Z:0.2
;HEIGHT:0.2
;BEFORE_LAYER_CHANGE
;0.2


G1 Z.2 F4200
;AFTER_LAYER_CHANGE
;G92 E0   ;zero the extruded length again
;0.2
G1 E-2 F1800
G92 E0
G1 X73.719 Y80.658 F4200
G1 E2 F1800
;TYPE:Skirt/Brim
;WIDTH:0.4
G1 F720
G1 X75.563 Y79.376 E2.08002
G1 X78.214 Y78.797 E2.1767
G1 X104.697 Y78.8 E3.12028
G1 X155.337 Y80.488 E4.92556
G1 X189.649 Y85.623 E6.1617
G1 X226.33 Y92.249 E7.48978
G1 X228.68 Y92.734 E7.57527
G1 X230.765 Y93.571 E7.65532
G1 X231.991 Y94.568 E7.71162
G1 X233.273 Y96.412 E7.79164
G1 X233.829 Y98.51 E7.86897
G1 X238.87 Y156.198 E9.9322
G1 X238.942 Y158.536 E10.01554
G1 X238.891 Y168.69 E10.37733
G1 X238.431 Y170.889 E10.45738
G1 X237.575 Y172.383 E10.51873
G1 X236.181 Y173.819 E10.59004
G1 X162.314 Y229.41 E13.88393
G1 X160.309 Y230.422 E13.96395
G1 X158.491 Y230.687 E14.02941
G1 X132.289 Y230.687 E14.96298
G1 X83.565 Y229.746 E16.69932
G1 X81.362 Y229.307 E16.77936
G1 X79.193 Y227.886 E16.87175
G1 X76.193 Y224.63 E17.02949
G1 X74.993 Y222.732 E17.1095
G1 X74.553 Y220.947 E17.175
G1 X69.575 Y169.349 E19.02195
G1 X69.074 Y144.036 E19.92402
G1 X69.05 Y88.208 E21.91315
G1 X69.447 Y85.997 E21.99319
G1 X70.72 Y83.914 E22.08017
G1 X73.678 Y80.703 E22.23572
G1 E20.23572 F1800
G92 E0
G1 X215.386 Y158.345 F4200
G1 E2 F1800
G1 F720
G1 X216.871 Y156.88 E2.07432
G1 X217.112 Y156.743 E2.0842
G1 X217.644 Y156.586 E2.10396
G1 X229.592 Y156.589 E2.52966
G1 X229.945 Y156.674 E2.5426
G1 X230.431 Y156.939 E2.56232
G1 X231.838 Y158.346 E2.63322
G1 X232.105 Y158.834 E2.65304
G1 X232.191 Y159.223 E2.66723
G1 X232.177 Y166.285 E2.91885
G1 X232.104 Y166.553 E2.92875
G1 X231.838 Y167.04 E2.94852
G1 X230.353 Y168.506 E3.02287
G1 X230.112 Y168.643 E3.03275
G1 X229.579 Y168.8 E3.05255
G1 X217.669 Y168.8 E3.4769
G1 X217.281 Y168.713 E3.49107
G1 X216.791 Y168.446 E3.51095
G1 X215.326 Y166.961 E3.58527
G1 X215.189 Y166.72 E3.59515
G1 X215.032 Y166.187 E3.61495
G1 X215.046 Y159.101 E3.86742
G1 X215.119 Y158.833 E3.87732
G1 X215.357 Y158.398 E3.89499
G1 X215.658 Y158.579 F4200
G1 F720
G1 X217.072 Y157.175 E3.96599
G1 X217.239 Y157.077 E3.97289
G1 X217.672 Y156.943 E3.98904
G1 X229.571 Y156.947 E4.413
G1 X229.8 Y157.001 E4.42138
G1 X230.199 Y157.211 E4.43744
G1 X231.566 Y158.579 E4.50635
G1 X231.777 Y158.978 E4.52243
G1 X231.834 Y159.241 E4.53202
G1 X231.826 Y166.219 E4.78064
G1 X231.778 Y166.407 E4.78755
G1 X231.566 Y166.807 E4.80368
G1 X230.151 Y168.211 E4.8747
G1 X229.984 Y168.309 E4.8816
G1 X229.551 Y168.443 E4.89775
G1 X217.688 Y168.443 E5.32042
G1 X217.424 Y168.385 E5.33005
G1 X217.025 Y168.174 E5.34613
G1 X215.621 Y166.76 E5.41713
G1 X215.523 Y166.593 E5.42403
G1 X215.389 Y166.16 E5.44018
G1 X215.397 Y159.167 E5.68934
G1 X215.446 Y158.979 E5.69626
G1 X215.629 Y158.632 E5.71024
G1 X215.931 Y158.81 F4200
G1 F720
G1 X217.279 Y157.467 E5.77804
G1 X217.374 Y157.408 E5.78202
G1 X217.702 Y157.3 E5.79432
G1 X229.551 Y157.304 E6.21649
G1 X229.659 Y157.329 E6.22044
G1 X229.967 Y157.485 E6.23274
G1 X231.292 Y158.81 E6.2995
G1 X231.447 Y159.116 E6.31172
G1 X231.477 Y159.259 E6.31693
G1 X231.474 Y166.159 E6.56277
G1 X231.448 Y166.268 E6.56676
G1 X231.292 Y166.576 E6.57906
G1 X229.944 Y167.919 E6.64686
G1 X229.849 Y167.978 E6.65084
G1 X229.521 Y168.086 E6.66314
G1 X217.705 Y168.086 E7.08414
G1 X217.562 Y168.056 E7.08935
G1 X217.256 Y167.901 E7.10157
G1 X215.913 Y166.553 E7.16937
G1 X215.854 Y166.458 E7.17335
G1 X215.746 Y166.13 E7.18565
G1 X215.75 Y159.227 E7.4316
G1 X215.775 Y159.118 E7.43558
G1 X215.904 Y158.864 E7.44573
G1 X216.207 Y159.039 F4200
G1 F720
G1 X217.495 Y157.751 E7.51063
G1 X217.735 Y157.657 E7.51981
G1 X229.501 Y157.657 E7.93903
G1 X229.738 Y157.761 E7.94825
G1 X231.016 Y159.039 E8.01265
G1 X231.12 Y159.276 E8.02187
G1 X231.12 Y166.11 E8.26536
G1 X231.016 Y166.347 E8.27458
G1 X229.729 Y167.634 E8.33943
G1 X229.488 Y167.728 E8.34865
G1 X217.722 Y167.728 E8.76787
G1 X217.485 Y167.625 E8.77708
G1 X216.198 Y166.337 E8.84195
G1 X216.103 Y166.096 E8.85118
G1 X216.103 Y159.276 E9.09417
G1 X216.182 Y159.093 E9.10127
G1 X216.488 Y159.263 F4200
G1 F720
G1 X217.709 Y158.042 E9.16279
G1 X217.775 Y158.014 E9.16534
G1 X229.448 Y158.014 E9.58124
G1 X229.514 Y158.042 E9.58379
G1 X230.736 Y159.263 E9.64534
G1 X230.763 Y159.329 E9.64788
G1 X230.763 Y166.057 E9.8876
G1 X230.736 Y166.122 E9.89011
G1 X229.514 Y167.344 E9.95168
G1 X229.448 Y167.371 E9.95422
G1 X217.775 Y167.371 E10.37012
G1 X217.709 Y167.344 E10.37266
G1 X216.488 Y166.122 E10.43421
G1 X216.46 Y166.057 E10.43673
G1 X216.465 Y159.319 E10.6768
G1 E8.6768 F1800
G92 E0
G1 X216.465 Y138.11 F4200
G1 E2 F1800
G1 F720
G1 X214.089 Y138.11 E2.08466
G1 X213.701 Y138.023 E2.09883
G1 X213.212 Y137.756 E2.11868
G1 X211.746 Y136.272 E2.193
G1 X211.609 Y136.03 E2.20291
G1 X211.452 Y135.498 E2.22267
G1 X211.466 Y128.411 E2.47518
G1 X211.54 Y128.143 E2.48509
G1 X211.806 Y127.655 E2.50489
G1 X213.291 Y126.19 E2.57921
G1 X213.532 Y126.053 E2.58909
G1 X214.064 Y125.896 E2.60885
G1 X226.012 Y125.9 E3.03455
G1 X226.365 Y125.984 E3.04748
G1 X226.852 Y126.249 E3.06723
G1 X228.258 Y127.656 E3.1381
G1 X228.525 Y128.145 E3.15795
G1 X228.611 Y128.533 E3.17211
G1 X228.598 Y135.595 E3.42373
G1 X228.524 Y135.863 E3.43364
G1 X228.258 Y136.351 E3.45344
G1 X226.773 Y137.816 E3.52776
G1 X226.532 Y137.953 E3.53764
G1 X225.999 Y138.11 E3.55744
G1 X216.525 Y138.11 E3.89499
G1 X216.525 Y137.753 F4200
G1 F720
G1 X214.108 Y137.753 E3.98111
G1 X213.844 Y137.696 E3.99073
G1 X213.445 Y137.485 E4.00681
G1 X212.042 Y136.07 E4.07781
G1 X211.943 Y135.903 E4.08473
G1 X211.809 Y135.47 E4.10088
G1 X211.818 Y128.477 E4.35004
G1 X211.866 Y128.289 E4.35695
G1 X212.078 Y127.889 E4.37308
G1 X213.492 Y126.485 E4.44408
G1 X213.659 Y126.387 E4.45098
G1 X214.092 Y126.253 E4.46713
G1 X225.992 Y126.257 E4.89112
G1 X226.22 Y126.311 E4.89947
G1 X226.619 Y126.521 E4.91553
G1 X227.986 Y127.889 E4.98444
G1 X228.197 Y128.288 E5.00052
G1 X228.254 Y128.552 E5.01014
G1 X228.246 Y135.529 E5.25873
G1 X228.198 Y135.717 E5.26564
G1 X227.986 Y136.117 E5.28177
G1 X226.571 Y137.521 E5.35279
G1 X226.404 Y137.619 E5.35969
G1 X225.971 Y137.753 E5.37584
G1 X216.585 Y137.753 E5.71026
G1 X216.585 Y137.396 F4200
G1 F720
G1 X214.126 Y137.396 E5.79787
G1 X213.982 Y137.366 E5.80311
G1 X213.676 Y137.211 E5.81533
G1 X212.333 Y135.863 E5.88313
G1 X212.274 Y135.768 E5.88711
G1 X212.167 Y135.44 E5.8994
G1 X212.17 Y128.537 E6.14535
G1 X212.195 Y128.428 E6.14933
G1 X212.351 Y128.12 E6.16163
G1 X213.699 Y126.777 E6.22943
G1 X213.794 Y126.718 E6.23341
G1 X214.122 Y126.61 E6.24571
G1 X225.971 Y126.614 E6.66788
G1 X226.079 Y126.639 E6.67183
G1 X226.388 Y126.795 E6.68416
G1 X227.712 Y128.12 E6.7509
G1 X227.867 Y128.426 E6.76312
G1 X227.897 Y128.569 E6.76833
G1 X227.894 Y135.469 E7.01417
G1 X227.868 Y135.578 E7.01816
G1 X227.713 Y135.886 E7.03045
G1 X226.364 Y137.229 E7.09827
G1 X226.27 Y137.288 E7.10222
G1 X225.941 Y137.396 E7.11456
G1 X216.645 Y137.396 E7.44577
G1 X216.645 Y137.039 F4200
G1 F720
G1 X214.112 Y137.033 E7.53602
G1 X213.905 Y136.935 E7.54418
G1 X212.618 Y135.648 E7.60903
G1 X212.524 Y135.407 E7.61825
G1 X212.524 Y128.586 E7.86128
G1 X212.627 Y128.349 E7.87049
G1 X213.915 Y127.062 E7.93536
G1 X214.156 Y126.967 E7.94459
G1 X225.922 Y126.967 E8.36381
G1 X226.159 Y127.071 E8.37303
G1 X227.436 Y128.349 E8.4374
G1 X227.54 Y128.586 E8.44662
G1 X227.54 Y135.42 E8.69011
G1 X227.436 Y135.657 E8.69933
G1 X226.149 Y136.944 E8.76418
G1 X225.908 Y137.039 E8.77341
G1 X216.705 Y137.039 E9.10131
G1 X216.705 Y136.682 F4200
G1 F720
G1 X214.195 Y136.682 E9.19074
G1 X214.13 Y136.654 E9.19326
G1 X212.908 Y135.433 E9.25481
G1 X212.881 Y135.367 E9.25735
G1 X212.881 Y128.639 E9.49707
G1 X212.908 Y128.574 E9.49958
G1 X214.13 Y127.352 E9.56115
G1 X214.195 Y127.325 E9.56366
G1 X225.869 Y127.325 E9.9796
G1 X225.934 Y127.352 E9.98211
G1 X227.156 Y128.574 E10.04368
G1 X227.183 Y128.639 E10.04619
G1 X227.183 Y135.367 E10.28591
G1 X227.156 Y135.433 E10.28845
G1 X225.934 Y136.654 E10.35
G1 X225.869 Y136.682 E10.35252
G1 X216.765 Y136.682 E10.67689
G1 E8.67689 F1800
G92 E0
G1 X215.881 Y132.932 F4200
G1 X215.881 Y131.074
G1 X216.765 Y111.112
G1 E2 F1800
G1 F720
G1 X212.628 Y111.112 E2.1474
G1 X212.24 Y111.025 E2.16157
G1 X211.75 Y110.758 E2.18145
G1 X210.285 Y109.274 E2.25575
G1 X210.148 Y109.033 E2.26563
G1 X209.991 Y108.5 E2.28543
G1 X210.005 Y101.413 E2.53794
G1 X210.078 Y101.146 E2.5478
G1 X210.345 Y100.658 E2.56762
G1 X211.83 Y99.192 E2.64197
G1 X212.071 Y99.055 E2.65185
G1 X212.603 Y98.898 E2.67161
G1 X224.551 Y98.902 E3.09731
G1 X224.904 Y98.986 E3.11024
G1 X225.39 Y99.251 E3.12996
G1 X226.797 Y100.658 E3.20086
G1 X227.064 Y101.147 E3.22071
G1 X227.15 Y101.535 E3.23487
G1 X227.136 Y108.597 E3.48649
G1 X227.063 Y108.865 E3.49639
G1 X226.797 Y109.353 E3.51619
G1 X225.312 Y110.818 E3.59051
G1 X225.071 Y110.955 E3.60039
G1 X224.538 Y111.112 E3.62019
G1 X216.825 Y111.112 E3.895
G1 X216.825 Y110.755 F4200
G1 F720
G1 X212.647 Y110.755 E4.04386
G1 X212.383 Y110.698 E4.05348
G1 X211.984 Y110.487 E4.06956
G1 X210.58 Y109.072 E4.14058
G1 X210.482 Y108.905 E4.14748
G1 X210.348 Y108.472 E4.16363
G1 X210.356 Y101.479 E4.41279
G1 X210.405 Y101.291 E4.41971
G1 X210.616 Y100.891 E4.43582
G1 X212.031 Y99.488 E4.50682
G1 X212.198 Y99.389 E4.51374
G1 X212.631 Y99.255 E4.52989
G1 X224.53 Y99.259 E4.95385
G1 X224.759 Y99.313 E4.96223
G1 X225.158 Y99.524 E4.97831
G1 X226.525 Y100.891 E5.04719
G1 X226.736 Y101.29 E5.06327
G1 X226.793 Y101.554 E5.07289
G1 X226.785 Y108.531 E5.32148
G1 X226.737 Y108.719 E5.32839
G1 X226.525 Y109.119 E5.34452
G1 X225.11 Y110.523 E5.41554
G1 X224.943 Y110.621 E5.42244
G1 X224.51 Y110.755 E5.43859
G1 X216.885 Y110.755 E5.71027
G1 X216.885 Y110.398 F4200
G1 F720
G1 X212.664 Y110.398 E5.86066
G1 X212.521 Y110.368 E5.86587
G1 X212.215 Y110.213 E5.87809
G1 X210.872 Y108.865 E5.94589
G1 X210.813 Y108.77 E5.94987
G1 X210.705 Y108.442 E5.96217
G1 X210.709 Y101.539 E6.20812
G1 X210.734 Y101.43 E6.2121
G1 X210.89 Y101.122 E6.2244
G1 X212.238 Y99.779 E6.2922
G1 X212.333 Y99.72 E6.29618
G1 X212.661 Y99.612 E6.30848
G1 X224.51 Y99.616 E6.73065
G1 X224.618 Y99.641 E6.7346
G1 X224.926 Y99.797 E6.7469
G1 X226.251 Y101.122 E6.81366
G1 X226.406 Y101.428 E6.82588
G1 X226.436 Y101.571 E6.83109
G1 X226.433 Y108.471 E7.07693
G1 X226.407 Y108.58 E7.08092
G1 X226.251 Y108.888 E7.09322
G1 X224.903 Y110.231 E7.16102
G1 X224.808 Y110.29 E7.165
G1 X224.48 Y110.398 E7.1773
G1 X216.945 Y110.398 E7.44577
G1 X216.945 Y110.041 F4200
G1 F720
G1 X212.651 Y110.035 E7.59876
G1 X212.444 Y109.937 E7.60692
G1 X211.139 Y108.624 E7.67288
G1 X211.062 Y108.409 E7.68102
G1 X211.062 Y101.588 E7.92405
G1 X211.166 Y101.351 E7.93327
G1 X212.453 Y100.064 E7.99812
G1 X212.694 Y99.97 E8.00734
G1 X224.46 Y99.97 E8.42656
G1 X224.697 Y100.073 E8.43577
G1 X225.975 Y101.351 E8.50017
