; generated by CreatWare 7.0.0 on 2022-07-22 at 20:01:07 UTC

; 

; external perimeters extrusion width = 0.40mm
; perimeters extrusion width = 0.40mm
; infill extrusion width = 0.40mm
; solid infill extrusion width = 0.40mm
; top infill extrusion width = 0.40mm

; external perimeters extrusion width = 0.40mm
; perimeters extrusion width = 0.40mm
; infill extrusion width = 0.40mm
; solid infill extrusion width = 0.40mm
; top infill extrusion width = 0.40mm

; external perimeters extrusion width = 0.40mm
; perimeters extrusion width = 0.40mm
; infill extrusion width = 0.40mm
; solid infill extrusion width = 0.40mm
; top infill extrusion width = 0.40mm

; external perimeters extrusion width = 0.40mm
; perimeters extrusion width = 0.40mm
; infill extrusion width = 0.40mm
; solid infill extrusion width = 0.40mm
; top infill extrusion width = 0.40mm

; external perimeters extrusion width = 0.40mm
; perimeters extrusion width = 0.40mm
; infill extrusion width = 0.40mm
; solid infill extrusion width = 0.40mm
; top infill extrusion width = 0.40mm

; external perimeters extrusion width = 0.40mm
; perimeters extrusion width = 0.40mm
; infill extrusion width = 0.40mm
; solid infill extrusion width = 0.40mm
; top infill extrusion width = 0.40mm

; external perimeters extrusion width = 0.40mm
; perimeters extrusion width = 0.40mm
; infill extrusion width = 0.40mm
; solid infill extrusion width = 0.40mm
; top infill extrusion width = 0.40mm

; external perimeters extrusion width = 0.40mm
; perimeters extrusion width = 0.40mm
; infill extrusion width = 0.40mm
; solid infill extrusion width = 0.40mm
; top infill extrusion width = 0.40mm

; external perimeters extrusion width = 0.40mm
; perimeters extrusion width = 0.40mm
; infill extrusion width = 0.40mm
; solid infill extrusion width = 0.40mm
; top infill extrusion width = 0.40mm

; external perimeters extrusion width = 0.40mm
; perimeters extrusion width = 0.40mm
; infill extrusion width = 0.40mm
; solid infill extrusion width = 0.40mm
; top infill extrusion width = 0.40mm

G21 ; set units to millimeters
G90 ; use absolute coordinates
M82 ; use absolute distances for extrusion
G92 E0
M107
M190 S45 ; set bed temperature and wait for it to be reached
M104 S210 ; set temperature
;TYPE:Custom
M109 S210 ; set temperature and wait for it to be reached
M6013 S0 ; set chamber temp

G28 X0 Y0  ;move X/Y to min endstops
G28 Z0     ;move Z to min endstops

;Add Clear Nozzle
G92 E0                   ;zero the extruded length again
G0 F4200 X0 Y0
G0 F400 X10 Z0.4         ;move a bit while down the Z
M221 T0 S300             ;set flow is 300%
G1 F200 X30 E8          ;extrude amont filament to clean the hotend
M221 T0 S100             ;reset flow is 100%
G92 E0                   ;zero the extruded length again
;Add End

G0 Z15.0 F4200 ;move the platform down 15mm

;Put printing message on LCD screen
M117 Printing...
; Filament gcode
M107
;LAYER_CHANGE
;Layer 1
;Z:0.2
;HEIGHT:0.2
;BEFORE_LAYER_CHANGE
;0.2


G1 Z.2 F4200
;AFTER_LAYER_CHANGE
;G92 E0   ;zero the extruded length again
;0.2
G1 E-2 F1800
G92 E0
G1 X47.356 Y36.721 F4200
G1 E2 F1800
;TYPE:Skirt/Brim
;WIDTH:0.4
G1 F720
G1 X49.699 Y34.378 E2.11806
G1 X51.543 Y33.095 E2.1981
G1 X54.194 Y32.516 E2.29478
G1 X60.706 Y32.538 E2.5268
G1 X92.326 Y35.176 E3.65732
G1 X94.496 Y35.755 E3.73734
G1 X96.292 Y37.016 E3.81553
G1 X98.636 Y39.359 E3.93361
G1 X99.918 Y41.203 E4.01363
G1 X100.484 Y43.434 E4.09564
G1 X112.435 Y223.967 E10.54203
G1 X112.435 Y248.292 E11.40872
G1 X112.038 Y250.503 E11.48876
G1 X110.573 Y252.788 E11.58547
G1 X108.23 Y255.131 E11.70353
G1 X106.386 Y256.414 E11.78357
G1 X103.735 Y256.993 E11.88025
G1 X97.08 Y256.957 E12.11737
G1 X64.701 Y253.52 E13.2775
G1 X62.544 Y252.892 E13.35754
G1 X60.877 Y251.693 E13.4307
G1 X58.534 Y249.35 E13.54876
G1 X57.251 Y247.506 E13.6288
G1 X56.684 Y245.25 E13.71168
G1 X45.506 Y65.937 E20.11292
G1 X45.494 Y41.216 E20.99372
G1 X45.891 Y39.005 E21.07376
G1 X47.324 Y36.772 E21.16829
G1 E19.16829 F1800
G92 E0
G1 X83.877 Y44.419 F4200
G1 E2 F1800
G1 F720
G1 X83.951 Y44.151 E2.00991
G1 X84.217 Y43.664 E2.02968
G1 X85.624 Y42.256 E2.1006
G1 X86.163 Y41.973 E2.12229
G1 X86.504 Y41.904 E2.13469
G1 X91.148 Y41.907 E2.30015
G1 X91.501 Y41.992 E2.31309
G1 X91.987 Y42.257 E2.33281
G1 X93.394 Y43.664 E2.40371
G1 X93.661 Y44.152 E2.42353
G1 X93.747 Y44.541 E2.43772
G1 X93.733 Y67.615 E3.25984
G1 X93.66 Y67.882 E3.2697
G1 X93.394 Y68.37 E3.2895
G1 X91.987 Y69.777 E3.3604
G1 X91.448 Y70.061 E3.38211
G1 X91.107 Y70.129 E3.3945
G1 X86.378 Y70.116 E3.56299
G1 X86.111 Y70.042 E3.57286
G1 X85.623 Y69.776 E3.59266
G1 X84.217 Y68.37 E3.66351
G1 X83.95 Y67.881 E3.68336
G1 X83.864 Y67.493 E3.69752
G1 X83.877 Y44.479 E4.5175
G1 X84.229 Y44.485 F4200
G1 F720
G1 X84.277 Y44.297 E4.52441
G1 X84.489 Y43.897 E4.54054
G1 X85.856 Y42.529 E4.60945
G1 X86.3 Y42.303 E4.6272
G1 X86.52 Y42.261 E4.63518
G1 X91.128 Y42.265 E4.79936
G1 X91.356 Y42.319 E4.80771
G1 X91.755 Y42.529 E4.82377
G1 X93.122 Y43.897 E4.89268
G1 X93.333 Y44.296 E4.90876
G1 X93.39 Y44.559 E4.91835
G1 X93.382 Y67.549 E5.73747
G1 X93.334 Y67.736 E5.74435
G1 X93.122 Y68.137 E5.76051
G1 X91.755 Y69.504 E5.82939
G1 X91.311 Y69.73 E5.84714
G1 X91.091 Y69.772 E5.85512
G1 X86.444 Y69.764 E6.02069
G1 X86.257 Y69.716 E6.02757
G1 X85.856 Y69.504 E6.04373
G1 X84.489 Y68.137 E6.11261
G1 X84.278 Y67.737 E6.12872
G1 X84.221 Y67.474 E6.13831
G1 X84.229 Y44.545 E6.95526
G1 X84.581 Y44.545 F4200
G1 F720
G1 X84.607 Y44.436 E6.95925
G1 X84.763 Y44.128 E6.97155
G1 X86.086 Y42.804 E7.03824
G1 X86.431 Y42.636 E7.05191
G1 X86.534 Y42.618 E7.05564
G1 X91.107 Y42.622 E7.21857
G1 X91.215 Y42.647 E7.22252
G1 X91.523 Y42.803 E7.23482
G1 X92.848 Y44.128 E7.30158
G1 X93.003 Y44.434 E7.3138
G1 X93.033 Y44.577 E7.31901
G1 X93.03 Y67.489 E8.13535
G1 X93.004 Y67.597 E8.13931
G1 X92.848 Y67.906 E8.15164
G1 X91.524 Y69.229 E8.21833
G1 X91.18 Y69.397 E8.23197
G1 X91.077 Y69.415 E8.2357
G1 X86.504 Y69.412 E8.39863
G1 X86.396 Y69.386 E8.40259
G1 X86.087 Y69.23 E8.41492
G1 X84.763 Y67.906 E8.48163
G1 X84.608 Y67.599 E8.49388
G1 X84.578 Y67.456 E8.49909
G1 X84.581 Y44.605 E9.31326
G1 X84.935 Y44.605 F4200
G1 F720
G1 X85.038 Y44.357 E9.32283
G1 X86.316 Y43.079 E9.38723
G1 X86.553 Y42.975 E9.39645
G1 X91.088 Y42.981 E9.55803
G1 X91.295 Y43.079 E9.56619
G1 X92.572 Y44.357 E9.63056
G1 X92.67 Y44.564 E9.63872
G1 X92.676 Y67.44 E10.45378
G1 X92.572 Y67.677 E10.463
G1 X91.295 Y68.954 E10.52735
G1 X91.088 Y69.052 E10.53551
G1 X86.523 Y69.052 E10.69816
G1 X86.316 Y68.954 E10.70632
G1 X85.038 Y67.677 E10.77069
G1 X84.941 Y67.47 E10.77883
G1 X84.935 Y44.665 E11.59136
G1 X85.292 Y44.665 F4200
G1 F720
G1 X85.319 Y44.581 E11.5945
G1 X86.541 Y43.36 E11.65605
G1 X86.606 Y43.332 E11.65857
G1 X91.004 Y43.332 E11.81527
G1 X91.07 Y43.36 E11.81782
G1 X92.292 Y44.581 E11.87937
G1 X92.319 Y44.647 E11.88191
G1 X92.319 Y67.386 E12.69209
G1 X92.292 Y67.452 E12.69463
G1 X91.07 Y68.674 E12.7562
G1 X91.004 Y68.701 E12.75874
G1 X86.606 Y68.701 E12.91544
G1 X86.541 Y68.674 E12.91795
G1 X85.319 Y67.452 E12.97952
G1 X85.292 Y67.386 E12.98206
G1 X85.292 Y44.725 E13.78946
G1 E11.78946 F1800
G92 E0
G1 X62.126 Y44.711 F4200
G1 E2 F1800
G1 F720
G1 X62.114 Y64.977 E2.72207
G1 X62.041 Y65.244 E2.73193
G1 X61.775 Y65.732 E2.75173
G1 X60.367 Y67.14 E2.82268
G1 X59.829 Y67.423 E2.84434
G1 X59.487 Y67.492 E2.85677
G1 X54.759 Y67.478 E3.02523
G1 X54.491 Y67.404 E3.03514
G1 X54.004 Y67.139 E3.05489
G1 X52.597 Y65.732 E3.12579
G1 X52.331 Y65.243 E3.14562
G1 X52.244 Y64.855 E3.15979
G1 X52.258 Y41.781 E3.98191
G1 X52.331 Y41.513 E3.99181
G1 X52.597 Y41.026 E4.01158
G1 X54.005 Y39.618 E4.08253
G1 X54.543 Y39.335 E4.10419
G1 X54.885 Y39.266 E4.11662
G1 X59.529 Y39.27 E4.28208
G1 X59.882 Y39.354 E4.29501
G1 X60.368 Y39.619 E4.31473
G1 X61.775 Y41.026 E4.38563
G1 X62.041 Y41.515 E4.40546
G1 X62.128 Y41.903 E4.41963
G1 X62.126 Y44.651 E4.51754
G1 X61.77 Y44.651 F4200
G1 F720
G1 X61.763 Y64.911 E5.23939
G1 X61.714 Y65.098 E5.24628
G1 X61.503 Y65.499 E5.26242
G1 X60.135 Y66.866 E5.33133
G1 X59.691 Y67.093 E5.3491
G1 X59.472 Y67.135 E5.35705
G1 X54.825 Y67.126 E5.52262
G1 X54.637 Y67.078 E5.52953
G1 X54.237 Y66.866 E5.54566
G1 X52.869 Y65.499 E5.61457
G1 X52.658 Y65.1 E5.63065
G1 X52.601 Y64.836 E5.64027
G1 X52.609 Y41.847 E6.45936
G1 X52.658 Y41.659 E6.46628
G1 X52.869 Y41.259 E6.48239
G1 X54.237 Y39.891 E6.55132
G1 X54.681 Y39.665 E6.56907
G1 X54.901 Y39.623 E6.57705
G1 X59.508 Y39.627 E6.7412
G1 X59.736 Y39.681 E6.74955
G1 X60.135 Y39.891 E6.76561
G1 X61.503 Y41.259 E6.83454
G1 X61.714 Y41.658 E6.85062
G1 X61.771 Y41.922 E6.86024
G1 X61.77 Y44.591 E6.95534
G1 X61.413 Y44.591 F4200
G1 F720
G1 X61.41 Y64.851 E7.67719
G1 X61.385 Y64.96 E7.68117
G1 X61.229 Y65.268 E7.69347
G1 X59.905 Y66.592 E7.76018
G1 X59.56 Y66.76 E7.77385
G1 X59.458 Y66.777 E7.77753
G1 X54.885 Y66.774 E7.94046
G1 X54.776 Y66.748 E7.94445
G1 X54.468 Y66.593 E7.95674
G1 X53.143 Y65.268 E8.0235
G1 X52.988 Y64.962 E8.03572
G1 X52.958 Y64.818 E8.04096
G1 X52.962 Y41.907 E8.85727
G1 X52.987 Y41.798 E8.86125
G1 X53.143 Y41.49 E8.87355
G1 X54.467 Y40.166 E8.94026
G1 X54.812 Y39.998 E8.95393
G1 X54.914 Y39.98 E8.95762
G1 X59.487 Y39.984 E9.12055
G1 X59.596 Y40.009 E9.12453
G1 X59.904 Y40.165 E9.13683
G1 X61.229 Y41.49 E9.20359
G1 X61.384 Y41.796 E9.21581
G1 X61.414 Y41.939 E9.22102
G1 X61.413 Y44.531 E9.31337
G1 X61.057 Y44.531 F4200
G1 F720
G1 X61.051 Y64.832 E10.03669
G1 X60.953 Y65.039 E10.04485
G1 X59.675 Y66.317 E10.10925
G1 X59.468 Y66.414 E10.11739
G1 X54.904 Y66.414 E10.28
G1 X54.697 Y66.317 E10.28814
G1 X53.419 Y65.039 E10.35254
G1 X53.315 Y64.802 E10.36176
G1 X53.321 Y41.926 E11.17682
G1 X53.419 Y41.719 E11.18498
G1 X54.697 Y40.441 E11.24938
G1 X54.904 Y40.343 E11.25754
G1 X59.468 Y40.343 E11.42015
G1 X59.675 Y40.441 E11.42831
G1 X60.953 Y41.719 E11.49271
G1 X61.051 Y41.926 E11.50087
G1 X61.057 Y44.471 E11.59155
G1 X60.7 Y44.471 F4200
G1 F720
G1 X60.7 Y64.749 E12.31405
G1 X60.673 Y64.814 E12.31656
G1 X59.451 Y66.036 E12.37813
G1 X59.385 Y66.063 E12.38067
G1 X54.987 Y66.063 E12.53737
G1 X54.921 Y66.036 E12.53991
G1 X53.7 Y64.814 E12.60146
G1 X53.673 Y64.749 E12.60397
G1 X53.673 Y42.009 E13.41419
G1 X53.7 Y41.944 E13.4167
G1 X54.921 Y40.722 E13.47825
G1 X54.987 Y40.695 E13.48079
G1 X59.385 Y40.695 E13.63749
G1 X59.451 Y40.722 E13.64003
G1 X60.673 Y41.944 E13.7016
G1 X60.7 Y42.009 E13.70411
G1 X60.7 Y44.411 E13.78969
G1 E11.78969 F1800
G92 E0
G1 X60.671 Y83.189 F4200
G1 E2 F1800
G1 F720
G1 X64.114 Y83.192 E2.12267
G1 X64.467 Y83.276 E2.1356
G1 X64.953 Y83.541 E2.15532
G1 X66.36 Y84.948 E2.22622
G1 X66.627 Y85.437 E2.24607
G1 X66.713 Y85.825 E2.26023
G1 X66.699 Y108.899 E3.08235
G1 X66.626 Y109.166 E3.09221
G1 X66.36 Y109.654 E3.11201
G1 X64.953 Y111.062 E3.18293
G1 X64.414 Y111.345 E3.20462
G1 X64.073 Y111.414 E3.21702
G1 X59.344 Y111.4 E3.38551
G1 X59.077 Y111.326 E3.39538
G1 X58.589 Y111.061 E3.41517
G1 X57.182 Y109.654 E3.48607
G1 X56.916 Y109.165 E3.5059
G1 X56.83 Y108.777 E3.52006
G1 X56.843 Y85.703 E4.34218
G1 X56.917 Y85.435 E4.35209
G1 X57.182 Y84.948 E4.37184
G1 X58.59 Y83.54 E4.44279
G1 X59.129 Y83.257 E4.46448
G1 X59.47 Y83.188 E4.47688
G1 X60.611 Y83.189 E4.51753
G1 X60.61 Y83.546 F4200
G1 F720
G1 X64.094 Y83.549 E4.64166
G1 X64.322 Y83.603 E4.65001
G1 X64.721 Y83.813 E4.66607
G1 X66.088 Y85.181 E4.73498
G1 X66.299 Y85.58 E4.75106
G1 X66.356 Y85.844 E4.76068
G1 X66.348 Y108.833 E5.57977
G1 X66.3 Y109.02 E5.58665
G1 X66.088 Y109.421 E5.60281
G1 X64.721 Y110.788 E5.67169
G1 X64.277 Y111.015 E5.68946
G1 X64.057 Y111.056 E5.69743
G1 X59.41 Y111.048 E5.863
G1 X59.223 Y111 E5.86988
G1 X58.822 Y110.788 E5.88604
G1 X57.455 Y109.421 E5.95492
G1 X57.244 Y109.022 E5.971
G1 X57.187 Y108.758 E5.98062
G1 X57.195 Y85.769 E6.79971
G1 X57.243 Y85.581 E6.80662
G1 X57.455 Y85.181 E6.82275
G1 X58.822 Y83.813 E6.89166
G1 X59.266 Y83.587 E6.90941
G1 X59.486 Y83.545 E6.91739
G1 X60.55 Y83.546 E6.9553
G1 X60.55 Y83.903 F4200
G1 F720
G1 X64.073 Y83.906 E7.08082
G1 X64.181 Y83.931 E7.08477
G1 X64.489 Y84.087 E7.09707
G1 X65.814 Y85.412 E7.16383
G1 X65.969 Y85.718 E7.17605
G1 X65.999 Y85.861 E7.18126
G1 X65.996 Y108.773 E7.9976
G1 X65.97 Y108.881 E8.00156
G1 X65.814 Y109.19 E8.01389
G1 X64.49 Y110.514 E8.0806
G1 X64.146 Y110.682 E8.09424
G1 X64.043 Y110.699 E8.09796
G1 X59.47 Y110.696 E8.26089
G1 X59.362 Y110.67 E8.26485
G1 X59.053 Y110.515 E8.27717
G1 X57.728 Y109.19 E8.34393
G1 X57.574 Y108.883 E8.35617
G1 X57.544 Y108.74 E8.36138
G1 X57.547 Y85.829 E9.17769
G1 X57.573 Y85.72 E9.18168
G1 X57.728 Y85.412 E9.19397
G1 X59.052 Y84.088 E9.26068
G1 X59.397 Y83.92 E9.27435
G1 X59.5 Y83.902 E9.27808
G1 X60.49 Y83.903 E9.31335
G1 X60.49 Y84.259 F4200
G1 F720
G1 X64.054 Y84.265 E9.44033
G1 X64.26 Y84.363 E9.44846
G1 X65.538 Y85.641 E9.51286
G1 X65.642 Y85.878 E9.52208
G1 X65.642 Y108.724 E10.33607
G1 X65.538 Y108.961 E10.34529
G1 X64.26 Y110.239 E10.40969
G1 X64.024 Y110.342 E10.41886
G1 X59.489 Y110.336 E10.58044
G1 X59.282 Y110.239 E10.58858
G1 X58.004 Y108.961 E10.65298
G1 X57.901 Y108.724 E10.66219
G1 X57.901 Y85.878 E11.47618
G1 X58.004 Y85.641 E11.48539
G1 X59.282 Y84.363 E11.54979
G1 X59.519 Y84.259 E11.55901
G1 X60.43 Y84.259 E11.59147
G1 X60.43 Y84.617 F4200
G1 F720
G1 X63.97 Y84.617 E11.7176
G1 X64.036 Y84.644 E11.72014
G1 X65.258 Y85.865 E11.78169
G1 X65.285 Y85.931 E11.78423
G1 X65.285 Y108.671 E12.59445
G1 X65.258 Y108.736 E12.59696
G1 X64.036 Y109.958 E12.65853
G1 X63.97 Y109.985 E12.66107
G1 X59.572 Y109.985 E12.81777
G1 X59.507 Y109.958 E12.82028
G1 X58.285 Y108.736 E12.88185
G1 X58.258 Y108.671 E12.88436
G1 X58.258 Y85.931 E13.69458
G1 X58.285 Y85.865 E13.69712
G1 X59.507 Y84.644 E13.75867
G1 X59.572 Y84.617 E13.76118
G1 X60.37 Y84.617 E13.78961
G1 E11.78961 F1800
G92 E0
G1 X83.942 Y88.897 F4200
G1 E2 F1800
G1 F720
G1 X84.015 Y88.629 E2.0099
G1 X84.281 Y88.142 E2.02967
G1 X85.689 Y86.734 E2.10062
G1 X86.227 Y86.451 E2.12228
G1 X86.569 Y86.382 E2.13471
G1 X91.213 Y86.385 E2.30017
G1 X91.566 Y86.47 E2.31311
G1 X92.052 Y86.735 E2.33283
G1 X93.459 Y88.142 E2.40373
G1 X93.725 Y88.63 E2.42353
G1 X93.812 Y89.019 E2.43773
G1 X93.798 Y112.092 E3.25981
G1 X93.725 Y112.36 E3.26971
G1 X93.459 Y112.847 E3.28948
G1 X92.051 Y114.255 E3.36043
G1 X91.513 Y114.538 E3.38209
G1 X91.171 Y114.607 E3.39452
G1 X86.443 Y114.593 E3.56298
G1 X86.175 Y114.52 E3.57288
G1 X85.688 Y114.254 E3.59265
G1 X84.281 Y112.847 E3.66355
G1 X84.015 Y112.359 E3.68335
G1 X83.928 Y111.97 E3.69755
G1 X83.942 Y88.957 E4.51749
G1 X84.293 Y88.963 F4200
G1 F720
G1 X84.342 Y88.775 E4.52441
G1 X84.553 Y88.374 E4.54055
G1 X85.921 Y87.007 E4.60946
G1 X86.365 Y86.781 E4.62721
G1 X86.584 Y86.739 E4.63516
G1 X91.192 Y86.742 E4.79934
G1 X91.42 Y86.796 E4.80769
G1 X91.819 Y87.007 E4.82377
G1 X93.187 Y88.374 E4.89268
G1 X93.398 Y88.774 E4.90879
G1 X93.455 Y89.037 E4.91838
G1 X93.447 Y112.026 E5.73747
G1 X93.398 Y112.214 E5.74439
G1 X93.187 Y112.615 E5.76053
G1 X91.819 Y113.982 E5.82944
G1 X91.375 Y114.208 E5.84719
G1 X91.156 Y114.25 E5.85514
G1 X86.509 Y114.242 E6.02071
G1 X86.321 Y114.194 E6.02762
G1 X85.921 Y113.982 E6.04375
G1 X84.553 Y112.615 E6.11266
G1 X84.342 Y112.215 E6.12877
G1 X84.285 Y111.952 E6.13836
G1 X84.293 Y89.023 E6.95531
G1 X84.646 Y89.023 F4200
G1 F720
G1 X84.671 Y88.914 E6.95929
G1 X84.827 Y88.606 E6.97159
G1 X86.151 Y87.282 E7.0383
G1 X86.496 Y87.114 E7.05197
G1 X86.598 Y87.096 E7.05566
G1 X91.171 Y87.099 E7.21859
G1 X91.28 Y87.125 E7.22258
G1 X91.588 Y87.281 E7.23488
G1 X92.913 Y88.606 E7.30164
G1 X93.068 Y88.912 E7.31386
G1 X93.098 Y89.055 E7.31907
G1 X93.094 Y111.967 E8.13541
G1 X93.069 Y112.075 E8.13936
G1 X92.913 Y112.383 E8.15166
G1 X91.589 Y113.707 E8.21837
G1 X91.244 Y113.875 E8.23204
G1 X91.142 Y113.893 E8.23573
G1 X86.569 Y113.89 E8.39866
G1 X86.46 Y113.864 E8.40265
G1 X86.152 Y113.708 E8.41495
G1 X84.827 Y112.383 E8.48171
G1 X84.672 Y112.077 E8.49393
G1 X84.642 Y111.934 E8.49914
G1 X84.646 Y89.083 E9.31331
G1 X84.999 Y89.083 F4200
G1 F720
G1 X85.103 Y88.835 E9.32289
G1 X86.381 Y87.557 E9.38729
G1 X86.618 Y87.453 E9.39651
G1 X91.152 Y87.459 E9.55805
G1 X91.359 Y87.557 E9.56621
G1 X92.637 Y88.835 E9.63061
