; generated by CreatWare 7.0.0 on 2022-06-24 at 18:35:53 UTC

; 

; external perimeters extrusion width = 0.40mm
; perimeters extrusion width = 0.40mm
; infill extrusion width = 0.40mm
; solid infill extrusion width = 0.40mm
; top infill extrusion width = 0.40mm
; support material extrusion width = 0.40mm

G21 ; set units to millimeters
G90 ; use absolute coordinates
M82 ; use absolute distances for extrusion
G92 E0
M107
M190 S45 ; set bed temperature and wait for it to be reached
M104 S210 ; set temperature
;TYPE:Custom
M109 S210 ; set temperature and wait for it to be reached
M6013 S0 ; set chamber temp

G28 X0 Y0  ;move X/Y to min endstops
G28 Z0     ;move Z to min endstops

;Add Clear Nozzle
G92 E0                   ;zero the extruded length again
G0 F4200 X0 Y0
G0 F400 X10 Z0.4         ;move a bit while down the Z
M221 T0 S300             ;set flow is 300%
G1 F200 X30 E8          ;extrude amont filament to clean the hotend
M221 T0 S100             ;reset flow is 100%
G92 E0                   ;zero the extruded length again
;Add End

G0 Z15.0 F4200 ;move the platform down 15mm

;Put printing message on LCD screen
M117 Printing...
; Filament gcode
M107
;LAYER_CHANGE
;Layer 1
;Z:0.2
;HEIGHT:0.2
;BEFORE_LAYER_CHANGE
;0.2


G1 Z.2 F4200
;AFTER_LAYER_CHANGE
;G92 E0   ;zero the extruded length again
;0.2
G1 E-2 F1800
G92 E0
G1 X186.58 Y133.806 F4200
G1 E2 F1800
;TYPE:Skirt/Brim
;WIDTH:0.4
G1 F720
G1 X188.529 Y132.419 E2.08523
G1 X191.18 Y131.839 E2.18192
G1 X200.185 Y131.839 E2.50276
G1 X202.195 Y132.166 E2.57532
G1 X210.831 Y135.044 E2.89965
G1 X213.315 Y136.58 E3.00371
G1 X214.703 Y138.529 E3.08896
G1 X215.282 Y141.18 E3.18564
G1 X215.282 Y158.82 E3.81415
G1 X214.885 Y161.031 E3.89419
G1 X213.315 Y163.42 E3.99604
G1 X210.831 Y164.956 E4.1001
G1 X202.195 Y167.834 E4.42443
G1 X200.185 Y168.161 E4.49699
G1 X191.18 Y168.161 E4.81783
G1 X188.969 Y167.764 E4.89787
G1 X186.58 Y166.194 E4.99972
G1 X185.297 Y164.35 E5.07976
G1 X184.718 Y161.699 E5.17644
G1 X184.718 Y138.301 E6.0101
G1 X185.115 Y136.09 E6.09014
G1 X186.548 Y133.857 E6.18467
G1 E4.18467 F1800
G92 E0
G1 X194.237 Y143.419 F4200
G1 E2 F1800
G1 F720
G1 X194.634 Y143.226 E2.01573
G1 X194.855 Y143.183 E2.02375
G1 X198.471 Y143.192 E2.15259
G1 X198.658 Y143.24 E2.15947
G1 X199.059 Y143.452 E2.17563
G1 X199.464 Y143.857 E2.19604
G1 X199.749 Y144.38 E2.21726
G1 X200.042 Y143.849 E2.23887
G1 X200.513 Y143.401 E2.26203
G1 X200.644 Y143.321 E2.2675
G1 X201.034 Y143.192 E2.28214
G1 X205.182 Y143.187 E2.42993
G1 X205.41 Y143.241 E2.43828
G1 X205.816 Y143.458 E2.45468
G1 X206.285 Y143.955 E2.47903
G1 X206.343 Y144.055 E2.48315
G1 X206.482 Y144.504 E2.4999
G1 X206.482 Y155.488 E2.89126
G1 X206.424 Y155.752 E2.90089
G1 X206.207 Y156.158 E2.91729
G1 X205.71 Y156.627 E2.94164
G1 X205.61 Y156.685 E2.94576
G1 X205.161 Y156.824 E2.96251
G1 X201.034 Y156.815 E3.10955
G1 X200.644 Y156.686 E3.12419
G1 X200.513 Y156.607 E3.12964
G1 X200.042 Y156.158 E3.15283
G1 X199.754 Y155.62 E3.17457
G1 X199.458 Y156.158 E3.19645
G1 X198.96 Y156.627 E3.22082
G1 X198.86 Y156.685 E3.22494
G1 X198.411 Y156.824 E3.24169
G1 X194.818 Y156.821 E3.36971
G1 X194.59 Y156.766 E3.37807
G1 X194.184 Y156.549 E3.39447
G1 X193.715 Y156.052 E3.41882
G1 X193.657 Y155.952 E3.42294
G1 X193.518 Y155.504 E3.43965
G1 X193.518 Y150.367 E3.62268
G1 X193.627 Y150.004 E3.63618
G1 X193.518 Y149.641 E3.64968
G1 X193.518 Y144.519 E3.83217
G1 X193.575 Y144.256 E3.84176
G1 X193.786 Y143.858 E3.85781
G1 X194.194 Y143.461 E3.87809
G1 X194.422 Y143.726 F4200
G1 F720
G1 X194.766 Y143.558 E3.89173
G1 X194.869 Y143.54 E3.89546
G1 X198.411 Y143.544 E4.02166
G1 X198.519 Y143.569 E4.02561
G1 X198.827 Y143.725 E4.03791
G1 X199.19 Y144.088 E4.0562
G1 X199.345 Y144.394 E4.06842
G1 X199.375 Y144.537 E4.07363
G1 X199.375 Y146.854 E4.15618
G1 X200.125 Y146.854 E4.1829
G1 X200.125 Y144.537 E4.26545
G1 X200.155 Y144.394 E4.27066
G1 X200.313 Y144.085 E4.28303
G1 X200.776 Y143.653 E4.30559
G1 X201.119 Y143.54 E4.31846
G1 X205.161 Y143.544 E4.46247
G1 X205.269 Y143.569 E4.46642
G1 X205.58 Y143.728 E4.47886
G1 X205.993 Y144.161 E4.50018
G1 X206.125 Y144.534 E4.51428
G1 X206.125 Y155.47 E4.90392
G1 X206.095 Y155.613 E4.90913
G1 X205.937 Y155.923 E4.92153
G1 X205.504 Y156.336 E4.94285
G1 X205.131 Y156.467 E4.95694
G1 X201.119 Y156.467 E5.09989
G1 X200.776 Y156.354 E5.11276
G1 X200.314 Y155.923 E5.13527
G1 X200.143 Y155.576 E5.14905
G1 X200.125 Y155.473 E5.15278
G1 X200.125 Y153.154 E5.2354
G1 X199.375 Y153.154 E5.26212
G1 X199.375 Y155.47 E5.34464
G1 X199.345 Y155.613 E5.34985
G1 X199.187 Y155.923 E5.36225
G1 X198.724 Y156.354 E5.38479
G1 X198.381 Y156.467 E5.39766
G1 X194.839 Y156.464 E5.52386
G1 X194.731 Y156.438 E5.52782
G1 X194.42 Y156.279 E5.54026
G1 X194.007 Y155.846 E5.56158
G1 X193.875 Y155.473 E5.57568
G1 X193.875 Y150.397 E5.75654
G1 X194.004 Y150.004 E5.77128
G1 X193.875 Y149.61 E5.78605
G1 X193.875 Y144.537 E5.9668
G1 X193.905 Y144.394 E5.97201
G1 X194.06 Y144.088 E5.98423
G1 X194.379 Y143.769 E6.0003
G1 X194.632 Y144.021 F4200
G1 F720
G1 X194.888 Y143.898 E6.01042
G1 X198.362 Y143.898 E6.1342
G1 X198.598 Y144.001 E6.14337
G1 X198.914 Y144.317 E6.15929
G1 X199.018 Y144.554 E6.16851
G1 X199.018 Y147.211 E6.26318
G1 X200.482 Y147.211 E6.31534
G1 X200.482 Y144.554 E6.41001
G1 X200.585 Y144.319 E6.41915
G1 X200.952 Y143.969 E6.43722
G1 X201.152 Y143.898 E6.44478
G1 X205.112 Y143.898 E6.58587
G1 X205.347 Y144 E6.595
G1 X205.696 Y144.367 E6.61304
G1 X205.768 Y144.567 E6.62061
G1 X205.768 Y155.454 E7.00851
G1 X205.665 Y155.689 E7.01765
G1 X205.298 Y156.038 E7.03569
G1 X205.098 Y156.11 E7.04326
G1 X201.152 Y156.11 E7.18385
G1 X200.952 Y156.038 E7.19142
G1 X200.585 Y155.689 E7.20946
G1 X200.482 Y155.454 E7.2186
G1 X200.482 Y152.796 E7.3133
G1 X199.018 Y152.796 E7.36546
G1 X199.018 Y155.454 E7.46016
G1 X198.915 Y155.689 E7.4693
G1 X198.548 Y156.038 E7.48734
G1 X198.348 Y156.11 E7.49491
G1 X194.888 Y156.11 E7.61819
G1 X194.653 Y156.007 E7.62733
G1 X194.304 Y155.641 E7.64535
G1 X194.232 Y155.44 E7.65296
G1 X194.232 Y150.431 E7.83143
G1 X194.306 Y150.225 E7.83923
G1 X194.495 Y150.004 E7.84959
G1 X194.306 Y149.782 E7.85998
G1 X194.232 Y149.577 E7.86775
G1 X194.232 Y144.554 E8.04672
G1 X194.336 Y144.317 E8.05594
G1 X194.589 Y144.064 E8.06869
G1 X194.842 Y144.316 F4200
G1 F720
G1 X194.942 Y144.255 E8.07286
G1 X198.308 Y144.255 E8.19279
G1 X198.374 Y144.282 E8.19533
G1 X198.633 Y144.541 E8.20838
G1 X198.661 Y144.607 E8.21093
G1 X198.661 Y147.568 E8.31643
G1 X200.839 Y147.568 E8.39403
G1 X200.839 Y144.607 E8.49953
G1 X200.867 Y144.541 E8.50208
G1 X201.126 Y144.282 E8.51513
G1 X201.192 Y144.255 E8.51767
G1 X203.008 Y144.255 E8.58237
G1 X203.125 Y144.303 E8.58688
G1 X203.242 Y144.255 E8.59139
G1 X205.058 Y144.255 E8.65609
G1 X205.124 Y144.282 E8.65863
G1 X205.383 Y144.541 E8.67168
G1 X205.411 Y144.607 E8.67423
G1 X205.411 Y155.401 E9.05882
G1 X205.383 Y155.466 E9.06134
G1 X205.124 Y155.726 E9.07442
G1 X205.058 Y155.753 E9.07696
G1 X203.242 Y155.753 E9.14166
G1 X203.125 Y155.705 E9.14617
G1 X203.008 Y155.753 E9.15068
G1 X201.192 Y155.753 E9.21538
G1 X201.126 Y155.726 E9.21792
G1 X200.867 Y155.466 E9.231
G1 X200.839 Y155.401 E9.23352
G1 X200.839 Y152.439 E9.33905
G1 X198.661 Y152.439 E9.41665
G1 X198.661 Y155.401 E9.52218
G1 X198.633 Y155.466 E9.5247
G1 X198.374 Y155.726 E9.53778
G1 X198.308 Y155.753 E9.54032
G1 X194.942 Y155.753 E9.66025
G1 X194.876 Y155.726 E9.66279
G1 X194.617 Y155.466 E9.67587
G1 X194.589 Y155.401 E9.67839
G1 X194.589 Y150.47 E9.85408
G1 X194.617 Y150.405 E9.8566
G1 X195.018 Y150.004 E9.87681
G1 X194.617 Y149.603 E9.89702
G1 X194.589 Y149.537 E9.89957
G1 X194.589 Y144.607 E10.07522
G1 X194.617 Y144.541 E10.07777
G1 X194.799 Y144.358 E10.08697
G1 X195.051 Y144.612 F4200
G1 F720
G1 X198.199 Y144.612 E10.19913
G1 X198.304 Y144.716 E10.2044
G1 X198.304 Y147.925 E10.31874
G1 X201.196 Y147.925 E10.42178
G1 X201.196 Y144.716 E10.53612
G1 X201.301 Y144.612 E10.54139
G1 X202.899 Y144.612 E10.59833
G1 X203.125 Y144.838 E10.60972
G1 X203.351 Y144.612 E10.62111
G1 X204.949 Y144.612 E10.67805
G1 X205.054 Y144.716 E10.68332
G1 X205.054 Y155.291 E11.0601
G1 X204.949 Y155.396 E11.06539
G1 X203.351 Y155.396 E11.12233
G1 X203.125 Y155.17 E11.13372
G1 X202.899 Y155.396 E11.14511
G1 X201.301 Y155.396 E11.20205
G1 X201.196 Y155.291 E11.20734
G1 X201.196 Y152.082 E11.32168
G1 X198.304 Y152.082 E11.42472
G1 X198.304 Y155.291 E11.53906
G1 X198.199 Y155.396 E11.54435
G1 X195.051 Y155.396 E11.65651
G1 X194.946 Y155.291 E11.6618
G1 X194.946 Y150.58 E11.82965
G1 X195.051 Y150.475 E11.83494
G1 X198.946 Y150.475 E11.97372
G1 X198.946 Y150.23 E11.98245
G1 X199.173 Y150.004 E11.99386
G1 X198.946 Y149.778 E12.00527
G1 X198.946 Y149.532 E12.01403
G1 X195.051 Y149.532 E12.15281
G1 X194.946 Y149.428 E12.15808
G1 X194.946 Y144.716 E12.32597
G1 X195.009 Y144.654 E12.32912
G1 E10.32912 F1800
G92 E0
G1 X200.111 Y141.254 F4200
G1 E2 F1800
;TYPE:Support material
G1 F720
G1 X208.746 Y141.254 E2.30766
G1 X208.746 Y158.746 E2.93089
G1 X200.111 Y158.746 E3.23855
G1 X200.111 Y161.625 E3.34113
G1 X191.254 Y161.625 E3.6567
G1 X191.254 Y138.375 E4.48509
G1 X200.111 Y138.375 E4.80066
G1 X200.111 Y141.2 E4.90131
G1 X195.077 Y142.59 F4200
G1 F720
G1 X193.351 Y143.463 E4.97023
G1 X192.925 Y144.758 E5.0188
G1 X192.925 Y149.401 E5.18423
G1 X193.168 Y149.882 E5.20343
G1 X192.925 Y150.622 E5.23118
G1 X192.925 Y155.265 E5.39661
G1 X193.797 Y156.991 E5.46551
G1 X195.093 Y157.417 E5.51412
G1 X198.173 Y157.417 E5.62386
G1 X199.837 Y156.576 E5.69029
G1 X200.047 Y156.991 E5.70686
G1 X201.343 Y157.417 E5.75547
G1 X202.873 Y157.417 E5.80998
G1 X203.078 Y157.314 E5.81815
G1 X203.393 Y157.417 E5.82996
G1 X204.923 Y157.417 E5.88447
G1 X206.649 Y156.545 E5.95337
G1 X207.075 Y155.249 E6.00198
G1 X207.075 Y144.743 E6.3763
G1 X206.203 Y143.016 E6.44523
G1 X204.907 Y142.59 E6.49384
G1 X203.377 Y142.59 E6.54835
G1 X203.172 Y142.694 E6.55654
G1 X202.857 Y142.59 E6.56836
G1 X201.327 Y142.59 E6.62287
G1 X199.663 Y143.431 E6.6893
G1 X199.453 Y143.016 E6.70587
G1 X198.157 Y142.59 E6.75448
G1 X195.131 Y142.59 E6.8623
G1 E4.8623 F1800
G92 E0
G1 X197.358 Y145.39 F4200
G1 X197.525 Y147.804
G1 X197.65 Y148.579
G1 X202.265 Y149.134
G1 X202.339 Y149.344
G1 X202.451 Y149.534
G1 X202.6 Y149.7
G1 X202.796 Y149.81
G1 X204.297 Y150.495
G1 X204.3 Y151.969
G1 X204.3 Y154.158
G1 X207.856 Y158.586
G1 E2 F1800
G1 F720
G1 X207.856 Y141.575 E2.60609
G1 X207.142 Y141.575 E2.63153
G1 X207.142 Y144.162 E2.7237
G1 X206.427 Y142.752 E2.78003
G1 X206.427 Y141.575 E2.82197
G1 X205.713 Y141.575 E2.84741
G1 X205.713 Y142.517 E2.88097
G1 X204.999 Y142.282 E2.90775
G1 X204.999 Y141.575 E2.93294
G1 X204.285 Y141.575 E2.95838
G1 X204.285 Y142.269 E2.98311
G1 X203.571 Y142.269 E3.00855
G1 X203.571 Y141.575 E3.03328
G1 X202.857 Y141.575 E3.05872
G1 X202.857 Y142.269 E3.08345
G1 X202.142 Y142.269 E3.10893
G1 X202.142 Y141.575 E3.13366
G1 X201.428 Y141.575 E3.1591
G1 X201.428 Y142.269 E3.18383
G1 X201.251 Y142.269 E3.19014
G1 X200.714 Y142.54 E3.21157
G1 X200.714 Y141.575 E3.24595
G1 X200 Y141.575 E3.27139
G1 X200 Y142.901 E3.31863
G1 X199.804 Y143 E3.32645
G1 X199.68 Y142.752 E3.33633
G1 X199.286 Y142.623 E3.3511
G1 X199.286 Y138.697 E3.49098
G1 X198.572 Y138.697 E3.51642
G1 X198.572 Y142.388 E3.64793
G1 X198.208 Y142.269 E3.66157
G1 X197.858 Y142.269 E3.67404
G1 X197.858 Y138.697 E3.80131
G1 X197.143 Y138.697 E3.82679
G1 X197.143 Y142.269 E3.95406
G1 X196.429 Y142.269 E3.9795
G1 X196.429 Y138.697 E4.10677
G1 X195.715 Y138.697 E4.13221
G1 X195.715 Y142.269 E4.25948
G1 X195.001 Y142.269 E4.28492
G1 X195.001 Y138.697 E4.41219
G1 X194.287 Y138.697 E4.43763
G1 X194.287 Y142.63 E4.57776
G1 X193.573 Y142.99 E4.60625
G1 X193.573 Y138.697 E4.75921
G1 X192.858 Y138.697 E4.78469
G1 X192.858 Y143.932 E4.97121
G1 X192.604 Y144.707 E5.00027
G1 X192.604 Y149.478 E5.17026
G1 X192.821 Y149.908 E5.18742
G1 X192.604 Y150.57 E5.21224
G1 X192.604 Y155.341 E5.38223
G1 X192.858 Y155.846 E5.40237
G1 X192.858 Y161.303 E5.5968
G1 X193.573 Y161.303 E5.62228
G1 X193.573 Y157.256 E5.76647
G1 X194.287 Y157.491 E5.79325
G1 X194.287 Y161.303 E5.92907
G1 X195.001 Y161.303 E5.95451
G1 X195.001 Y157.725 E6.08199
G1 X195.042 Y157.739 E6.08353
G1 X195.715 Y157.739 E6.10751
G1 X195.715 Y161.303 E6.23449
G1 X196.429 Y161.303 E6.25993
G1 X196.429 Y157.739 E6.38691
G1 X197.143 Y157.739 E6.41235
G1 X197.143 Y161.303 E6.53933
G1 X197.858 Y161.303 E6.56481
G1 X197.858 Y157.739 E6.69179
G1 X198.249 Y157.739 E6.70572
G1 X198.572 Y157.576 E6.71861
G1 X198.572 Y161.303 E6.8514
G1 X199.286 Y161.303 E6.87684
G1 X199.286 Y157.215 E7.02249
G1 X199.696 Y157.008 E7.03885
G1 X199.82 Y157.255 E7.0487
G1 X200 Y157.314 E7.05545
G1 X200 Y158.425 E7.09503
G1 X200.714 Y158.425 E7.12047
G1 X200.714 Y157.549 E7.15168
G1 X201.292 Y157.739 E7.17336
G1 X201.428 Y157.739 E7.17821
G1 X201.428 Y158.425 E7.20265
G1 X202.142 Y158.425 E7.22809
G1 X202.142 Y157.739 E7.25253
G1 X202.857 Y157.739 E7.27801
G1 X202.857 Y158.425 E7.30245
G1 X203.571 Y158.425 E7.32789
G1 X203.571 Y157.739 E7.35233
G1 X204.285 Y157.739 E7.37777
G1 X204.285 Y158.425 E7.40221
G1 X204.999 Y158.425 E7.42765
G1 X204.999 Y157.739 E7.45209
G1 X205.713 Y157.378 E7.4806
G1 X205.713 Y158.425 E7.5179
G1 X206.427 Y158.425 E7.54334
G1 X206.427 Y157.017 E7.59351
G1 X206.913 Y156.772 E7.6129
G1 X207.142 Y156.076 E7.63901
G1 X207.142 Y158.586 E7.72844
G1 E5.72844 F1800
G92 E0
G1 X192.144 Y161.464 F4200
G1 E2 F1800
G1 F720
G1 X192.144 Y138.536 E2.81691
G1 E.81691 F1800
G92 E0
G1 X195.325 Y144.99 F4200
G1 E2 F1800
;TYPE:External perimeter
G1 F252
G1 X197.925 Y144.99 E2.09264
G1 X197.925 Y148.304 E2.21072
G1 X201.575 Y148.304 E2.34077
G1 X201.575 Y144.99 E2.45885
G1 X202.625 Y144.99 E2.49626
G1 X202.625 Y148.75 E2.63023
G1 X202.556 Y148.929 E2.63707
G1 X202.56 Y149.102 E2.64324
G1 X202.666 Y149.348 E2.65278
G1 X202.79 Y149.47 E2.65898
G1 X203.051 Y149.576 E2.66902
G1 X203.343 Y149.538 E2.67951
G1 X203.578 Y149.36 E2.69001
G1 X203.69 Y149.102 E2.70003
G1 X203.694 Y148.929 E2.7062
G1 X203.625 Y148.75 E2.71304
G1 X203.625 Y144.99 E2.84701
G1 X204.675 Y144.99 E2.88442
G1 X204.675 Y155.017 E3.24168
G1 X203.625 Y155.017 E3.27909
G1 X203.625 Y151.257 E3.41306
G1 X203.694 Y151.079 E3.41986
G1 X203.69 Y150.905 E3.42606
G1 X203.584 Y150.66 E3.43557
G1 X203.46 Y150.538 E3.44177
G1 X203.212 Y150.437 E3.45131
G1 X203.038 Y150.437 E3.45751
G1 X202.778 Y150.543 E3.46751
G1 X202.604 Y150.764 E3.47753
G1 X202.56 Y150.918 E3.48324
G1 X202.556 Y151.079 E3.48898
G1 X202.625 Y151.257 E3.49578
G1 X202.625 Y155.017 E3.62975
G1 X201.575 Y155.017 E3.66716
G1 X201.575 Y151.704 E3.7852
G1 X197.925 Y151.704 E3.91525
G1 X197.925 Y155.017 E4.03329
G1 X195.325 Y155.017 E4.12593
G1 X195.325 Y150.854 E4.27426
G1 X199.325 Y150.854 E4.41678
G1 X199.325 Y150.504 E4.42925
G1 X201.139 Y150.504 E4.49388
G1 X201.318 Y150.572 E4.5007
G1 X201.478 Y150.569 E4.5064
G1 X201.633 Y150.525 E4.51214
G1 X201.854 Y150.351 E4.52216
G1 X201.96 Y150.091 E4.53216
G1 X201.96 Y149.917 E4.53836
G1 X201.859 Y149.669 E4.5479
G1 X201.737 Y149.545 E4.5541
G1 X201.492 Y149.439 E4.56361
G1 X201.318 Y149.435 E4.56981
G1 X201.139 Y149.504 E4.57665
G1 X199.325 Y149.504 E4.64128
G1 X199.325 Y149.154 E4.65375
G1 X195.325 Y149.154 E4.79627
G1 X195.325 Y145.05 E4.94249
G1 X195.711 Y145.096 F4200
G1 E2.94249 F1800
G92 E0
G1 X203.982 Y145.347 F4200
G1 E2 F1800
;TYPE:Inner perimeter
G1 F270
G1 X204.318 Y145.347 E2.01197
G1 X204.318 Y154.66 E2.34379
G1 X203.982 Y154.66 E2.35576
G1 X203.982 Y151.324 E2.47462
G1 X204.052 Y151.142 E2.48157
G1 X204.046 Y150.828 E2.49276
G1 X203.884 Y150.454 E2.50728
G1 X203.659 Y150.234 E2.51849
G1 X203.258 Y150.07 E2.53393
G1 X203.279 Y149.906 E2.53982
G1 X203.483 Y149.88 E2.54715
G1 X203.869 Y149.589 E2.56437
G1 X204.046 Y149.18 E2.58025
G1 X204.052 Y148.866 E2.59144
G1 X203.982 Y148.684 E2.59839
G1 X203.982 Y145.407 E2.71515
G1 E.71515 F1800
G92 E0
G1 X204.009 Y145.409 F4200
G1 X204.29 Y154.617
G1 X204.031 Y150.867
G1 X203.979 Y150.635
G1 X203.862 Y150.424
G1 X203.666 Y150.286
G1 X203.454 Y150.197
G1 X203.235 Y150.154
G1 X203.015 Y150.154
G1 X202.796 Y150.197
G1 X202.6 Y150.307
