; generated by CreatWare 7.0.0 on 2022-06-25 at 04:56:24 UTC

; 

; external perimeters extrusion width = 0.40mm
; perimeters extrusion width = 0.40mm
; infill extrusion width = 0.40mm
; solid infill extrusion width = 0.40mm
; top infill extrusion width = 0.40mm
; support material extrusion width = 0.40mm

G21 ; set units to millimeters
G90 ; use absolute coordinates
M82 ; use absolute distances for extrusion
G92 E0
M107
M190 S45 ; set bed temperature and wait for it to be reached
M104 S210 ; set temperature
;TYPE:Custom
M109 S210 ; set temperature and wait for it to be reached
M6013 S0 ; set chamber temp

G28 X0 Y0  ;move X/Y to min endstops
G28 Z0     ;move Z to min endstops

;Add Clear Nozzle
G92 E0                   ;zero the extruded length again
G0 F4200 X0 Y0
G0 F400 X10 Z0.4         ;move a bit while down the Z
M221 T0 S300             ;set flow is 300%
G1 F200 X30 E8          ;extrude amont filament to clean the hotend
M221 T0 S100             ;reset flow is 100%
G92 E0                   ;zero the extruded length again
;Add End

G0 Z15.0 F4200 ;move the platform down 15mm

;Put printing message on LCD screen
M117 Printing...
; Filament gcode
M107
;LAYER_CHANGE
;Layer 1
;Z:0.2
;HEIGHT:0.2
;BEFORE_LAYER_CHANGE
;0.2


G1 Z.2 F4200
;AFTER_LAYER_CHANGE
;G92 E0   ;zero the extruded length again
;0.2
G1 E-2 F1800
G92 E0
G1 X181.37 Y135.597 F4200
G1 E2 F1800
;TYPE:Skirt/Brim
;WIDTH:0.4
G1 F360
G1 X183.318 Y134.21 E2.0852
G1 X185.561 Y133.643 E2.16763
G1 X197.872 Y132.851 E2.60717
G1 X199.294 Y132.919 E2.65789
G1 X202.565 Y133.447 E2.77594
G1 X204.685 Y134.191 E2.85599
G1 X206.706 Y136.002 E2.95268
G1 X214.983 Y147.467 E3.4565
G1 X215.955 Y149.492 E3.53653
G1 X216.104 Y152.202 E3.63323
G1 X215.389 Y156.285 E3.78092
G1 X212.683 Y165.315 E4.11679
G1 X211.088 Y167.985 E4.2276
G1 X209.14 Y169.372 E4.3128
G1 X206.489 Y169.951 E4.40948
G1 X191.727 Y169.951 E4.93544
G1 X189.516 Y169.554 E5.01548
G1 X187.232 Y168.089 E5.11216
G1 X186.333 Y167.016 E5.16204
G1 X180.576 Y158.38 E5.53184
G1 X179.679 Y156.321 E5.61186
G1 X179.508 Y154.854 E5.66448
G1 X179.508 Y140.092 E6.19044
G1 X179.905 Y137.881 E6.27048
G1 X181.337 Y135.647 E6.36503
G1 E4.36503 F1800
G92 E0
G1 X189.172 Y146.501 F4200
G1 E2 F1800
G1 F360
G1 X191.762 Y144.631 E2.11382
G1 X192.459 Y144.426 E2.13971
G1 X192.811 Y144.439 E2.15226
G1 X192.893 Y143.96 E2.16957
G1 X193.001 Y143.703 E2.1795
G1 X193.361 Y143.231 E2.20065
G1 X197.974 Y139.901 E2.40336
G1 X198.498 Y139.716 E2.42316
G1 X198.896 Y139.692 E2.43737
G1 X200.835 Y140.005 E2.50735
G1 X201.337 Y140.246 E2.52719
G1 X201.635 Y140.51 E2.54137
G1 X209.122 Y150.882 E2.99714
G1 X209.306 Y151.404 E3.01686
G1 X209.335 Y151.724 E3.02831
G1 X209.018 Y153.742 E3.10109
G1 X208.777 Y154.245 E3.12096
G1 X208.513 Y154.543 E3.13514
G1 X203.92 Y157.858 E3.33696
G1 X203.359 Y158.051 E3.3581
G1 X203.08 Y158.072 E3.36807
G1 X202.631 Y158.005 E3.38424
G1 X202.558 Y158.29 E3.39472
G1 X202.37 Y158.631 E3.40859
G1 X202.112 Y158.917 E3.42231
G1 X198.897 Y161.238 E3.56359
G1 X198.375 Y161.422 E3.58331
G1 X198.055 Y161.451 E3.59476
G1 X196.037 Y161.133 E3.66755
G1 X195.534 Y160.893 E3.68741
G1 X195.236 Y160.628 E3.70162
G1 X187.983 Y150.581 E4.14312
G1 X187.799 Y150.059 E4.16284
G1 X187.77 Y149.739 E4.17429
G1 X188.104 Y147.67 E4.24896
G1 X188.231 Y147.375 E4.2604
G1 X188.572 Y146.934 E4.28026
G1 X189.124 Y146.536 E4.30451
G1 X189.333 Y146.825 F4200
G1 F360
G1 X191.945 Y144.94 E4.41928
G1 X192.518 Y144.779 E4.44049
G1 X193.105 Y144.832 E4.46149
G1 X193.241 Y144.044 E4.48998
G1 X193.319 Y143.866 E4.4969
G1 X193.592 Y143.504 E4.51305
G1 X198.16 Y140.207 E4.71377
G1 X198.588 Y140.062 E4.72987
G1 X198.857 Y140.048 E4.73947
G1 X200.751 Y140.353 E4.80782
G1 X201.156 Y140.554 E4.82393
G1 X201.356 Y140.734 E4.83352
G1 X208.816 Y151.068 E5.28763
G1 X208.961 Y151.497 E5.30376
G1 X208.979 Y151.69 E5.31067
G1 X208.669 Y153.659 E5.38169
G1 X208.469 Y154.064 E5.39778
G1 X208.289 Y154.264 E5.40737
G1 X203.733 Y157.553 E5.60758
G1 X203.304 Y157.698 E5.62371
G1 X203.111 Y157.716 E5.63062
G1 X202.34 Y157.6 E5.6584
G1 X202.23 Y158.146 E5.67824
G1 X202.067 Y158.44 E5.69022
G1 X201.888 Y158.638 E5.69973
G1 X198.711 Y160.932 E5.83935
G1 X198.282 Y161.077 E5.85548
G1 X198.089 Y161.094 E5.86238
G1 X196.12 Y160.785 E5.93339
G1 X195.715 Y160.584 E5.9495
G1 X195.515 Y160.404 E5.95909
G1 X188.289 Y150.395 E6.39893
G1 X188.144 Y149.965 E6.4151
G1 X188.126 Y149.773 E6.42197
G1 X188.443 Y147.785 E6.4937
G1 X188.531 Y147.569 E6.50201
G1 X188.804 Y147.207 E6.51816
G1 X189.284 Y146.861 E6.53924
G1 X189.493 Y147.15 F4200
G1 F360
G1 X192.125 Y145.25 E6.6549
G1 X192.572 Y145.134 E6.67135
G1 X193.402 Y145.231 E6.70112
G1 X193.58 Y144.159 E6.73984
G1 X193.622 Y144.056 E6.7438
G1 X193.825 Y143.776 E6.75612
G1 X198.345 Y140.514 E6.95472
G1 X198.672 Y140.41 E6.96695
G1 X198.818 Y140.403 E6.97216
G1 X200.664 Y140.701 E7.03878
G1 X200.969 Y140.859 E7.05102
G1 X201.077 Y140.957 E7.05622
G1 X208.509 Y151.253 E7.50865
G1 X208.614 Y151.582 E7.52095
G1 X208.622 Y151.693 E7.52492
G1 X208.321 Y153.572 E7.59272
G1 X208.164 Y153.877 E7.60494
G1 X208.065 Y153.985 E7.61016
G1 X203.549 Y157.246 E7.80863
G1 X203.22 Y157.35 E7.82092
G1 X203.108 Y157.358 E7.82492
G1 X202.046 Y157.191 E7.86322
G1 X201.902 Y158.001 E7.89253
G1 X201.765 Y158.249 E7.90262
G1 X201.665 Y158.359 E7.90792
G1 X198.526 Y160.625 E8.04586
G1 X198.197 Y160.729 E8.05815
G1 X198.086 Y160.737 E8.06212
G1 X196.207 Y160.437 E8.12992
G1 X195.902 Y160.279 E8.14216
G1 X195.794 Y160.181 E8.14736
G1 X188.596 Y150.21 E8.58552
G1 X188.491 Y149.881 E8.59782
G1 X188.483 Y149.77 E8.60179
G1 X188.783 Y147.893 E8.66952
G1 X188.835 Y147.757 E8.67471
G1 X189.037 Y147.479 E8.68695
G1 X189.444 Y147.185 E8.70484
G1 X189.653 Y147.475 F4200
G1 F360
G1 X192.308 Y145.559 E8.8215
G1 X192.563 Y145.492 E8.83089
G1 X193.701 Y145.626 E8.87172
G1 X193.921 Y144.264 E8.92088
G1 X194.061 Y144.046 E8.93011
G1 X198.527 Y140.823 E9.12634
G1 X198.777 Y140.758 E9.13554
G1 X200.574 Y141.048 E9.20039
G1 X200.797 Y141.18 E9.20962
G1 X208.2 Y151.435 E9.66026
G1 X208.265 Y151.685 E9.66946
G1 X207.974 Y153.483 E9.73436
G1 X207.843 Y153.705 E9.74354
G1 X203.367 Y156.937 E9.94025
G1 X203.116 Y157.001 E9.94948
G1 X201.747 Y156.78 E9.99889
G1 X201.573 Y157.856 E10.03773
G1 X201.442 Y158.079 E10.04694
G1 X198.344 Y160.316 E10.18309
G1 X198.094 Y160.38 E10.19228
G1 X196.296 Y160.09 E10.25717
G1 X196.074 Y159.958 E10.26637
G1 X188.905 Y150.028 E10.70274
G1 X188.84 Y149.777 E10.71198
G1 X189.133 Y147.967 E10.77731
G1 X189.273 Y147.749 E10.78654
G1 X189.605 Y147.51 E10.80112
G1 X189.814 Y147.799 F4200
G1 F360
G1 X192.49 Y145.868 E10.9187
G1 X192.554 Y145.851 E10.92106
G1 X193.999 Y146.021 E10.9729
G1 X194.265 Y144.373 E11.03238
G1 X194.302 Y144.312 E11.03492
G1 X198.703 Y141.135 E11.22831
G1 X198.773 Y141.119 E11.23087
G1 X200.478 Y141.395 E11.29241
G1 X200.539 Y141.432 E11.29495
G1 X207.887 Y151.612 E11.74228
G1 X207.904 Y151.681 E11.74481
G1 X207.628 Y153.386 E11.80635
G1 X207.591 Y153.447 E11.80889
G1 X203.19 Y156.624 E12.00228
G1 X203.121 Y156.64 E12.0048
G1 X201.452 Y156.371 E12.06503
G1 X201.227 Y157.76 E12.11516
G1 X201.19 Y157.821 E12.1177
G1 X198.167 Y160.003 E12.25053
G1 X198.098 Y160.019 E12.25305
G1 X196.392 Y159.744 E12.31462
G1 X196.332 Y159.706 E12.31715
G1 X189.218 Y149.851 E12.75021
G1 X189.201 Y149.782 E12.75274
G1 X189.477 Y148.076 E12.81431
G1 X189.514 Y148.016 E12.81682
G1 X189.765 Y147.835 E12.82785
G1 E10.82785 F1800
G92 E0
G1 X194.9 Y141.388 F4200
G1 E2 F1800
;TYPE:Support material
G1 F360
G1 X193.811 Y142.174 E2.04785
G1 X193.109 Y142.813 E2.08167
G1 X192.481 Y143.975 E2.12873
G1 X192.366 Y143.97 E2.13283
G1 X190.667 Y144.691 E2.19859
G1 X189.022 Y145.878 E2.27087
G1 X188.321 Y146.516 E2.30464
G1 X187.438 Y148.151 E2.37085
G1 X187.35 Y150.017 E2.43741
G1 X188.071 Y151.716 E2.50317
G1 X190.967 Y155.728 E2.67947
G1 X191.223 Y156.009 E2.69301
G1 X191.298 Y156.187 E2.69989
G1 X194.155 Y160.144 E2.87378
G1 X194.944 Y160.969 E2.91445
G1 X196.483 Y161.772 E2.9763
G1 X198.348 Y161.86 E3.04282
G1 X200.047 Y161.139 E3.10858
G1 X201.682 Y159.959 E3.18042
G1 X202.384 Y159.32 E3.21424
G1 X202.844 Y158.467 E3.24877
G1 X203.356 Y158.491 E3.26703
G1 X205.055 Y157.77 E3.33279
G1 X206.415 Y156.789 E3.39254
G1 X206.415 Y163.416 E3.62866
G1 X191.801 Y163.416 E4.14935
G1 X191.801 Y157.659 E4.35447
G1 X188.922 Y157.659 E4.45705
G1 X188.922 Y154.78 E4.55963
G1 X186.044 Y154.78 E4.66217
G1 X186.044 Y140.166 E5.18286
G1 X194.9 Y140.166 E5.4984
G1 X194.9 Y141.334 E5.54002
G1 E3.54002 F1800
G92 E0
G1 X198.722 Y148.882 F4200
G1 X199.659 Y148.965
G1 X199.876 Y149.016
G1 X200.077 Y149.107
G1 X200.259 Y149.238
G1 X200.39 Y149.42
G1 X200.457 Y149.633
G1 X200.48 Y149.853
G1 X200.46 Y150.075
G1 X200.395 Y150.295
G1 X199.911 Y151.23
G1 X206 Y163.255
G1 E2 F1800
G1 F360
G1 X206 Y157.485 E2.20558
G1 X205.603 Y157.771 E2.22301
G1 X205.603 Y163.094 E2.41267
G1 X205.207 Y163.094 E2.42678
G1 X205.207 Y158.055 E2.60632
G1 X204.81 Y158.224 E2.62169
G1 X204.81 Y163.094 E2.79521
G1 X204.413 Y163.094 E2.80935
G1 X204.413 Y158.392 E2.97688
G1 X204.016 Y158.56 E2.99224
G1 X204.016 Y163.094 E3.15378
G1 X203.62 Y163.094 E3.16789
G1 X203.62 Y158.728 E3.32345
G1 X203.414 Y158.816 E3.33143
G1 X203.223 Y158.807 E3.33824
G1 X203.223 Y163.094 E3.49098
G1 X202.826 Y163.094 E3.50512
G1 X202.826 Y159.177 E3.64468
G1 X202.64 Y159.521 E3.65861
G1 X202.429 Y159.713 E3.66877
G1 X202.429 Y163.094 E3.78923
G1 X202.033 Y163.094 E3.80334
G1 X202.033 Y160.074 E3.91094
G1 X201.885 Y160.209 E3.91808
G1 X201.636 Y160.388 E3.92901
G1 X201.636 Y163.094 E4.02542
G1 X201.239 Y163.094 E4.03956
G1 X201.239 Y160.675 E4.12575
G1 X200.842 Y160.961 E4.14318
G1 X200.842 Y163.094 E4.21918
G1 X200.446 Y163.094 E4.23329
G1 X200.446 Y161.248 E4.29906
G1 X200.206 Y161.421 E4.3096
G1 X200.049 Y161.487 E4.31567
G1 X200.049 Y163.094 E4.37293
G1 X199.652 Y163.094 E4.38707
G1 X199.652 Y161.656 E4.43831
G1 X199.255 Y161.824 E4.45367
G1 X199.255 Y163.094 E4.49892
G1 X198.859 Y163.094 E4.51303
G1 X198.859 Y161.992 E4.55229
G1 X198.462 Y162.161 E4.56766
G1 X198.462 Y163.094 E4.6009
G1 X198.065 Y163.094 E4.61504
G1 X198.065 Y162.168 E4.64803
G1 X197.668 Y162.15 E4.66219
G1 X197.668 Y163.094 E4.69582
G1 X197.272 Y163.094 E4.70993
G1 X197.272 Y162.131 E4.74424
G1 X196.875 Y162.112 E4.7584
G1 X196.875 Y163.094 E4.79339
G1 X196.478 Y163.094 E4.80753
G1 X196.478 Y162.094 E4.84316
G1 X196.397 Y162.09 E4.84605
G1 X196.081 Y161.925 E4.85875
G1 X196.081 Y163.094 E4.9004
G1 X195.685 Y163.094 E4.91451
G1 X195.685 Y161.718 E4.96354
G1 X195.288 Y161.511 E4.97949
G1 X195.288 Y163.094 E5.03589
G1 X194.891 Y163.094 E5.05003
G1 X194.891 Y161.303 E5.11384
G1 X194.765 Y161.238 E5.11889
G1 X194.494 Y160.977 E5.1323
G1 X194.494 Y163.094 E5.20773
G1 X194.098 Y163.094 E5.22184
G1 X194.098 Y160.553 E5.31237
G1 X193.906 Y160.349 E5.32235
G1 X193.701 Y160.064 E5.33486
G1 X193.701 Y163.094 E5.44282
G1 X193.304 Y163.094 E5.45696
G1 X193.304 Y159.515 E5.58448
G1 X192.907 Y158.965 E5.60865
G1 X192.907 Y163.094 E5.75576
G1 X192.511 Y163.094 E5.76987
G1 X192.511 Y158.141 E5.94634
G1 E3.94634 F1800
G92 E0
G1 X193.377 Y150.866 F4200
G1 X193.517 Y149.692
G1 X194.494 Y141.483
G1 E2 F1800
G1 F360
G1 X194.494 Y140.487 E2.03549
G1 X194.098 Y140.487 E2.0496
G1 X194.098 Y141.571 E2.08822
G1 X193.701 Y141.857 E2.10565
G1 X193.701 Y140.487 E2.15446
G1 X193.304 Y140.487 E2.1686
G1 X193.304 Y142.201 E2.22967
G1 X192.907 Y142.562 E2.24879
G1 X192.907 Y140.487 E2.32272
G1 X192.511 Y140.487 E2.33683
G1 X192.511 Y143.245 E2.4351
G1 X192.29 Y143.653 E2.45163
G1 X192.114 Y143.728 E2.45845
G1 X192.114 Y140.487 E2.57393
G1 X191.717 Y140.487 E2.58807
G1 X191.717 Y143.896 E2.70953
G1 X191.32 Y144.064 E2.72489
G1 X191.32 Y140.487 E2.85234
G1 X190.924 Y140.487 E2.86645
G1 X190.924 Y144.233 E2.99992
G1 X190.527 Y144.401 E3.01528
G1 X190.527 Y140.487 E3.15473
G1 X190.13 Y140.487 E3.16887
G1 X190.13 Y144.682 E3.31834
G1 X189.733 Y144.968 E3.33577
G1 X189.733 Y140.487 E3.49543
G1 X189.337 Y140.487 E3.50954
G1 X189.337 Y145.254 E3.67939
G1 X188.94 Y145.541 E3.69684
G1 X188.94 Y140.487 E3.87691
G1 X188.543 Y140.487 E3.89105
G1 X188.543 Y145.879 E4.08316
G1 X188.146 Y146.24 E4.10228
G1 X188.146 Y140.487 E4.30726
G1 X187.75 Y140.487 E4.32137
G1 X187.75 Y146.898 E4.54979
G1 X187.353 Y147.632 E4.57952
G1 X187.353 Y140.487 E4.83409
G1 X186.956 Y140.487 E4.84823
G1 X186.956 Y154.459 E5.34605
G1 X187.353 Y154.459 E5.36019
G1 X187.353 Y150.846 E5.48892
G1 X187.75 Y151.781 E5.52511
G1 X187.75 Y154.459 E5.62053
G1 X188.146 Y154.459 E5.63464
G1 X188.146 Y152.37 E5.70907
G1 X188.543 Y152.919 E5.73321
G1 X188.543 Y154.459 E5.78808
G1 X188.94 Y154.459 E5.80222
G1 X188.94 Y153.469 E5.83749
G1 X189.337 Y154.018 E5.86163
G1 X189.337 Y157.337 E5.97988
G1 X189.733 Y157.337 E5.99399
G1 X189.733 Y154.568 E6.09265
G1 X190.13 Y155.118 E6.11682
G1 X190.13 Y157.337 E6.19588
G1 X190.527 Y157.337 E6.21002
G1 X190.527 Y155.667 E6.26952
G1 X190.717 Y155.931 E6.28111
G1 X190.924 Y156.158 E6.29206
G1 X190.924 Y157.337 E6.33407
G1 X191.32 Y157.337 E6.34818
G1 X191.32 Y156.766 E6.36852
G1 X191.717 Y157.316 E6.39269
G1 X191.717 Y157.498 E6.39917
G1 E4.39917 F1800
G92 E0
G1 X186.559 Y154.619 F4200
G1 E2 F1800
G1 F360
G1 X186.559 Y140.327 E2.50922
G1 E.50922 F1800
G92 E0
G1 X198.134 Y149.307 F4200
G1 X200.004 Y148.746
G1 X202.751 Y153.514
G1 X201.059 Y151.17
G1 X200.928 Y150.99
G1 X200.604 Y151.224
G1 E2 F1800
;TYPE:External perimeter
G1 F378
G1 X196.996 Y153.828 E2.15854
G1 X198.935 Y156.515 E2.2766
G1 X197.638 Y157.452 E2.33361
G1 X194.996 Y153.792 E2.49444
G1 X199.699 Y150.397 E2.7011
G1 X199.783 Y150.386 E2.70412
G1 X200.015 Y150.254 E2.71363
G1 X200.123 Y150.117 E2.71985
G1 X200.2 Y149.847 E2.72985
G1 X200.134 Y149.574 E2.73986
G1 X200.032 Y149.433 E2.74606
G1 X199.794 Y149.284 E2.75606
G1 X199.513 Y149.272 E2.76608
G1 X199.349 Y149.331 E2.77229
G1 X199.151 Y149.51 E2.7818
G1 X199.114 Y149.586 E2.78481
G1 X194.411 Y152.981 E2.99147
G1 X191.769 Y149.322 E3.15227
G1 X193.066 Y148.385 E3.20928
G1 X195.006 Y151.072 E3.32736
G1 X198.614 Y148.467 E3.48592
G1 X196.557 Y145.618 E3.61112
G1 X197.571 Y144.887 E3.65566
G1 X199.889 Y148.097 E3.79673
G1 X199.937 Y148.282 E3.80354
G1 X200.034 Y148.41 E3.80926
G1 X200.16 Y148.51 E3.81499
G1 X200.417 Y148.583 E3.82451
G1 X200.59 Y148.564 E3.83071
G1 X200.838 Y148.431 E3.84074
G1 X200.994 Y148.181 E3.85124
G1 X201.005 Y147.9 E3.86126
G1 X200.946 Y147.736 E3.86747
G1 X200.767 Y147.537 E3.87701
G1 X200.691 Y147.501 E3.88001
G1 X198.382 Y144.301 E4.02061
G1 X199.233 Y143.687 E4.058
G1 X205.336 Y152.141 E4.4295
G1 X204.485 Y152.756 E4.46691
G1 X202.167 Y149.545 E4.60801
G1 X202.118 Y149.36 E4.61483
G1 X202.013 Y149.221 E4.62104
G1 X201.784 Y149.084 E4.63055
G1 X201.612 Y149.058 E4.63675
G1 X201.352 Y149.121 E4.64628
G1 X201.211 Y149.223 E4.65248
G1 X201.062 Y149.462 E4.66251
G1 X201.05 Y149.743 E4.67253
G1 X201.109 Y149.906 E4.67871
G1 X201.288 Y150.105 E4.68825
G1 X201.364 Y150.141 E4.69125
G1 X203.674 Y153.341 E4.83187
G1 X202.66 Y154.073 E4.87643
G1 X200.639 Y151.272 E4.99949
G1 X200.334 Y150.928 F4200
G1 E2.99949 F1800
G92 E0
G1 X201.004 Y148.838 F4200
G1 E2 F1800
;TYPE:Inner perimeter
G1 F270
G1 X201.346 Y148.29 E2.02302
G1 X201.365 Y147.844 E2.03893
G1 X201.258 Y147.549 E2.05011
G1 X200.985 Y147.246 E2.06464
G1 X200.928 Y147.219 E2.06689
G1 X198.88 Y144.382 E2.19156
G1 X199.152 Y144.185 E2.20353
G1 X204.837 Y152.061 E2.54961
G1 X204.565 Y152.257 E2.56156
G1 X202.495 Y149.39 E2.68755
G1 X202.445 Y149.201 E2.69452
G1 X202.256 Y148.95 E2.70571
G1 X201.906 Y148.742 E2.72022
G1 X201.596 Y148.695 E2.73139
G1 X201.062 Y148.824 E2.75096
G1 E.75096 F1800
G92 E0
G1 X199.931 Y148.784 F4200
G1 E2 F1800
G1 F270
G1 X199.877 Y148.93 E2.00555
G1 X199.457 Y148.912 E2.02053
G1 X199.162 Y149.019 E2.03171
G1 X198.859 Y149.292 E2.04624
G1 X198.832 Y149.349 E2.04849
G1 X194.491 Y152.483 E2.23925
G1 X192.267 Y149.402 E2.37464
G1 X192.986 Y148.884 E2.40621
G1 X194.925 Y151.57 E2.52424
G1 X199.112 Y148.548 E2.70822
G1 X197.056 Y145.699 E2.8334
G1 X197.49 Y145.385 E2.85249
G1 X199.56 Y148.253 E2.97851
