;FLAVOR:Marlin
;TIME:7750
;Filament used: 0.724857m, 0.315554m
;Layer height: 0.04
;MINX:-85.563
;MINY:-13.506
;MINZ:0.3
;MAXX:53.817
;MAXY:74.614
;MAXZ:8.9
;Generated with Cura_SteamEngine 5.0.0
T0
M140 S50
M105
M190 S50
M104 S220
M104 T1 S120
M105
M109 S220
M105
M109 T1 S120
M82 ;absolute extrusion mode
G28 ;Home
G1 Z15.0 F6000 ;Move the platform down 15mm
;Prime the extruder
G92 E0
G1 F200 E3
G92 E0
G92 E0
G92 E0
G1 F1500 E-6.5
;LAYER_COUNT:216
;LAYER:0
M107 P1
G0 F3600 X-10.591 Y2.728 Z0.3
G0 X-11.096 Y0.024
;TYPE:SKIRT
G1 F1500 E0
G1 F600 X-11.673 Y-2.646 E0.13628
G1 X-11.753 Y-3.304 E0.16935
G1 X-11.763 Y-3.724 E0.19031
G1 X-11.763 Y-8.481 E0.42764
G1 X-11.754 Y-9.146 E0.46082
G1 X-11.706 Y-9.68 E0.48757
G1 X-11.58 Y-10.201 E0.51431
G1 X-11.378 Y-10.698 E0.54107
G1 X-11.105 Y-11.159 E0.5678
G1 X-10.766 Y-11.575 E0.59458
G1 X-10.369 Y-11.935 E0.62131
G1 X-9.922 Y-12.233 E0.64812
G1 X-9.437 Y-12.461 E0.67485
G1 X-8.923 Y-12.614 E0.70161
G1 X-8.255 Y-12.696 E0.73519
G1 X-7.833 Y-12.706 E0.75625
G1 X7.644 Y-12.706 E1.5284
G1 X8.325 Y-12.696 E1.56238
G1 X8.859 Y-12.648 E1.58912
G1 X9.38 Y-12.521 E1.61588
G1 X9.877 Y-12.319 E1.64264
G1 X10.338 Y-12.044 E1.66942
G1 X10.753 Y-11.705 E1.69616
G1 X11.221 Y-11.16 E1.732
G1 X11.537 Y-10.639 E1.7624
G1 X11.69 Y-10.286 E1.78159
G1 X12.609 Y-7.805 E1.91359
G1 X13.624 Y-5.286 E2.04908
G1 X14.73 Y-2.751 E2.18707
G1 X15.874 Y-.316 E2.32129
G1 X17.116 Y2.14 E2.45859
G1 X18.401 Y4.516 E2.59336
G1 X19.772 Y6.886 E2.72996
G1 X21.202 Y9.205 E2.86588
G1 X22.689 Y11.472 E3.00114
G1 X24.26 Y13.722 E3.13805
G1 X25.899 Y15.935 E3.27544
G1 X27.555 Y18.043 E3.40918
G1 X29.312 Y20.154 E3.5462
G1 X31.098 Y22.181 E3.68099
G1 X32.99 Y24.209 E3.81936
G1 X34.887 Y26.131 E3.95409
G1 X36.854 Y28.014 E4.08994
G1 X38.874 Y29.841 E4.22582
G1 X40.962 Y31.624 E4.3628
G1 X43.103 Y33.352 E4.50007
G1 X44.503 Y34.428 E4.58816
G1 X44.996 Y34.823 E4.61968
G1 X46.717 Y36.235 E4.73074
G1 X47.312 Y36.744 E4.7698
G1 X47.723 Y37.158 E4.79891
G1 X48.172 Y37.69 E4.83364
G1 X49.565 Y39.391 E4.94333
G1 X50.036 Y39.989 E4.98131
G1 X50.361 Y40.478 E5.0106
G1 X50.694 Y41.084 E5.0451
G1 X51.748 Y43.055 E5.15661
G1 X52.07 Y43.686 E5.19195
G1 X52.294 Y44.233 E5.22144
G1 X52.507 Y44.903 E5.25651
G1 X53.147 Y47.013 E5.36652
G1 X53.344 Y47.703 E5.40232
G1 X53.458 Y48.279 E5.43161
G1 X53.532 Y48.926 E5.4641
G1 X53.758 Y51.21 E5.57861
G1 X53.816 Y51.895 E5.6129
G1 X53.817 Y52.496 E5.64289
G1 X53.757 Y53.206 E5.67844
G1 X53.532 Y55.468 E5.79184
G1 X53.446 Y56.184 E5.82782
G1 X53.329 Y56.758 E5.85705
G1 X53.133 Y57.434 E5.89216
G1 X52.506 Y59.501 E5.99993
G1 X52.283 Y60.198 E6.03644
G1 X52.056 Y60.747 E6.06607
G1 X51.739 Y61.361 E6.10055
G1 X50.689 Y63.326 E6.2117
G1 X50.328 Y63.975 E6.24875
G1 X50 Y64.465 E6.27817
G1 X49.577 Y64.996 E6.31204
G1 X48.165 Y66.717 E6.4231
G1 X47.656 Y67.312 E6.46217
G1 X47.242 Y67.723 E6.49127
G1 X46.71 Y68.172 E6.526
G1 X45.011 Y69.564 E6.63558
G1 X44.412 Y70.036 E6.67363
G1 X43.922 Y70.361 E6.70296
G1 X43.316 Y70.694 E6.73746
G1 X41.352 Y71.744 E6.84857
G1 X40.734 Y72.061 E6.88322
G1 X40.184 Y72.288 E6.91291
G1 X39.497 Y72.507 E6.94888
G1 X37.389 Y73.146 E7.05877
G1 X36.7 Y73.343 E7.09453
G1 X36.119 Y73.459 E7.12408
G1 X35.408 Y73.54 E7.15978
G1 X33.19 Y73.758 E7.27097
G1 X32.503 Y73.816 E7.30537
G1 X31.903 Y73.817 E7.33531
G1 X31.193 Y73.757 E7.37085
G1 X28.93 Y73.532 E7.48431
G1 X28.215 Y73.446 E7.52024
G1 X27.642 Y73.329 E7.54942
G1 X26.959 Y73.131 E7.5849
G1 X24.883 Y72.501 E7.69313
G1 X24.154 Y72.264 E7.73138
G1 X23.609 Y72.036 E7.76085
G1 X23.039 Y71.739 E7.79291
G1 X21.074 Y70.689 E7.90407
G1 X20.425 Y70.328 E7.94112
G1 X19.935 Y70 E7.97054
G1 X19.404 Y69.577 E8.00441
G1 X17.682 Y68.164 E8.11554
G1 X17.088 Y67.656 E8.15453
G1 X16.677 Y67.242 E8.18364
G1 X16.228 Y66.71 E8.21837
G1 X14.835 Y65.009 E8.32806
G1 X14.364 Y64.411 E8.36603
G1 X14.039 Y63.922 E8.39533
G1 X13.706 Y63.316 E8.42982
G1 X12.651 Y61.343 E8.54144
G1 X12.329 Y60.711 E8.57683
G1 X12.106 Y60.168 E8.60612
G1 X11.893 Y59.497 E8.64124
G1 X11.255 Y57.394 E8.75088
G1 X11.058 Y56.709 E8.78644
G1 X10.828 Y55.479 E8.84887
G1 X10.325 Y52.741 E8.98776
G1 X9.759 Y50.081 E9.12343
G1 X9.113 Y47.424 E9.25985
G1 X8.402 Y44.818 E9.39462
G1 X7.604 Y42.192 E9.53155
G1 X6.732 Y39.584 E9.66874
G1 X5.81 Y37.068 E9.80243
G1 X4.792 Y34.516 E9.9395
G1 X3.706 Y32.005 E10.07599
G1 X2.55 Y29.525 E10.2125
G1 X1.347 Y27.121 E10.34662
G1 X0.039 Y24.684 E10.4846
G1 X-1.298 Y22.356 E10.61854
G1 X-2.733 Y20.013 E10.75562
G1 X-4.241 Y17.697 E10.8935
G1 X-5.762 Y15.504 E11.02664
G1 X-7.401 Y13.273 E11.16476
G1 X-8.49 Y11.881 E11.25293
G1 X-8.945 Y11.284 E11.29038
G1 X-9.238 Y10.835 E11.31713
G1 X-9.46 Y10.347 E11.34388
G1 X-9.607 Y9.831 E11.37064
G1 X-9.658 Y9.513 E11.38671
G1 X-9.814 Y8.161 E11.45461
G1 X-10.171 Y5.388 E11.5941
G1 X-10.591 Y2.728 E11.72845
G1 X-11.096 Y0.024 E11.86569
G1 F1500 E5.36569
G0 F3600 X-11.363 Y-3.724
G1 F1500 E11.86569
G1 F600 X-11.363 Y-8.475 E12.10271
G1 X-11.354 Y-9.14 E12.13589
G1 X-11.307 Y-9.644 E12.16115
G1 X-11.181 Y-10.133 E12.18634
G1 X-10.98 Y-10.597 E12.21157
G1 X-10.709 Y-11.024 E12.2368
G1 X-10.374 Y-11.402 E12.262
G1 X-9.983 Y-11.723 E12.28724
G1 X-9.546 Y-11.978 E12.31248
G1 X-9.075 Y-12.162 E12.33771
G1 X-8.581 Y-12.268 E12.36291
G1 X-7.923 Y-12.305 E12.39579
G1 X7.638 Y-12.306 E13.17214
G1 X8.319 Y-12.296 E13.20611
G1 X8.822 Y-12.248 E13.23132
G1 X9.312 Y-12.122 E13.25656
G1 X9.776 Y-11.921 E13.28179
G1 X10.202 Y-11.649 E13.30701
G1 X10.58 Y-11.313 E13.33224
G1 X10.936 Y-10.871 E13.36055
G1 X11.192 Y-10.435 E13.38578
G1 X11.315 Y-10.147 E13.4014
G1 X12.239 Y-7.652 E13.53414
G1 X13.257 Y-5.126 E13.67001
G1 X14.359 Y-2.6 E13.80751
G1 X15.513 Y-.144 E13.94289
G1 X16.75 Y2.303 E14.07968
G1 X18.07 Y4.742 E14.21804
G1 X19.419 Y7.075 E14.35249
G1 X20.871 Y9.429 E14.49048
G1 X22.36 Y11.698 E14.62588
G1 X23.943 Y13.967 E14.76391
G1 X25.562 Y16.152 E14.89958
G1 X27.249 Y18.301 E15.03588
G1 X29.005 Y20.411 E15.17284
G1 X30.821 Y22.472 E15.30988
G1 X32.678 Y24.462 E15.44568
G1 X34.627 Y26.436 E15.58407
G1 X36.575 Y28.3 E15.71858
G1 X38.609 Y30.141 E15.85545
G1 X40.718 Y31.941 E15.99379
G1 X42.822 Y33.639 E16.12867
G1 X44.253 Y34.741 E16.21878
G1 X44.743 Y35.132 E16.25006
G1 X46.457 Y36.539 E16.36069
G1 X47.052 Y37.048 E16.39976
G1 X47.418 Y37.416 E16.42565
G1 X47.862 Y37.944 E16.46007
G1 X49.251 Y39.638 E16.56936
G1 X49.722 Y40.236 E16.60734
G1 X50.01 Y40.671 E16.63336
G1 X50.342 Y41.273 E16.66766
G1 X51.391 Y43.236 E16.7787
G1 X51.713 Y43.867 E16.81405
G1 X51.913 Y44.354 E16.84031
G1 X52.124 Y45.019 E16.87512
G1 X52.762 Y47.122 E16.98476
G1 X52.959 Y47.812 E17.02056
G1 X53.061 Y48.325 E17.04665
G1 X53.134 Y48.966 E17.07884
G1 X53.36 Y51.244 E17.19305
G1 X53.418 Y51.929 E17.22735
G1 X53.418 Y52.463 E17.25399
G1 X53.359 Y53.167 E17.28923
G1 X53.135 Y55.421 E17.40224
G1 X53.049 Y56.137 E17.43822
G1 X52.945 Y56.647 E17.46418
G1 X52.75 Y57.318 E17.49905
G1 X52.125 Y59.379 E17.60649
G1 X51.902 Y60.076 E17.643
G1 X51.7 Y60.564 E17.66935
G1 X51.386 Y61.173 E17.70354
G1 X50.339 Y63.132 E17.81436
G1 X49.978 Y63.781 E17.85141
G1 X49.687 Y64.217 E17.87756
G1 X49.268 Y64.743 E17.91111
G1 X47.861 Y66.457 E18.02174
G1 X47.352 Y67.052 E18.06081
G1 X46.984 Y67.418 E18.0867
G1 X46.456 Y67.863 E18.12115
G1 X44.764 Y69.249 E18.23027
G1 X44.165 Y69.721 E18.26832
G1 X43.729 Y70.01 E18.29441
G1 X43.127 Y70.342 E18.32871
G1 X41.169 Y71.388 E18.43946
G1 X40.551 Y71.705 E18.47411
G1 X40.063 Y71.907 E18.50046
G1 X39.381 Y72.124 E18.53617
G1 X37.279 Y72.762 E18.64576
G1 X36.59 Y72.959 E18.68152
G1 X36.073 Y73.061 E18.70781
G1 X35.368 Y73.142 E18.74321
G1 X33.156 Y73.36 E18.8541
G1 X32.469 Y73.418 E18.8885
G1 X31.936 Y73.418 E18.91509
G1 X31.232 Y73.359 E18.95034
G1 X28.978 Y73.135 E19.06334
G1 X28.263 Y73.049 E19.09927
G1 X27.753 Y72.945 E19.12524
G1 X27.075 Y72.748 E19.16046
G1 X25.007 Y72.12 E19.26829
G1 X24.278 Y71.883 E19.30653
G1 X23.793 Y71.68 E19.33276
G1 X23.227 Y71.386 E19.36458
G1 X21.268 Y70.339 E19.4754
G1 X20.619 Y69.978 E19.51245
G1 X20.183 Y69.687 E19.5386
G1 X19.657 Y69.268 E19.57215
G1 X17.942 Y67.86 E19.68286
G1 X17.348 Y67.352 E19.72185
G1 X16.982 Y66.984 E19.74775
G1 X16.538 Y66.456 E19.78216
G1 X15.149 Y64.762 E19.89145
G1 X14.678 Y64.164 E19.92943
G1 X14.39 Y63.729 E19.95546
G1 X14.058 Y63.127 E19.98976
G1 X13.008 Y61.162 E20.10091
G1 X12.686 Y60.53 E20.1363
G1 X12.487 Y60.046 E20.16241
G1 X12.276 Y59.381 E20.19721
G1 X11.64 Y57.283 E20.30659
G1 X11.443 Y56.598 E20.34215
G1 X11.213 Y55.36 E20.40497
G1 X10.722 Y52.684 E20.5407
G1 X10.145 Y49.975 E20.67889
G1 X9.504 Y47.338 E20.81428
G1 X8.785 Y44.702 E20.95059
G1 X7.981 Y42.054 E21.08866
G1 X7.126 Y39.5 E21.22303
G1 X6.169 Y36.889 E21.36176
G1 X5.16 Y34.358 E21.4977
G1 X4.073 Y31.843 E21.63439
G1 X2.927 Y29.386 E21.76965
G1 X1.685 Y26.904 E21.90812
G1 X0.395 Y24.502 E22.04414
G1 X-.952 Y22.154 E22.17919
G1 X-2.4 Y19.791 E22.31746
G1 X-3.895 Y17.496 E22.4541
G1 X-5.444 Y15.261 E22.58977
G1 X-7.08 Y13.035 E22.72759
G1 X-8.172 Y11.639 E22.81602
G1 X-8.627 Y11.042 E22.85347
G1 X-8.901 Y10.617 E22.87869
G1 X-9.104 Y10.154 E22.90392
G1 X-9.261 Y9.467 E22.93907
G1 X-9.417 Y8.109 E23.00727
G1 X-9.772 Y5.351 E23.146
G1 X-10.203 Y2.623 E23.28379
G1 X-10.698 Y-0.028 E23.41834
G1 X-11.282 Y-2.731 E23.5563
G1 X-11.353 Y-3.315 E23.58565
G1 X-11.363 Y-3.724 E23.60606
G1 F1500 E17.10606
G0 F3600 X-6.745 Y9.759
G0 X22.335 Y37.385
G0 X17.007 Y42.969
G1 F1500 E23.60606
G1 F600 X17.414 Y42.292 E23.64547
G1 X17.854 Y41.699 E23.68231
G1 X19.097 Y40.183 E23.78012
G1 X19.628 Y39.599 E23.8195
G1 X20.183 Y39.097 E23.85683
G1 X21.699 Y37.854 E23.95464
G1 X22.335 Y37.385 E23.99406
G1 X22.969 Y37.007 E24.03089
G1 X24.698 Y36.083 E24.12869
G1 X25.412 Y35.746 E24.16808
G1 X26.11 Y35.498 E24.20504
G1 X27.986 Y34.929 E24.30285
G1 X28.752 Y34.738 E24.34223
G1 X29.482 Y34.631 E24.37904
G1 X31.432 Y34.438 E24.4768
G1 X32.221 Y34.4 E24.51621
G1 X32.968 Y34.438 E24.55353
G1 X34.918 Y34.631 E24.65129
G1 X35.699 Y34.748 E24.69069
G1 X36.414 Y34.929 E24.72748
G1 X38.29 Y35.498 E24.82529
G1 X39.033 Y35.765 E24.86468
G1 X39.702 Y36.083 E24.90163
G1 X41.431 Y37.007 E24.99944
G1 X42.108 Y37.414 E25.03885
G1 X42.701 Y37.854 E25.07569
G1 X44.217 Y39.097 E25.17349
G1 X44.801 Y39.628 E25.21287
G1 X45.303 Y40.183 E25.25021
G1 X46.546 Y41.699 E25.34801
G1 X47.015 Y42.335 E25.38744
G1 X47.393 Y42.969 E25.42426
G1 X48.317 Y44.698 E25.52207
G1 X48.654 Y45.412 E25.56146
G1 X48.902 Y46.11 E25.59842
G1 X49.471 Y47.986 E25.69622
G1 X49.662 Y48.752 E25.73561
G1 X49.769 Y49.482 E25.77241
G1 X49.962 Y51.432 E25.87018
G1 X50 Y52.221 E25.90959
G1 X49.962 Y52.968 E25.9469
G1 X49.769 Y54.918 E26.04466
G1 X49.652 Y55.699 E26.08406
G1 X49.471 Y56.414 E26.12086
G1 X48.902 Y58.29 E26.21866
G1 X48.635 Y59.033 E26.25805
G1 X48.317 Y59.702 E26.29501
G1 X47.393 Y61.431 E26.39281
G1 X46.986 Y62.108 E26.43222
G1 X46.546 Y62.701 E26.46906
G1 X45.303 Y64.217 E26.56687
G1 X44.772 Y64.801 E26.60625
G1 X44.217 Y65.303 E26.64358
G1 X42.701 Y66.546 E26.74139
G1 X42.065 Y67.015 E26.78081
G1 X41.431 Y67.393 E26.81764
G1 X39.702 Y68.317 E26.91544
G1 X38.988 Y68.654 E26.95483
G1 X38.29 Y68.902 E26.99179
G1 X36.414 Y69.471 E27.08959
G1 X35.648 Y69.662 E27.12898
G1 X34.918 Y69.769 E27.16579
G1 X32.968 Y69.962 E27.26355
G1 X32.179 Y70 E27.30296
G1 X31.432 Y69.962 E27.34028
G1 X29.482 Y69.769 E27.43804
G1 X28.701 Y69.652 E27.47744
G1 X27.986 Y69.471 E27.51423
G1 X26.11 Y68.902 E27.61204
G1 X25.367 Y68.635 E27.65143
G1 X24.698 Y68.317 E27.68838
G1 X22.969 Y67.393 E27.78619
G1 X22.292 Y66.986 E27.8256
G1 X21.699 Y66.546 E27.86244
G1 X20.183 Y65.303 E27.96024
G1 X19.599 Y64.772 E27.99962
G1 X19.097 Y64.217 E28.03696
G1 X17.854 Y62.701 E28.13476
G1 X17.385 Y62.065 E28.17419
G1 X17.007 Y61.431 E28.21101
G1 X16.083 Y59.702 E28.30882
G1 X15.746 Y58.988 E28.34821
G1 X15.498 Y58.29 E28.38517
G1 X14.929 Y56.414 E28.48297
G1 X14.738 Y55.648 E28.52236
G1 X14.631 Y54.918 E28.55916
G1 X14.438 Y52.968 E28.65693
G1 X14.4 Y52.179 E28.69633
G1 X14.438 Y51.432 E28.73365
G1 X14.631 Y49.482 E28.83141
G1 X14.748 Y48.701 E28.87081
G1 X14.929 Y47.986 E28.90761
G1 X15.498 Y46.11 E29.00541
G1 X15.765 Y45.367 E29.0448
G1 X16.083 Y44.698 E29.08176
G1 X17.007 Y42.969 E29.17956
G1 F1500 E22.67956
G0 F3600 X16.223 Y49.639
G1 F1500 E29.17956
G1 F600 X16.332 Y48.944 E29.21466
G1 X16.46 Y48.45 E29.24012
G1 X17.029 Y46.574 E29.33792
G1 X17.271 Y45.913 E29.37304
G1 X17.494 Y45.452 E29.39859
G1 X18.418 Y43.723 E29.4964
G1 X18.784 Y43.122 E29.5315
G1 X19.092 Y42.714 E29.55701
G1 X20.335 Y41.198 E29.65481
G1 X20.811 Y40.68 E29.68991
G1 X21.198 Y40.335 E29.71578
G1 X22.714 Y39.092 E29.81358
G1 X23.283 Y38.677 E29.84872
G1 X23.723 Y38.418 E29.87419
G1 X25.452 Y37.494 E29.972
G1 X26.09 Y37.198 E30.00709
G1 X26.574 Y37.029 E30.03266
G1 X28.45 Y36.46 E30.13047
G1 X29.135 Y36.294 E30.16563
G1 X29.639 Y36.223 E30.19102
G1 X31.589 Y36.03 E30.28878
G1 X32.293 Y36.001 E30.32394
G1 X32.811 Y36.03 E30.34982
G1 X34.761 Y36.223 E30.44758
G1 X35.456 Y36.332 E30.48268
G1 X35.95 Y36.46 E30.50814
G1 X37.826 Y37.029 E30.60594
G1 X38.487 Y37.271 E30.64106
G1 X38.948 Y37.494 E30.66661
G1 X40.677 Y38.418 E30.76442
G1 X41.278 Y38.784 E30.79952
G1 X41.686 Y39.092 E30.82503
G1 X43.202 Y40.335 E30.92283
G1 X43.72 Y40.811 E30.95793
G1 X44.065 Y41.198 E30.9838
G1 X45.308 Y42.714 E31.0816
G1 X45.723 Y43.283 E31.11674
G1 X45.982 Y43.723 E31.14221
G1 X46.906 Y45.452 E31.24002
G1 X47.202 Y46.09 E31.2751
G1 X47.371 Y46.574 E31.30068
G1 X47.94 Y48.45 E31.39849
G1 X48.106 Y49.135 E31.43365
G1 X48.177 Y49.639 E31.45904
G1 X48.37 Y51.589 E31.5568
G1 X48.399 Y52.293 E31.59196
G1 X48.37 Y52.811 E31.61784
G1 X48.177 Y54.761 E31.7156
G1 X48.068 Y55.456 E31.7507
G1 X47.94 Y55.95 E31.77616
G1 X47.371 Y57.826 E31.87396
G1 X47.129 Y58.487 E31.90908
G1 X46.906 Y58.948 E31.93463
G1 X45.982 Y60.677 E32.03243
G1 X45.616 Y61.278 E32.06754
G1 X45.308 Y61.686 E32.09304
G1 X44.065 Y63.202 E32.19085
G1 X43.589 Y63.72 E32.22595
G1 X43.202 Y64.065 E32.25181
G1 X41.686 Y65.308 E32.34962
G1 X41.117 Y65.723 E32.38476
G1 X40.677 Y65.982 E32.41023
G1 X38.948 Y66.906 E32.50803
G1 X38.31 Y67.202 E32.54312
G1 X37.826 Y67.371 E32.5687
G1 X35.95 Y67.94 E32.6665
G1 X35.265 Y68.106 E32.70167
G1 X34.761 Y68.177 E32.72706
G1 X32.811 Y68.37 E32.82482
G1 X32.107 Y68.399 E32.85997
G1 X31.589 Y68.37 E32.88586
G1 X29.639 Y68.177 E32.98362
G1 X28.944 Y68.068 E33.01872
G1 X28.45 Y67.94 E33.04418
G1 X26.574 Y67.371 E33.14198
G1 X25.913 Y67.129 E33.1771
G1 X25.452 Y66.906 E33.20265
G1 X23.723 Y65.982 E33.30045
G1 X23.122 Y65.616 E33.33556
G1 X22.714 Y65.308 E33.36106
G1 X21.198 Y64.065 E33.45887
G1 X20.68 Y63.589 E33.49397
G1 X20.335 Y63.202 E33.51983
G1 X19.092 Y61.686 E33.61764
G1 X18.677 Y61.117 E33.65278
G1 X18.418 Y60.677 E33.67825
G1 X17.494 Y58.948 E33.77605
G1 X17.198 Y58.31 E33.81114
G1 X17.029 Y57.826 E33.83672
G1 X16.46 Y55.95 E33.93452
G1 X16.294 Y55.265 E33.96969
G1 X16.223 Y54.761 E33.99508
G1 X16.03 Y52.811 E34.09284
G1 X16.001 Y52.107 E34.12799
G1 X16.03 Y51.589 E34.15388
G1 X16.223 Y49.639 E34.25164
G0 F3600 X16.401 Y52.091
G1 F600 X16.428 Y51.629 E34.27473
G1 X16.621 Y49.679 E34.37249
G1 X16.728 Y49.006 E34.40649
G1 X16.843 Y48.567 E34.42913
G1 X17.412 Y46.691 E34.52693
G1 X17.647 Y46.052 E34.5609
G1 X17.847 Y45.64 E34.58375
G1 X18.771 Y43.911 E34.68155
G1 X19.126 Y43.331 E34.71548
G1 X19.401 Y42.968 E34.7382
G1 X20.644 Y41.452 E34.83601
G1 X21.106 Y40.951 E34.87001
G1 X21.452 Y40.644 E34.89308
G1 X22.968 Y39.401 E34.99089
G1 X23.519 Y39.001 E35.02486
G1 X23.911 Y38.771 E35.04753
G1 X25.64 Y37.847 E35.14534
G1 X26.259 Y37.562 E35.17934
G1 X26.691 Y37.412 E35.20215
G1 X28.567 Y36.843 E35.29996
G1 X29.229 Y36.684 E35.33392
G1 X29.679 Y36.621 E35.35659
G1 X31.629 Y36.428 E35.45435
G1 X32.309 Y36.401 E35.48831
G1 X32.771 Y36.428 E35.5114
G1 X34.721 Y36.621 E35.60916
G1 X35.394 Y36.728 E35.64315
G1 X35.833 Y36.843 E35.6658
G1 X37.709 Y37.412 E35.7636
G1 X38.348 Y37.647 E35.79757
G1 X38.76 Y37.847 E35.82042
G1 X40.489 Y38.771 E35.91822
G1 X41.069 Y39.126 E35.95215
G1 X41.432 Y39.401 E35.97487
G1 X42.948 Y40.644 E36.07267
