;FLAVOR:Marlin
;TIME:6699
;Filament used: 0.270125m
;Layer height: 0.06
;MINX:38
;MINY:36.766
;MINZ:0.3
;MAXX:62
;MAXY:63.234
;MAXZ:43.56
;Generated with Cura_SteamEngine 5.0.0
M104 S220
M105
M109 S220
M82 ;absolute extrusion mode
G28 ;Home
G1 Z15.0 F6000 ;Move the platform down 15mm
;Prime the extruder
G92 E0
G1 F200 E3
G92 E0
G92 E0
G92 E0
G1 F1500 E-6.5
;LAYER_COUNT:722
;LAYER:0
M107
G0 F3600 X39.004 Y38.135 Z0.3
G0 X38 Y41.386
;TYPE:SKIRT
G1 F1500 E0
G1 F600 X38.009 Y40.721 E0.01251
G1 X38.057 Y40.158 E0.02314
G1 X38.183 Y39.607 E0.03377
G1 X38.386 Y39.079 E0.04441
G1 X38.662 Y38.585 E0.05506
G1 X39.004 Y38.135 E0.06569
G1 X39.406 Y37.738 E0.07632
G1 X39.86 Y37.401 E0.08695
G1 X40.357 Y37.132 E0.09758
G1 X40.887 Y36.935 E0.10822
G1 X41.44 Y36.816 E0.11886
G1 X42.218 Y36.768 E0.13352
G1 X57.35 Y36.766 E0.41816
G1 X58.048 Y36.776 E0.43129
G1 X58.612 Y36.824 E0.44194
G1 X59.162 Y36.951 E0.45256
G1 X59.69 Y37.155 E0.46321
G1 X60.184 Y37.43 E0.47384
G1 X60.633 Y37.773 E0.48447
G1 X61.03 Y38.175 E0.4951
G1 X61.367 Y38.63 E0.50575
G1 X61.635 Y39.127 E0.51637
G1 X61.831 Y39.657 E0.527
G1 X61.951 Y40.21 E0.53764
G1 X61.998 Y40.984 E0.55223
G1 X62 Y58.548 E0.88262
G1 X61.991 Y59.275 E0.89629
G1 X61.944 Y59.838 E0.90692
G1 X61.818 Y60.389 E0.91755
G1 X61.616 Y60.917 E0.92819
G1 X61.341 Y61.411 E0.93882
G1 X60.999 Y61.861 E0.94946
G1 X60.597 Y62.259 E0.9601
G1 X60.144 Y62.596 E0.97072
G1 X59.647 Y62.866 E0.98136
G1 X59.117 Y63.063 E0.99199
G1 X58.565 Y63.184 E1.00262
G1 X57.782 Y63.232 E1.01738
G1 X42.655 Y63.234 E1.30193
G1 X41.957 Y63.225 E1.31506
G1 X41.394 Y63.177 E1.32569
G1 X40.843 Y63.051 E1.33632
G1 X40.315 Y62.849 E1.34695
G1 X39.821 Y62.574 E1.35759
G1 X39.371 Y62.232 E1.36822
G1 X38.973 Y61.83 E1.37886
G1 X38.637 Y61.376 E1.38948
G1 X38.367 Y60.879 E1.40012
G1 X38.17 Y60.349 E1.41076
G1 X38.05 Y59.797 E1.42139
G1 X38.001 Y59 E1.43641
G1 X38 Y41.386 E1.76773
G0 F3600 X38.4 Y41.391
G1 F600 X38.409 Y40.726 E1.78024
G1 X38.457 Y40.192 E1.79033
G1 X38.583 Y39.671 E1.80041
G1 X38.785 Y39.174 E1.8105
G1 X39.058 Y38.713 E1.82058
G1 X39.397 Y38.297 E1.83068
G1 X39.794 Y37.937 E1.84076
G1 X40.241 Y37.639 E1.85086
G1 X40.726 Y37.411 E1.86094
G1 X41.24 Y37.258 E1.87103
G1 X41.908 Y37.176 E1.88369
G1 X42.33 Y37.166 E1.89163
G1 X57.345 Y37.166 E2.17407
G1 X58.043 Y37.176 E2.1872
G1 X58.577 Y37.224 E2.19729
G1 X59.098 Y37.35 E2.20737
G1 X59.595 Y37.553 E2.21747
G1 X60.056 Y37.827 E2.22756
G1 X60.471 Y38.166 E2.23764
G1 X60.831 Y38.564 E2.24773
G1 X61.128 Y39.01 E2.25781
G1 X61.356 Y39.496 E2.26791
G1 X61.508 Y40.01 E2.27799
G1 X61.59 Y40.675 E2.2906
G1 X61.6 Y41.096 E2.29852
G1 X61.6 Y58.543 E2.62671
G1 X61.591 Y59.27 E2.64038
G1 X61.544 Y59.804 E2.65047
G1 X61.419 Y60.325 E2.66054
G1 X61.217 Y60.822 E2.67064
G1 X60.944 Y61.284 E2.68073
G1 X60.606 Y61.7 E2.69081
G1 X60.209 Y62.061 E2.70091
G1 X59.763 Y62.359 E2.711
G1 X59.278 Y62.587 E2.72108
G1 X58.764 Y62.741 E2.73117
G1 X58.092 Y62.824 E2.74391
G1 X57.67 Y62.834 E2.75185
G1 X42.661 Y62.834 E3.03418
G1 X41.963 Y62.825 E3.04731
G1 X41.428 Y62.778 E3.05741
G1 X40.907 Y62.652 E3.06749
G1 X40.41 Y62.45 E3.07758
G1 X39.949 Y62.177 E3.08766
G1 X39.533 Y61.838 E3.09776
G1 X39.172 Y61.442 E3.10784
G1 X38.874 Y60.996 E3.11793
G1 X38.646 Y60.51 E3.12802
G1 X38.493 Y59.996 E3.13811
G1 X38.41 Y59.322 E3.15089
G1 X38.4 Y58.892 E3.15898
G1 X38.4 Y41.391 E3.48818
G0 F3600 X38.8 Y41.397
G1 F600 X38.809 Y40.732 E3.50069
G1 X38.856 Y40.228 E3.51021
G1 X38.982 Y39.739 E3.51971
G1 X39.183 Y39.275 E3.52922
G1 X39.454 Y38.848 E3.53874
G1 X39.789 Y38.47 E3.54824
G1 X40.18 Y38.149 E3.55775
G1 X40.617 Y37.894 E3.56727
G1 X41.088 Y37.71 E3.57678
G1 X41.582 Y37.604 E3.58629
G1 X42.24 Y37.567 E3.59868
G1 X57.339 Y37.566 E3.8827
G1 X58.037 Y37.576 E3.89583
G1 X58.54 Y37.623 E3.90534
G1 X59.03 Y37.749 E3.91485
G1 X59.494 Y37.951 E3.92437
G1 X59.92 Y38.223 E3.93388
G1 X60.298 Y38.558 E3.94338
G1 X60.618 Y38.949 E3.95289
G1 X60.873 Y39.386 E3.9624
G1 X61.056 Y39.857 E3.97191
G1 X61.163 Y40.351 E3.98142
G1 X61.199 Y41.006 E3.99376
G1 X61.2 Y58.538 E4.32354
G1 X61.191 Y59.265 E4.33722
G1 X61.145 Y59.768 E4.34672
G1 X61.02 Y60.258 E4.35623
G1 X60.819 Y60.722 E4.36574
G1 X60.548 Y61.149 E4.37526
G1 X60.213 Y61.528 E4.38477
G1 X59.823 Y61.849 E4.39427
G1 X59.387 Y62.105 E4.40378
G1 X58.916 Y62.288 E4.41329
G1 X58.422 Y62.396 E4.4228
G1 X57.76 Y62.433 E4.43527
G1 X42.666 Y62.434 E4.7192
G1 X41.968 Y62.425 E4.73233
G1 X41.464 Y62.378 E4.74185
G1 X40.974 Y62.253 E4.75136
G1 X40.51 Y62.052 E4.76088
G1 X40.084 Y61.781 E4.77037
G1 X39.705 Y61.446 E4.77989
G1 X39.384 Y61.055 E4.7894
G1 X39.129 Y60.619 E4.79891
G1 X38.945 Y60.148 E4.80842
G1 X38.838 Y59.654 E4.81793
G1 X38.801 Y58.978 E4.83066
G1 X38.8 Y41.397 E5.16137
G1 F1500 E-1.33863
;MESH:Manipulator_Shell_01.stl(1)
G0 F3600 X41.335 Y41.397
G0 X42.43 Y41.397
G1 F1500 E5.16137
G0 F3600 X42.2 Y40.966
;TYPE:WALL-OUTER
G1 F600 X42.2 Y59.034 E5.50124
G1 X57.8 Y59.034 E5.79468
G1 X57.8 Y40.966 E6.13455
G1 X42.2 Y40.966 E6.428
G0 F3600 X42.2 Y41.166
G0 X42.6 Y41.366
;TYPE:WALL-INNER
G1 F600 X42.6 Y58.634 E6.75282
G1 X57.4 Y58.634 E7.03121
G1 X57.4 Y41.366 E7.35603
G1 X42.6 Y41.366 E7.63443
G0 F3600 X42.98 Y41.746
;TYPE:SKIN
G1 F600 X42.98 Y58.254 E7.94495
G1 X57.02 Y58.254 E8.20905
G1 X57.02 Y41.746 E8.51958
G1 X42.98 Y41.746 E8.78368
G0 F3600 X56.654 Y41.946
G1 F600 X56.82 Y42.112 E8.7881
G0 F3600 X56.82 Y42.678
G1 F600 X56.088 Y41.946 E8.80757
G0 F3600 X55.522 Y41.946
G1 F600 X56.82 Y43.243 E8.84208
G0 F3600 X56.82 Y43.809
G1 F600 X54.957 Y41.946 E8.89164
G0 F3600 X54.391 Y41.946
G1 F600 X56.82 Y44.375 E8.95626
G0 F3600 X56.82 Y44.94
G1 F600 X53.825 Y41.946 E9.03592
G0 F3600 X53.259 Y41.946
G1 F600 X56.82 Y45.506 E9.13064
G0 F3600 X56.82 Y46.072
G1 F600 X52.694 Y41.946 E9.2404
G0 F3600 X52.128 Y41.946
G1 F600 X56.82 Y46.637 E9.3652
G0 F3600 X56.82 Y47.203
G1 F600 X51.562 Y41.946 E9.50506
G0 F3600 X50.997 Y41.946
G1 F600 X56.82 Y47.769 E9.65997
G0 F3600 X56.82 Y48.334
G1 F600 X50.431 Y41.946 E9.82992
G0 F3600 X49.865 Y41.946
G1 F600 X56.82 Y48.9 E10.01492
G0 F3600 X56.82 Y49.466
G1 F600 X49.3 Y41.946 E10.21497
G0 F3600 X48.734 Y41.946
G1 F600 X56.82 Y50.032 E10.43007
G0 F3600 X56.82 Y50.597
G1 F600 X48.168 Y41.946 E10.66022
G0 F3600 X47.603 Y41.946
G1 F600 X56.82 Y51.163 E10.90541
G0 F3600 X56.82 Y51.729
G1 F600 X47.037 Y41.946 E11.16566
G0 F3600 X46.471 Y41.946
G1 F600 X56.82 Y52.294 E11.44095
G0 F3600 X56.82 Y52.86
G1 F600 X45.906 Y41.946 E11.73129
G0 F3600 X45.34 Y41.946
G1 F600 X56.82 Y53.426 E12.03668
G0 F3600 X56.82 Y53.991
G1 F600 X44.774 Y41.946 E12.35712
G0 F3600 X44.209 Y41.946
G1 F600 X56.82 Y54.557 E12.6926
G0 F3600 X56.82 Y55.123
G1 F600 X43.643 Y41.946 E13.04314
G0 F3600 X43.179 Y42.048
G1 F600 X56.82 Y55.688 E13.406
G0 F3600 X56.82 Y56.254
G1 F600 X43.179 Y42.613 E13.76888
G0 F3600 X43.179 Y43.179
G1 F600 X56.82 Y56.82 E14.13176
G0 F3600 X56.82 Y57.385
G1 F600 X43.179 Y43.745 E14.49463
G0 F3600 X43.179 Y44.31
G1 F600 X56.82 Y57.951 E14.85751
G0 F3600 X56.356 Y58.053
G1 F600 X43.179 Y44.876 E15.20804
G0 F3600 X43.179 Y45.442
G1 F600 X55.79 Y58.053 E15.54352
G0 F3600 X55.225 Y58.053
G1 F600 X43.179 Y46.007 E15.86397
G0 F3600 X43.179 Y46.573
G1 F600 X54.659 Y58.053 E16.16937
G0 F3600 X54.093 Y58.053
G1 F600 X43.179 Y47.139 E16.4597
G0 F3600 X43.179 Y47.704
G1 F600 X53.527 Y58.053 E16.73499
G0 F3600 X52.962 Y58.053
G1 F600 X43.179 Y48.27 E16.99524
G0 F3600 X43.179 Y48.836
G1 F600 X52.396 Y58.053 E17.24043
G0 F3600 X51.83 Y58.053
G1 F600 X43.179 Y49.402 E17.47057
G0 F3600 X43.179 Y49.967
G1 F600 X51.265 Y58.053 E17.68568
G0 F3600 X50.699 Y58.053
G1 F600 X43.179 Y50.533 E17.88572
G0 F3600 X43.179 Y51.099
G1 F600 X50.133 Y58.053 E18.07071
G0 F3600 X49.568 Y58.053
G1 F600 X43.179 Y51.664 E18.24068
G0 F3600 X43.179 Y52.23
G1 F600 X49.002 Y58.053 E18.39558
G0 F3600 X48.436 Y58.053
G1 F600 X43.179 Y52.796 E18.53543
G0 F3600 X43.179 Y53.361
G1 F600 X47.871 Y58.053 E18.66024
G0 F3600 X47.305 Y58.053
G1 F600 X43.179 Y53.927 E18.77001
G0 F3600 X43.179 Y54.493
G1 F600 X46.739 Y58.053 E18.86471
G0 F3600 X46.174 Y58.053
G1 F600 X43.179 Y55.058 E18.94438
G0 F3600 X43.179 Y55.624
G1 F600 X45.608 Y58.053 E19.009
G0 F3600 X45.042 Y58.053
G1 F600 X43.179 Y56.19 E19.05856
G0 F3600 X43.179 Y56.755
G1 F600 X44.477 Y58.053 E19.09309
G0 F3600 X43.911 Y58.053
G1 F600 X43.179 Y57.321 E19.11256
G0 F3600 X43.179 Y57.887
G1 F600 X43.345 Y58.053 E19.11698
;MESH:NONMESH
G0 X43.345 Y58.053 Z0.36
G0 F3600 X42.58 Y41.346
G0 X42.2 Y40.966
;TIME_ELAPSED:106.938263
;LAYER:1
M106 S255
;TYPE:WALL-OUTER
;MESH:Manipulator_Shell_01.stl(1)
G1 F600 X42.2 Y59.034 E19.18495
G1 X57.8 Y59.034 E19.24364
G1 X57.8 Y40.966 E19.31161
G1 X42.2 Y40.966 E19.3703
G0 F5400 X42.2 Y41.166
G0 X42.6 Y41.366
;TYPE:WALL-INNER
G1 F900 X42.6 Y58.634 E19.43527
G1 X57.4 Y58.634 E19.49095
G1 X57.4 Y41.366 E19.55591
G1 X42.6 Y41.366 E19.61159
G0 F5400 X42.98 Y41.746
;TYPE:SKIN
G1 F450 X42.98 Y58.254 E19.67369
G1 X57.02 Y58.254 E19.72651
G1 X57.02 Y41.746 E19.78862
G1 X42.98 Y41.746 E19.84144
G0 F5400 X43.18 Y42.238
G1 F450 X43.472 Y41.946 E19.84299
G0 F5400 X44.037 Y41.946
G1 F450 X43.18 Y42.804 E19.84755
G0 F5400 X43.18 Y43.369
G1 F450 X44.603 Y41.946 E19.85513
G0 F5400 X45.169 Y41.946
G1 F450 X43.18 Y43.935 E19.86571
G0 F5400 X43.18 Y44.501
G1 F450 X45.734 Y41.946 E19.8793
G0 F5400 X46.3 Y41.946
G1 F450 X43.18 Y45.066 E19.8959
G0 F5400 X43.18 Y45.632
G1 F450 X46.866 Y41.946 E19.91551
G0 F5400 X47.432 Y41.946
G1 F450 X43.18 Y46.198 E19.93813
G0 F5400 X43.18 Y46.763
G1 F450 X47.997 Y41.946 E19.96376
G0 F5400 X48.563 Y41.946
G1 F450 X43.18 Y47.329 E19.9924
G0 F5400 X43.18 Y47.895
G1 F450 X49.129 Y41.946 E20.02405
G0 F5400 X49.694 Y41.946
G1 F450 X43.18 Y48.46 E20.05871
G0 F5400 X43.18 Y49.026
G1 F450 X50.26 Y41.946 E20.09638
G0 F5400 X50.826 Y41.946
G1 F450 X43.18 Y49.592 E20.13706
G0 F5400 X43.18 Y50.157
G1 F450 X51.391 Y41.946 E20.18074
G0 F5400 X51.957 Y41.946
G1 F450 X43.18 Y50.723 E20.22744
G0 F5400 X43.18 Y51.289
G1 F450 X52.523 Y41.946 E20.27715
G0 F5400 X53.088 Y41.946
G1 F450 X43.18 Y51.854 E20.32987
G0 F5400 X43.18 Y52.42
G1 F450 X53.654 Y41.946 E20.38559
G0 F5400 X54.22 Y41.946
G1 F450 X43.18 Y52.986 E20.44433
G0 F5400 X43.18 Y53.552
G1 F450 X54.785 Y41.946 E20.50608
G0 F5400 X55.351 Y41.946
G1 F450 X43.18 Y54.117 E20.57083
G0 F5400 X43.18 Y54.683
G1 F450 X55.917 Y41.946 E20.6386
G0 F5400 X56.482 Y41.946
G1 F450 X43.18 Y55.249 E20.70937
G0 F5400 X43.18 Y55.814
G1 F450 X56.819 Y42.175 E20.78194
G0 F5400 X56.819 Y42.741
G1 F450 X43.18 Y56.38 E20.8545
G0 F5400 X43.18 Y56.946
G1 F450 X56.819 Y43.306 E20.92707
G0 F5400 X56.819 Y43.872
G1 F450 X43.18 Y57.511 E20.99964
G0 F5400 X43.204 Y58.053
G1 F450 X56.819 Y44.438 E21.07207
G0 F5400 X56.819 Y45.003
G1 F450 X43.769 Y58.053 E21.1415
G0 F5400 X44.335 Y58.053
G1 F450 X56.819 Y45.569 E21.20792
G0 F5400 X56.819 Y46.135
G1 F450 X44.901 Y58.053 E21.27133
G0 F5400 X45.466 Y58.053
G1 F450 X56.819 Y46.7 E21.33174
G0 F5400 X56.819 Y47.266
G1 F450 X46.032 Y58.053 E21.38913
G0 F5400 X46.598 Y58.053
G1 F450 X56.819 Y47.832 E21.44351
G0 F5400 X56.819 Y48.397
G1 F450 X47.164 Y58.053 E21.49488
G0 F5400 X47.729 Y58.053
G1 F450 X56.819 Y48.963 E21.54324
G0 F5400 X56.819 Y49.529
G1 F450 X48.295 Y58.053 E21.58859
G0 F5400 X48.861 Y58.053
G1 F450 X56.819 Y50.094 E21.63094
G0 F5400 X56.819 Y50.66
G1 F450 X49.426 Y58.053 E21.67027
G0 F5400 X49.992 Y58.053
G1 F450 X56.819 Y51.226 E21.70659
G0 F5400 X56.819 Y51.792
G1 F450 X50.558 Y58.053 E21.7399
G0 F5400 X51.123 Y58.053
G1 F450 X56.819 Y52.357 E21.77021
G0 F5400 X56.819 Y52.923
G1 F450 X51.689 Y58.053 E21.7975
G0 F5400 X52.255 Y58.053
G1 F450 X56.819 Y53.489 E21.82179
G0 F5400 X56.819 Y54.054
G1 F450 X52.82 Y58.053 E21.84306
G0 F5400 X53.386 Y58.053
G1 F450 X56.819 Y54.62 E21.86133
G0 F5400 X56.819 Y55.186
G1 F450 X53.952 Y58.053 E21.87658
G0 F5400 X54.517 Y58.053
G1 F450 X56.819 Y55.751 E21.88883
G0 F5400 X56.819 Y56.317
G1 F450 X55.083 Y58.053 E21.89806
G0 F5400 X55.649 Y58.053
G1 F450 X56.819 Y56.883 E21.90429
G0 F5400 X56.819 Y57.448
G1 F450 X56.214 Y58.053 E21.90751
G1 X56.144 Y58.123
;MESH:NONMESH
G0 F600 X56.144 Y58.123 Z0.42
G0 F5400 X42.58 Y41.346
G0 X42.2 Y40.966
;TIME_ELAPSED:200.830270
;LAYER:2
;TYPE:WALL-OUTER
;MESH:Manipulator_Shell_01.stl(1)
G1 F600 X42.2 Y59.034 E21.97548
G1 X57.8 Y59.034 E22.03417
G1 X57.8 Y40.966 E22.10214
G1 X42.2 Y40.966 E22.16083
G0 F7200 X42.2 Y41.166
G0 X42.6 Y41.366
;TYPE:WALL-INNER
G1 F1200 X42.6 Y58.634 E22.2258
G1 X57.4 Y58.634 E22.28148
G1 X57.4 Y41.366 E22.34644
G1 X42.6 Y41.366 E22.40212
G0 F7200 X42.98 Y41.746
;TYPE:SKIN
G1 F300 X42.98 Y58.254 E22.46423
G1 X57.02 Y58.254 E22.51705
G1 X57.02 Y41.746 E22.57915
G1 X42.98 Y41.746 E22.63197
G0 F7200 X56.654 Y41.946
G1 F300 X56.82 Y42.112 E22.63285
G0 F7200 X56.82 Y42.678
G1 F300 X56.088 Y41.946 E22.63675
G0 F7200 X55.522 Y41.946
G1 F300 X56.82 Y43.243 E22.64365
G0 F7200 X56.82 Y43.809
G1 F300 X54.957 Y41.946 E22.65356
G0 F7200 X54.391 Y41.946
G1 F300 X56.82 Y44.375 E22.66649
G0 F7200 X56.82 Y44.94
G1 F300 X53.825 Y41.946 E22.68242
G0 F7200 X53.259 Y41.946
G1 F300 X56.82 Y45.506 E22.70136
G0 F7200 X56.82 Y46.072
G1 F300 X52.694 Y41.946 E22.72331
G0 F7200 X52.128 Y41.946
G1 F300 X56.82 Y46.637 E22.74827
G0 F7200 X56.82 Y47.203
G1 F300 X51.562 Y41.946 E22.77625
G0 F7200 X50.997 Y41.946
G1 F300 X56.82 Y47.769 E22.80723
G0 F7200 X56.82 Y48.334
G1 F300 X50.431 Y41.946 E22.84122
G0 F7200 X49.865 Y41.946
G1 F300 X56.82 Y48.9 E22.87822
G0 F7200 X56.82 Y49.466
G1 F300 X49.3 Y41.946 E22.91823
G0 F7200 X48.734 Y41.946
G1 F300 X56.82 Y50.032 E22.96125
G0 F7200 X56.82 Y50.597
G1 F300 X48.168 Y41.946 E23.00728
G0 F7200 X47.603 Y41.946
G1 F300 X56.82 Y51.163 E23.05632
G0 F7200 X56.82 Y51.729
G1 F300 X47.037 Y41.946 E23.10837
G0 F7200 X46.471 Y41.946
G1 F300 X56.82 Y52.294 E23.16343
G0 F7200 X56.82 Y52.86
G1 F300 X45.906 Y41.946 E23.22149
G0 F7200 X45.34 Y41.946
G1 F300 X56.82 Y53.426 E23.28257
G0 F7200 X56.82 Y53.991
G1 F300 X44.774 Y41.946 E23.34666
G0 F7200 X44.209 Y41.946
G1 F300 X56.82 Y54.557 E23.41375
G0 F7200 X56.82 Y55.123
G1 F300 X43.643 Y41.946 E23.48386
G0 F7200 X43.179 Y42.048
G1 F300 X56.82 Y55.688 E23.55643
G0 F7200 X56.82 Y56.254
G1 F300 X43.179 Y42.613 E23.62901
G0 F7200 X43.179 Y43.179
G1 F300 X56.82 Y56.82 E23.70159
G0 F7200 X56.82 Y57.385
G1 F300 X43.179 Y43.745 E23.77416
G0 F7200 X43.179 Y44.31
G1 F300 X56.82 Y57.951 E23.84674
G0 F7200 X56.356 Y58.053
G1 F300 X43.179 Y44.876 E23.91684
G0 F7200 X43.179 Y45.442
G1 F300 X55.79 Y58.053 E23.98394
G0 F7200 X55.225 Y58.053
G1 F300 X43.179 Y46.007 E24.04803
G0 F7200 X43.179 Y46.573
G1 F300 X54.659 Y58.053 E24.10911
G0 F7200 X54.093 Y58.053
G1 F300 X43.179 Y47.139 E24.16717
G0 F7200 X43.179 Y47.704
G1 F300 X53.527 Y58.053 E24.22223
G0 F7200 X52.962 Y58.053
G1 F300 X43.179 Y48.27 E24.27428
G0 F7200 X43.179 Y48.836
G1 F300 X52.396 Y58.053 E24.32332
G0 F7200 X51.83 Y58.053
G1 F300 X43.179 Y49.402 E24.36935
G0 F7200 X43.179 Y49.967
G1 F300 X51.265 Y58.053 E24.41237
G0 F7200 X50.699 Y58.053
G1 F300 X43.179 Y50.533 E24.45238
G0 F7200 X43.179 Y51.099
G1 F300 X50.133 Y58.053 E24.48938
G0 F7200 X49.568 Y58.053
G1 F300 X43.179 Y51.664 E24.52337
G0 F7200 X43.179 Y52.23
G1 F300 X49.002 Y58.053 E24.55435
G0 F7200 X48.436 Y58.053
G1 F300 X43.179 Y52.796 E24.58232
G0 F7200 X43.179 Y53.361
G1 F300 X47.871 Y58.053 E24.60728
G0 F7200 X47.305 Y58.053
G1 F300 X43.179 Y53.927 E24.62924
G0 F7200 X43.179 Y54.493
G1 F300 X46.739 Y58.053 E24.64818
G0 F7200 X46.174 Y58.053
G1 F300 X43.179 Y55.058 E24.66411
G0 F7200 X43.179 Y55.624
G1 F300 X45.608 Y58.053 E24.67703
G0 F7200 X45.042 Y58.053
G1 F300 X43.179 Y56.19 E24.68695
G0 F7200 X43.179 Y56.755
G1 F300 X44.477 Y58.053 E24.69385
G0 F7200 X43.911 Y58.053
G1 F300 X43.179 Y57.321 E24.69775
G0 F7200 X43.179 Y57.887
G1 F300 X43.345 Y58.053 E24.69863
;MESH:NONMESH
G0 F600 X43.345 Y58.053 Z0.48
G0 F7200 X42.58 Y41.346
G0 X42.2 Y40.966
;TIME_ELAPSED:334.443041
;LAYER:3
;TYPE:WALL-OUTER
;MESH:Manipulator_Shell_01.stl(1)
G1 F600 X42.2 Y59.034 E24.7666
G1 X57.8 Y59.034 E24.82529
G1 X57.8 Y40.966 E24.89327
G1 X42.2 Y40.966 E24.95196
G0 F7200 X42.2 Y41.166
G0 X42.6 Y41.366
