; generated by CreatWare 7.0.0 on 2022-10-10 at 22:20:29 UTC

; 

; external perimeters extrusion width = 0.40mm
; perimeters extrusion width = 0.40mm
; infill extrusion width = 0.40mm
; solid infill extrusion width = 0.40mm
; top infill extrusion width = 0.40mm
; support material extrusion width = 0.40mm

; external perimeters extrusion width = 0.40mm
; perimeters extrusion width = 0.40mm
; infill extrusion width = 0.40mm
; solid infill extrusion width = 0.40mm
; top infill extrusion width = 0.40mm
; support material extrusion width = 0.40mm

; external perimeters extrusion width = 0.40mm
; perimeters extrusion width = 0.40mm
; infill extrusion width = 0.40mm
; solid infill extrusion width = 0.40mm
; top infill extrusion width = 0.40mm
; support material extrusion width = 0.40mm

; external perimeters extrusion width = 0.40mm
; perimeters extrusion width = 0.40mm
; infill extrusion width = 0.40mm
; solid infill extrusion width = 0.40mm
; top infill extrusion width = 0.40mm
; support material extrusion width = 0.40mm

; external perimeters extrusion width = 0.40mm
; perimeters extrusion width = 0.40mm
; infill extrusion width = 0.40mm
; solid infill extrusion width = 0.40mm
; top infill extrusion width = 0.40mm
; support material extrusion width = 0.40mm

; external perimeters extrusion width = 0.40mm
; perimeters extrusion width = 0.40mm
; infill extrusion width = 0.40mm
; solid infill extrusion width = 0.40mm
; top infill extrusion width = 0.40mm
; support material extrusion width = 0.40mm

; external perimeters extrusion width = 0.40mm
; perimeters extrusion width = 0.40mm
; infill extrusion width = 0.40mm
; solid infill extrusion width = 0.40mm
; top infill extrusion width = 0.40mm
; support material extrusion width = 0.40mm

; external perimeters extrusion width = 0.40mm
; perimeters extrusion width = 0.40mm
; infill extrusion width = 0.40mm
; solid infill extrusion width = 0.40mm
; top infill extrusion width = 0.40mm
; support material extrusion width = 0.40mm

G21 ; set units to millimeters
G90 ; use absolute coordinates
M82 ; use absolute distances for extrusion
G92 E0
M107
M190 S45 ; set bed temperature and wait for it to be reached
M104 S210 T0 ; set temperature
M104 S195 T1 ; set temperature
;TYPE:Custom
M109 S210 T0 ; set temperature and wait for it to be reached
M109 S195 T1 ; set temperature and wait for it to be reached
M6013 S0 ; set chamber temp

G28 X0 Y0  ;move X/Y to min endstops
G28 Z0     ;move Z to min endstops

;Add Clear Nozzle
G92 E0                   ;zero the extruded length again
G0 F4200 X0 Y0
G0 F400 X10 Z0.4         ;move a bit while down the Z
M221 T0 S300             ;set flow is 300%
G1 F200 X30 E8          ;extrude amont filament to clean the hotend
M221 T0 S100             ;reset flow is 100%
G92 E0                   ;zero the extruded length again
;Add End

G0 Z15.0 F4200 ;move the platform down 15mm

;Put printing message on LCD screen
M117 Printing...
T0
G92 E0
; Filament gcode
M107
;LAYER_CHANGE
;Layer 1
;Z:0.1
;HEIGHT:0.1
;BEFORE_LAYER_CHANGE
;0.1


G1 Z.1 F4200
;AFTER_LAYER_CHANGE
;G92 E0   ;zero the extruded length again
;0.1
G1 E-2 F1800
G92 E0
G1 X102.86 Y138.862 F4200
G1 E2 F1800
;TYPE:Skirt/Brim
;WIDTH:0.4
G1 F720
G1 X104.707 Y137.576 E2.0425
G1 X107.174 Y136.997 E2.09036
G1 X238.877 Y132.936 E4.57881
G1 X254.715 Y132.933 E4.87792
G1 X256.929 Y133.33 E4.9204
G1 X259.225 Y134.802 E4.97191
G1 X261.568 Y137.145 E5.03449
G1 X262.853 Y138.992 E5.07698
G1 X263.436 Y141.568 E5.12686
G1 X264.033 Y185.496 E5.95654
G1 X264.034 Y194.896 E6.13406
G1 X263.637 Y197.111 E6.17656
G1 X262.165 Y199.407 E6.22807
G1 X259.822 Y201.75 E6.29065
G1 X257.976 Y203.035 E6.33313
G1 X255.624 Y203.61 E6.37886
G1 X168.946 Y207.851 E8.01777
G1 X152.968 Y207.859 E8.31952
G1 X107.943 Y207.678 E9.16984
G1 X105.729 Y207.272 E9.21235
G1 X103.458 Y205.81 E9.26336
G1 X101.115 Y203.467 E9.32594
G1 X99.829 Y201.62 E9.36844
G1 X99.247 Y199.043 E9.41833
G1 X98.65 Y155.116 E10.24799
G1 X98.649 Y145.715 E10.42553
G1 X99.046 Y143.5 E10.46803
G1 X100.517 Y141.205 E10.51951
G1 X102.818 Y138.904 E10.58097
G1 E8.58097 F1800
G92 E0
G1 X237.036 Y142.252 F4200
G1 E2 F1800
G1 F720
G1 X237.193 Y141.742 E2.01008
G1 X237.42 Y141.385 E2.01807
G1 X238.803 Y140.003 E2.05499
G1 X239.011 Y139.85 E2.05987
G1 X239.726 Y139.609 E2.07412
G1 X254.076 Y139.612 E2.34513
G1 X254.45 Y139.702 E2.35239
G1 X254.966 Y139.983 E2.36349
G1 X256.368 Y141.385 E2.40093
G1 X256.595 Y141.741 E2.4089
G1 X256.761 Y142.307 E2.42004
G1 X256.742 Y150.434 E2.57352
G1 X256.594 Y150.885 E2.58248
G1 X256.368 Y151.239 E2.59041
G1 X254.986 Y152.621 E2.62732
G1 X254.777 Y152.774 E2.63221
G1 X254.063 Y153.015 E2.64644
G1 X239.726 Y153.015 E2.9172
G1 X239.159 Y152.849 E2.92836
G1 X238.835 Y152.647 E2.93557
G1 X237.421 Y151.24 E2.97324
G1 X237.268 Y151.031 E2.97813
G1 X237.027 Y150.317 E2.99236
G1 X237.036 Y142.312 E3.14354
G1 X237.406 Y142.337 F4200
G1 F720
G1 X237.547 Y141.879 E3.15259
G1 X237.702 Y141.639 E3.15799
G1 X239.059 Y140.282 E3.19423
G1 X239.209 Y140.173 E3.19773
G1 X239.757 Y139.987 E3.20866
G1 X254.054 Y139.991 E3.47866
G1 X254.296 Y140.048 E3.48336
G1 X254.719 Y140.271 E3.49239
G1 X256.087 Y141.639 E3.52893
G1 X256.241 Y141.879 E3.53432
G1 X256.383 Y142.337 E3.54338
G1 X256.373 Y150.345 E3.69461
G1 X256.242 Y150.743 E3.70252
G1 X256.087 Y150.985 E3.70795
G1 X254.729 Y152.342 E3.74421
G1 X254.579 Y152.451 E3.74771
G1 X254.032 Y152.637 E3.75862
G1 X239.756 Y152.637 E4.02823
G1 X239.298 Y152.496 E4.03728
G1 X239.058 Y152.341 E4.04268
G1 X237.7 Y150.984 E4.07894
G1 X237.592 Y150.833 E4.08245
G1 X237.406 Y150.286 E4.09336
G1 X237.406 Y142.397 E4.24235
G1 X237.784 Y142.397 F4200
G1 F720
G1 X237.898 Y142.023 E4.24973
G1 X237.983 Y141.893 E4.25266
G1 X239.314 Y140.562 E4.28821
G1 X239.405 Y140.498 E4.29031
G1 X239.789 Y140.366 E4.29798
G1 X254.032 Y140.369 E4.56697
G1 X254.147 Y140.396 E4.5692
G1 X254.474 Y140.562 E4.57613
G1 X255.806 Y141.893 E4.61169
G1 X255.891 Y142.023 E4.61462
G1 X256.004 Y142.369 E4.62149
G1 X256.004 Y150.255 E4.77042
G1 X255.891 Y150.601 E4.77729
G1 X255.806 Y150.731 E4.78022
G1 X254.474 Y152.062 E4.81578
G1 X254.384 Y152.126 E4.81787
G1 X254 Y152.258 E4.82554
G1 X239.787 Y152.258 E5.09396
G1 X239.442 Y152.145 E5.10082
G1 X239.312 Y152.06 E5.10375
G1 X237.98 Y150.728 E5.13933
G1 X237.917 Y150.638 E5.1414
G1 X237.784 Y150.254 E5.14907
G1 X237.784 Y142.457 E5.29632
G1 X238.163 Y142.457 F4200
G1 F720
G1 X238.163 Y142.404 E5.29732
G1 X238.263 Y142.148 E5.30251
G1 X239.567 Y140.844 E5.33734
G1 X239.823 Y140.744 E5.34253
G1 X254.012 Y140.751 E5.6105
G1 X254.231 Y140.854 E5.61507
G1 X255.526 Y142.148 E5.64964
G1 X255.626 Y142.404 E5.65483
G1 X255.626 Y150.22 E5.80244
G1 X255.544 Y150.448 E5.80702
G1 X254.221 Y151.78 E5.84248
G1 X253.966 Y151.88 E5.84765
G1 X239.823 Y151.88 E6.11475
G1 X239.594 Y151.798 E6.11934
G1 X238.263 Y150.475 E6.15478
G1 X238.163 Y150.22 E6.15995
G1 X238.163 Y142.517 E6.30542
G1 X238.541 Y142.517 F4200
G1 F720
G1 X238.541 Y142.446 E6.30676
G1 X238.57 Y142.376 E6.30819
G1 X239.795 Y141.152 E6.34089
G1 X239.865 Y141.123 E6.34232
G1 X253.924 Y141.123 E6.60783
G1 X253.993 Y141.152 E6.60924
G1 X255.218 Y142.376 E6.64194
G1 X255.247 Y142.446 E6.64337
G1 X255.247 Y150.178 E6.78939
G1 X255.218 Y150.248 E6.79082
G1 X253.993 Y151.472 E6.82352
G1 X253.924 Y151.501 E6.82493
G1 X239.865 Y151.501 E7.09044
G1 X239.795 Y151.472 E7.09187
G1 X238.57 Y150.248 E7.12457
G1 X238.541 Y150.178 E7.126
G1 X238.541 Y142.577 E7.26955
G1 E5.26955 F1800
G92 E0
G1 X213.235 Y144.235 F4200
G1 E2 F1800
G1 F720
G1 X213.216 Y152.362 E2.15348
G1 X213.068 Y152.812 E2.16243
G1 X212.842 Y153.166 E2.17036
G1 X211.459 Y154.549 E2.2073
G1 X211.251 Y154.702 E2.21218
G1 X210.536 Y154.943 E2.22643
G1 X196.199 Y154.943 E2.49719
G1 X195.633 Y154.776 E2.50833
G1 X195.308 Y154.575 E2.51555
G1 X193.895 Y153.167 E2.55322
G1 X193.742 Y152.959 E2.5581
G1 X193.501 Y152.245 E2.57233
G1 X193.509 Y144.18 E2.72464
G1 X193.667 Y143.67 E2.73472
G1 X193.894 Y143.313 E2.74271
G1 X195.276 Y141.93 E2.77963
G1 X195.485 Y141.777 E2.78452
G1 X196.199 Y141.536 E2.79875
G1 X210.55 Y141.54 E3.06977
G1 X210.924 Y141.629 E3.07703
G1 X211.439 Y141.91 E3.08811
G1 X212.842 Y143.313 E3.12558
G1 X213.068 Y143.669 E3.13354
G1 X213.218 Y144.177 E3.14354
G1 X212.856 Y144.264 F4200
G1 F720
G1 X212.847 Y152.272 E3.29477
G1 X212.716 Y152.671 E3.3027
G1 X212.56 Y152.912 E3.30812
G1 X211.203 Y154.27 E3.34438
G1 X211.053 Y154.378 E3.34787
G1 X210.505 Y154.564 E3.3588
G1 X196.229 Y154.564 E3.62841
G1 X195.772 Y154.423 E3.63744
G1 X195.531 Y154.269 E3.64284
G1 X194.174 Y152.911 E3.6791
G1 X194.065 Y152.761 E3.6826
G1 X193.879 Y152.213 E3.69353
G1 X193.879 Y144.264 E3.84365
G1 X194.021 Y143.807 E3.85269
G1 X194.175 Y143.566 E3.85809
G1 X195.533 Y142.209 E3.89435
G1 X195.683 Y142.101 E3.89784
G1 X196.23 Y141.915 E3.90875
G1 X210.528 Y141.918 E4.17877
G1 X210.77 Y141.975 E4.18347
G1 X211.193 Y142.199 E4.19251
G1 X212.56 Y143.566 E4.22902
G1 X212.715 Y143.807 E4.23443
G1 X212.838 Y144.207 E4.24233
G1 X212.478 Y144.296 F4200
G1 F720
G1 X212.478 Y152.183 E4.39128
G1 X212.364 Y152.528 E4.39814
G1 X212.279 Y152.658 E4.40107
G1 X210.948 Y153.99 E4.43663
G1 X210.857 Y154.053 E4.43872
G1 X210.473 Y154.186 E4.44639
G1 X196.261 Y154.186 E4.71479
G1 X195.915 Y154.072 E4.72167
G1 X195.786 Y153.988 E4.72458
G1 X194.454 Y152.656 E4.76016
G1 X194.39 Y152.566 E4.76225
G1 X194.258 Y152.181 E4.76994
G1 X194.258 Y144.296 E4.91885
G1 X194.371 Y143.95 E4.92572
G1 X194.456 Y143.821 E4.92864
G1 X195.788 Y142.489 E4.96422
G1 X195.878 Y142.426 E4.96629
G1 X196.262 Y142.293 E4.97396
G1 X210.506 Y142.297 E5.24296
G1 X210.621 Y142.324 E5.24519
G1 X210.948 Y142.489 E5.25211
G1 X212.279 Y143.821 E5.28767
G1 X212.364 Y143.95 E5.29059
G1 X212.459 Y144.239 E5.29634
G1 X212.099 Y144.331 F4200
G1 F720
G1 X212.099 Y152.148 E5.44397
G1 X211.999 Y152.403 E5.44914
G1 X210.668 Y153.725 E5.48457
G1 X210.439 Y153.807 E5.48916
G1 X196.296 Y153.807 E5.75626
G1 X196.041 Y153.707 E5.76143
G1 X194.718 Y152.376 E5.79687
G1 X194.636 Y152.148 E5.80145
G1 X194.636 Y144.331 E5.94908
G1 X194.736 Y144.076 E5.95425
G1 X196.068 Y142.753 E5.98971
G1 X196.296 Y142.672 E5.99428
G1 X210.454 Y142.672 E6.26166
G1 X210.705 Y142.782 E6.26684
G1 X211.999 Y144.076 E6.3014
G1 X212.079 Y144.275 E6.30545
G1 X211.721 Y144.373 F4200
G1 F720
G1 X211.721 Y152.106 E6.45149
G1 X211.692 Y152.175 E6.4529
G1 X210.467 Y153.4 E6.48562
G1 X210.397 Y153.429 E6.48705
G1 X196.338 Y153.429 E6.75256
G1 X196.269 Y153.4 E6.75397
G1 X195.044 Y152.175 E6.78669
G1 X195.015 Y152.106 E6.7881
G1 X195.015 Y144.373 E6.93414
G1 X195.044 Y144.304 E6.93555
G1 X196.269 Y143.079 E6.96827
G1 X196.338 Y143.05 E6.96968
G1 X210.397 Y143.05 E7.23519
G1 X210.467 Y143.079 E7.23662
G1 X211.698 Y144.318 E7.2696
G1 E5.2696 F1800
G92 E0
G1 X170.084 Y146.548 F4200
G1 E2 F1800
G1 F720
G1 X170.065 Y154.675 E2.15348
G1 X169.917 Y155.126 E2.16244
G1 X169.691 Y155.48 E2.17037
G1 X168.308 Y156.862 E2.20729
G1 X168.1 Y157.015 E2.21217
G1 X167.386 Y157.256 E2.2264
G1 X153.049 Y157.256 E2.49716
G1 X152.482 Y157.09 E2.50832
G1 X152.157 Y156.888 E2.51555
G1 X150.744 Y155.481 E2.55321
G1 X150.591 Y155.272 E2.5581
G1 X150.35 Y154.558 E2.57233
G1 X150.358 Y146.493 E2.72464
G1 X150.516 Y145.983 E2.73472
G1 X150.743 Y145.626 E2.74271
G1 X152.125 Y144.244 E2.77962
G1 X152.334 Y144.091 E2.78451
G1 X153.048 Y143.85 E2.79874
G1 X167.399 Y143.853 E3.06976
G1 X167.773 Y143.943 E3.07702
G1 X168.289 Y144.224 E3.08812
G1 X169.691 Y145.626 E3.12556
G1 X169.917 Y145.982 E3.13352
G1 X170.067 Y146.491 E3.14354
G1 X169.705 Y146.578 F4200
G1 F720
G1 X169.696 Y154.586 E3.29477
G1 X169.565 Y154.984 E3.30268
G1 X169.409 Y155.226 E3.30812
G1 X168.052 Y156.583 E3.34436
G1 X167.902 Y156.692 E3.34786
G1 X167.354 Y156.878 E3.35879
G1 X153.078 Y156.878 E3.6284
G1 X152.621 Y156.737 E3.63743
G1 X152.38 Y156.582 E3.64284
G1 X151.023 Y155.225 E3.67908
G1 X150.914 Y155.074 E3.6826
G1 X150.729 Y154.527 E3.69351
G1 X150.729 Y146.578 E3.84363
G1 X150.87 Y146.12 E3.85268
G1 X151.024 Y145.88 E3.85807
G1 X152.382 Y144.523 E3.89433
G1 X152.532 Y144.414 E3.89783
G1 X153.08 Y144.228 E3.90876
G1 X167.377 Y144.232 E4.17876
G1 X167.619 Y144.289 E4.18346
G1 X168.042 Y144.512 E4.19249
G1 X169.409 Y145.88 E4.22901
G1 X169.564 Y146.12 E4.23441
G1 X169.688 Y146.52 E4.24232
G1 X169.327 Y146.61 F4200
G1 F720
G1 X169.327 Y154.496 E4.39125
G1 X169.213 Y154.842 E4.39813
G1 X169.128 Y154.972 E4.40106
G1 X167.797 Y156.303 E4.43661
G1 X167.707 Y156.367 E4.4387
G1 X167.322 Y156.499 E4.44639
G1 X153.11 Y156.499 E4.71479
G1 X152.764 Y156.386 E4.72166
G1 X152.635 Y156.301 E4.72458
G1 X151.303 Y154.969 E4.76016
G1 X151.24 Y154.879 E4.76223
G1 X151.107 Y154.495 E4.7699
G1 X151.107 Y146.61 E4.91881
G1 X151.221 Y146.264 E4.92569
G1 X151.305 Y146.134 E4.92861
G1 X152.637 Y144.803 E4.96417
G1 X152.727 Y144.739 E4.96626
G1 X153.111 Y144.607 E4.97393
G1 X167.355 Y144.61 E5.24293
G1 X167.47 Y144.637 E5.24516
G1 X167.797 Y144.803 E5.25209
G1 X169.128 Y146.134 E5.28764
G1 X169.213 Y146.264 E5.29057
G1 X169.308 Y146.553 E5.29632
G1 X168.948 Y146.645 F4200
G1 F720
G1 X168.948 Y154.461 E5.44393
G1 X168.848 Y154.717 E5.44912
G1 X167.517 Y156.039 E5.48455
G1 X167.289 Y156.121 E5.48913
G1 X153.145 Y156.121 E5.75625
G1 X152.89 Y156.021 E5.76142
G1 X151.567 Y154.689 E5.79688
G1 X151.486 Y154.461 E5.80145
G1 X151.486 Y146.645 E5.94906
G1 X151.585 Y146.39 E5.95423
G1 X152.917 Y145.067 E5.98969
G1 X153.145 Y144.985 E5.99427
G1 X167.303 Y144.985 E6.26165
G1 X167.554 Y145.095 E6.26683
G1 X168.848 Y146.39 E6.3014
G1 X168.928 Y146.588 E6.30543
G1 X168.57 Y146.687 F4200
G1 F720
G1 X168.57 Y154.419 E6.45145
G1 X168.541 Y154.489 E6.45288
G1 X167.316 Y155.713 E6.48558
G1 X167.246 Y155.742 E6.48701
G1 X153.187 Y155.742 E6.75252
G1 X153.118 Y155.713 E6.75393
G1 X151.893 Y154.489 E6.78663
G1 X151.864 Y154.419 E6.78806
G1 X151.864 Y146.687 E6.93408
G1 X151.893 Y146.617 E6.93551
G1 X153.118 Y145.393 E6.96821
G1 X153.187 Y145.364 E6.96962
G1 X167.246 Y145.364 E7.23513
G1 X167.316 Y145.393 E7.23656
G1 X168.547 Y146.631 E7.26953
G1 E5.26953 F1800
G92 E0
G1 X167.996 Y187.781 F4200
G1 E2 F1800
G1 F720
G1 X168.37 Y187.87 E2.00726
G1 X168.886 Y188.151 E2.01836
G1 X170.288 Y189.554 E2.05582
G1 X170.515 Y189.91 E2.06379
G1 X170.681 Y190.476 E2.07493
G1 X170.662 Y198.603 E2.22841
G1 X170.514 Y199.053 E2.23736
G1 X170.289 Y199.407 E2.24528
G1 X168.906 Y200.79 E2.28222
G1 X168.697 Y200.943 E2.28711
G1 X167.983 Y201.184 E2.30134
G1 X153.646 Y201.184 E2.5721
G1 X153.079 Y201.017 E2.58326
G1 X152.755 Y200.816 E2.59046
G1 X151.341 Y199.408 E2.62815
G1 X151.188 Y199.2 E2.63303
G1 X150.947 Y198.486 E2.64726
G1 X150.956 Y190.421 E2.79957
G1 X151.113 Y189.911 E2.80965
G1 X151.34 Y189.554 E2.81764
G1 X152.723 Y188.171 E2.85458
G1 X152.931 Y188.018 E2.85946
G1 X153.646 Y187.777 E2.87371
G1 X167.936 Y187.781 E3.14358
G1 X167.936 Y188.159 F4200
G1 F720
G1 X168.216 Y188.216 E3.14898
G1 X168.639 Y188.44 E3.15802
G1 X170.007 Y189.807 E3.19454
G1 X170.161 Y190.048 E3.19994
G1 X170.303 Y190.505 E3.20898
G1 X170.293 Y198.513 E3.36021
G1 X170.162 Y198.912 E3.36814
G1 X170.007 Y199.153 E3.37355
G1 X168.649 Y200.511 E3.40982
G1 X168.499 Y200.619 E3.41331
G1 X167.952 Y200.805 E3.42422
G1 X153.676 Y200.805 E3.69383
G1 X153.218 Y200.664 E3.70288
G1 X152.978 Y200.509 E3.70828
G1 X151.62 Y199.152 E3.74454
G1 X151.512 Y199.002 E3.74803
G1 X151.326 Y198.454 E3.75896
G1 X151.326 Y190.505 E3.90908
G1 X151.467 Y190.048 E3.91811
G1 X151.622 Y189.807 E3.92352
G1 X152.979 Y188.45 E3.95976
G1 X153.129 Y188.341 E3.96326
G1 X153.677 Y188.155 E3.97419
G1 X167.876 Y188.159 E4.24234
G1 X167.876 Y188.538 F4200
G1 F720
G1 X168.067 Y188.565 E4.24598
G1 X168.394 Y188.73 E4.2529
G1 X169.726 Y190.062 E4.28848
G1 X169.811 Y190.191 E4.2914
G1 X169.924 Y190.537 E4.29827
G1 X169.924 Y198.424 E4.44722
G1 X169.811 Y198.769 E4.45408
G1 X169.726 Y198.899 E4.45701
G1 X168.394 Y200.231 E4.49259
G1 X168.304 Y200.294 E4.49466
G1 X167.92 Y200.427 E4.50233
G1 X153.707 Y200.427 E4.77075
G1 X153.362 Y200.313 E4.77761
G1 X153.232 Y200.228 E4.78054
G1 X151.9 Y198.897 E4.8161
