; generated by CreatWare 7.0.0 on 2022-07-22 at 06:11:50 UTC

; 

; external perimeters extrusion width = 0.40mm
; perimeters extrusion width = 0.40mm
; infill extrusion width = 0.40mm
; solid infill extrusion width = 0.40mm
; top infill extrusion width = 0.40mm

; external perimeters extrusion width = 0.40mm
; perimeters extrusion width = 0.40mm
; infill extrusion width = 0.40mm
; solid infill extrusion width = 0.40mm
; top infill extrusion width = 0.40mm

; external perimeters extrusion width = 0.40mm
; perimeters extrusion width = 0.40mm
; infill extrusion width = 0.40mm
; solid infill extrusion width = 0.40mm
; top infill extrusion width = 0.40mm

; external perimeters extrusion width = 0.40mm
; perimeters extrusion width = 0.40mm
; infill extrusion width = 0.40mm
; solid infill extrusion width = 0.40mm
; top infill extrusion width = 0.40mm

; external perimeters extrusion width = 0.40mm
; perimeters extrusion width = 0.40mm
; infill extrusion width = 0.40mm
; solid infill extrusion width = 0.40mm
; top infill extrusion width = 0.40mm

; external perimeters extrusion width = 0.40mm
; perimeters extrusion width = 0.40mm
; infill extrusion width = 0.40mm
; solid infill extrusion width = 0.40mm
; top infill extrusion width = 0.40mm

; external perimeters extrusion width = 0.40mm
; perimeters extrusion width = 0.40mm
; infill extrusion width = 0.40mm
; solid infill extrusion width = 0.40mm
; top infill extrusion width = 0.40mm

; external perimeters extrusion width = 0.40mm
; perimeters extrusion width = 0.40mm
; infill extrusion width = 0.40mm
; solid infill extrusion width = 0.40mm
; top infill extrusion width = 0.40mm

; external perimeters extrusion width = 0.40mm
; perimeters extrusion width = 0.40mm
; infill extrusion width = 0.40mm
; solid infill extrusion width = 0.40mm
; top infill extrusion width = 0.40mm

G21 ; set units to millimeters
G90 ; use absolute coordinates
M82 ; use absolute distances for extrusion
G92 E0
M107
M190 S45 ; set bed temperature and wait for it to be reached
M104 S210 ; set temperature
;TYPE:Custom
M109 S210 ; set temperature and wait for it to be reached
M6013 S0 ; set chamber temp

G28 X0 Y0  ;move X/Y to min endstops
G28 Z0     ;move Z to min endstops

;Add Clear Nozzle
G92 E0                   ;zero the extruded length again
G0 F4200 X0 Y0
G0 F400 X10 Z0.4         ;move a bit while down the Z
M221 T0 S300             ;set flow is 300%
G1 F200 X30 E8          ;extrude amont filament to clean the hotend
M221 T0 S100             ;reset flow is 100%
G92 E0                   ;zero the extruded length again
;Add End

G0 Z15.0 F4200 ;move the platform down 15mm

;Put printing message on LCD screen
M117 Printing...
; Filament gcode
M107
;LAYER_CHANGE
;Layer 1
;Z:0.2
;HEIGHT:0.2
;BEFORE_LAYER_CHANGE
;0.2


G1 Z.2 F4200
;AFTER_LAYER_CHANGE
;G92 E0   ;zero the extruded length again
;0.2
G1 E-2 F1800
G92 E0
G1 X94.682 Y61.209 F4200
G1 E2 F1800
;TYPE:Skirt/Brim
;WIDTH:0.4
G1 F720
G1 X97.025 Y58.866 E2.11806
G1 X98.869 Y57.583 E2.1981
G1 X101.52 Y57.004 E2.29478
G1 X128.93 Y57.006 E3.27139
G1 X192.953 Y58.654 E5.55326
G1 X195.153 Y59.107 E5.63329
G1 X197.285 Y60.514 E5.7243
G1 X199.628 Y62.857 E5.84236
G1 X200.911 Y64.701 E5.9224
G1 X201.479 Y66.981 E6.00612
G1 X210.689 Y224.787 E11.63824
G1 X210.689 Y249.112 E12.50493
G1 X210.292 Y251.323 E12.58497
G1 X208.827 Y253.607 E12.68165
G1 X206.484 Y255.951 E12.79973
G1 X204.64 Y257.233 E12.87975
G1 X201.989 Y257.813 E12.97644
G1 X181.222 Y257.781 E13.71636
G1 X113.942 Y251.066 E16.12543
G1 X111.782 Y250.452 E16.20544
G1 X110.079 Y249.235 E16.28002
G1 X107.736 Y246.892 E16.39808
G1 X106.453 Y245.048 E16.47812
G1 X105.911 Y243.089 E16.55054
G1 X102.19 Y209.075 E17.76967
G1 X95.124 Y139.358 E20.26638
G1 X92.827 Y90.326 E22.01528
G1 X92.82 Y65.704 E22.89255
G1 X93.217 Y63.493 E22.97259
G1 X94.649 Y61.26 E23.06711
G1 E21.06711 F1800
G92 E0
G1 X115.183 Y232.142 F4200
G1 E2 F1800
G1 F720
G1 X122.787 Y232.142 E2.27093
G1 X123.1 Y232.222 E2.28244
G1 X123.543 Y232.456 E2.30029
G1 X124.641 Y233.542 E2.35531
G1 X125.74 Y232.456 E2.41036
G1 X126.183 Y232.222 E2.42821
G1 X126.496 Y232.142 E2.43972
G1 X134.059 Y232.137 E2.70919
G1 X134.411 Y232.22 E2.72208
G1 X134.899 Y232.486 E2.74188
G1 X136.306 Y233.893 E2.81278
G1 X136.572 Y234.381 E2.83258
G1 X136.651 Y234.693 E2.84405
G1 X136.659 Y241.71 E3.09406
G1 X136.589 Y242.052 E3.1065
G1 X136.306 Y242.587 E3.12806
G1 X134.899 Y243.994 E3.19896
G1 X134.411 Y244.261 E3.21878
G1 X134.022 Y244.347 E3.23297
G1 X126.453 Y244.333 E3.50265
G1 X126.185 Y244.26 E3.51255
G1 X125.698 Y243.994 E3.53232
G1 X124.642 Y242.938 E3.58553
G1 X123.543 Y244.025 E3.6406
G1 X123.1 Y244.259 E3.65845
G1 X122.787 Y244.339 E3.66996
G1 X115.261 Y244.347 E3.93811
G1 X114.872 Y244.261 E3.9523
G1 X114.384 Y243.994 E3.97212
G1 X112.977 Y242.587 E4.04302
G1 X112.711 Y242.1 E4.06279
G1 X112.632 Y241.788 E4.07426
G1 X112.624 Y234.771 E4.32427
G1 X112.694 Y234.427 E4.33678
G1 X112.945 Y233.937 E4.3564
G1 X114.384 Y232.486 E4.42921
G1 X114.871 Y232.221 E4.44896
G1 X115.125 Y232.156 E4.4583
G1 X115.207 Y232.503 F4200
G1 F720
G1 X122.764 Y232.499 E4.72755
G1 X122.952 Y232.547 E4.73446
G1 X123.352 Y232.759 E4.75059
G1 X124.641 Y234.048 E4.81554
G1 X125.931 Y232.759 E4.88052
G1 X126.331 Y232.547 E4.89665
G1 X126.519 Y232.499 E4.90356
G1 X134.039 Y232.494 E5.17149
G1 X134.266 Y232.547 E5.1798
G1 X134.666 Y232.759 E5.19593
G1 X136.034 Y234.126 E5.26484
G1 X136.245 Y234.525 E5.28092
G1 X136.298 Y234.753 E5.28926
G1 X136.302 Y241.694 E5.53656
G1 X136.259 Y241.914 E5.54455
G1 X136.033 Y242.355 E5.56221
G1 X134.666 Y243.722 E5.63109
G1 X134.267 Y243.933 E5.64717
G1 X134.004 Y243.99 E5.65676
G1 X126.519 Y243.982 E5.92345
G1 X126.331 Y243.934 E5.93036
G1 X125.931 Y243.722 E5.94649
G1 X124.641 Y242.433 E6.01147
G1 X123.352 Y243.722 E6.07642
G1 X122.952 Y243.934 E6.09255
G1 X122.764 Y243.982 E6.09946
G1 X115.279 Y243.99 E6.36615
G1 X115.016 Y243.933 E6.37574
G1 X114.616 Y243.722 E6.39185
G1 X113.249 Y242.355 E6.46073
G1 X113.038 Y241.956 E6.47681
G1 X112.984 Y241.727 E6.48519
G1 X112.981 Y234.787 E6.73246
G1 X113.024 Y234.567 E6.74045
G1 X113.25 Y234.125 E6.75814
G1 X114.616 Y232.759 E6.82697
G1 X115.015 Y232.548 E6.84305
G1 X115.149 Y232.517 E6.84795
G1 X115.229 Y232.859 F4200
G1 F720
G1 X122.704 Y232.851 E7.11428
G1 X122.813 Y232.877 E7.11827
G1 X123.121 Y233.032 E7.13056
G1 X124.451 Y234.363 E7.1976
G1 X124.641 Y234.67 E7.21046
G1 X124.832 Y234.363 E7.22334
G1 X126.162 Y233.032 E7.29038
G1 X126.47 Y232.877 E7.30267
G1 X126.579 Y232.851 E7.30666
G1 X133.986 Y232.848 E7.57057
G1 X134.129 Y232.878 E7.57578
G1 X134.435 Y233.032 E7.58799
G1 X135.76 Y234.357 E7.65475
G1 X135.916 Y234.666 E7.66708
G1 X135.941 Y234.774 E7.67103
G1 X135.945 Y241.674 E7.91687
G1 X135.915 Y241.817 E7.92208
G1 X135.76 Y242.123 E7.9343
G1 X134.435 Y243.448 E8.00106
G1 X134.129 Y243.603 E8.01328
G1 X133.986 Y243.633 E8.01849
G1 X126.579 Y243.63 E8.2824
G1 X126.47 Y243.604 E8.28639
G1 X126.162 Y243.448 E8.29869
G1 X124.832 Y242.118 E8.36571
G1 X124.641 Y241.811 E8.37859
G1 X124.451 Y242.118 E8.39145
G1 X123.121 Y243.448 E8.45847
G1 X122.813 Y243.604 E8.47077
G1 X122.704 Y243.63 E8.47476
G1 X115.297 Y243.633 E8.73867
G1 X115.154 Y243.603 E8.74388
G1 X114.848 Y243.448 E8.7561
G1 X113.523 Y242.123 E8.82286
G1 X113.367 Y241.815 E8.83516
G1 X113.341 Y241.707 E8.83912
G1 X113.338 Y234.807 E9.08496
G1 X113.368 Y234.664 E9.09017
G1 X113.523 Y234.357 E9.10242
G1 X114.848 Y233.032 E9.16918
G1 X115.171 Y232.873 E9.18201
G1 E7.18201 F1800
G92 E0
G1 X125.009 Y234.823 F4200
G1 E2 F1800
G1 F720
G1 X125.113 Y234.586 E2.00922
G1 X126.391 Y233.308 E2.07362
G1 X126.628 Y233.205 E2.08283
G1 X133.969 Y233.205 E2.34439
G1 X134.206 Y233.308 E2.3536
G1 X135.484 Y234.586 E2.418
G1 X135.588 Y234.823 E2.42722
G1 X135.588 Y241.657 E2.67071
G1 X135.484 Y241.894 E2.67993
G1 X134.206 Y243.172 E2.74433
G1 X133.969 Y243.276 E2.75355
G1 X126.628 Y243.276 E3.01511
G1 X126.391 Y243.172 E3.02433
G1 X125.113 Y241.894 E3.08873
G1 X125.009 Y241.657 E3.09795
G1 X125.009 Y234.883 E3.3393
G1 X125.366 Y234.883 F4200
G1 F720
G1 X125.394 Y234.811 E3.34205
G1 X126.615 Y233.589 E3.4036
G1 X126.681 Y233.562 E3.40614
G1 X133.916 Y233.562 E3.66392
G1 X133.982 Y233.589 E3.66646
G1 X135.204 Y234.811 E3.72803
G1 X135.231 Y234.876 E3.73054
G1 X135.231 Y241.604 E3.97026
G1 X135.204 Y241.67 E3.9728
G1 X133.982 Y242.892 E4.03437
G1 X133.916 Y242.919 E4.03691
G1 X126.681 Y242.919 E4.29469
G1 X126.615 Y242.892 E4.29723
G1 X125.394 Y241.67 E4.35878
G1 X125.366 Y241.604 E4.36133
G1 X125.366 Y234.943 E4.59866
G1 E2.59866 F1800
G92 E0
G1 X124.273 Y234.943 F4200
G1 E2 F1800
G1 F720
G1 X124.273 Y241.657 E2.23922
G1 X124.17 Y241.894 E2.24843
G1 X122.892 Y243.172 E2.31283
G1 X122.655 Y243.276 E2.32205
G1 X115.314 Y243.276 E2.58361
G1 X115.077 Y243.172 E2.59283
G1 X113.799 Y241.894 E2.65723
G1 X113.695 Y241.657 E2.66645
G1 X113.695 Y234.823 E2.90994
G1 X113.799 Y234.586 E2.91916
G1 X115.077 Y233.308 E2.98356
G1 X115.314 Y233.205 E2.99277
G1 X122.655 Y233.205 E3.25433
G1 X122.892 Y233.308 E3.26354
G1 X124.17 Y234.586 E3.32794
G1 X124.267 Y234.793 E3.33608
G1 X124.273 Y234.883 E3.33929
G1 X123.916 Y234.883 F4200
G1 F720
G1 X123.916 Y241.604 E3.57876
G1 X123.889 Y241.67 E3.5813
G1 X122.667 Y242.892 E3.64287
G1 X122.602 Y242.919 E3.64538
G1 X115.367 Y242.919 E3.90316
G1 X115.301 Y242.892 E3.9057
G1 X114.079 Y241.67 E3.96727
G1 X114.052 Y241.604 E3.96981
G1 X114.052 Y234.876 E4.20953
G1 X114.079 Y234.811 E4.21204
G1 X115.301 Y233.589 E4.27361
G1 X115.367 Y233.562 E4.27615
G1 X122.602 Y233.562 E4.53393
G1 X122.667 Y233.589 E4.53644
G1 X123.896 Y234.827 E4.59859
G1 E2.59859 F1800
G92 E0
G1 X123.941 Y210.321 F4200
G1 E2 F1800
G1 F720
G1 X122.732 Y210.319 E2.04308
G1 X122.464 Y210.246 E2.05298
G1 X121.977 Y209.98 E2.07275
G1 X120.921 Y208.924 E2.12596
G1 X119.822 Y210.011 E2.18103
G1 X119.379 Y210.245 E2.19888
G1 X119.066 Y210.325 E2.21039
G1 X111.54 Y210.333 E2.47854
G1 X111.151 Y210.246 E2.49274
G1 X110.662 Y209.98 E2.51257
G1 X109.255 Y208.573 E2.58347
G1 X108.99 Y208.086 E2.60322
G1 X108.911 Y207.774 E2.61469
G1 X108.902 Y200.757 E2.8647
G1 X108.973 Y200.413 E2.87721
G1 X109.224 Y199.923 E2.89683
G1 X110.663 Y198.472 E2.96964
G1 X111.15 Y198.207 E2.98939
G1 X111.462 Y198.128 E3.00086
G1 X119.065 Y198.128 E3.27175
G1 X119.379 Y198.208 E3.2833
G1 X119.822 Y198.442 E3.30115
G1 X120.92 Y199.528 E3.35617
G1 X122.018 Y198.442 E3.41119
G1 X122.461 Y198.208 E3.42904
G1 X122.775 Y198.128 E3.44059
G1 X130.338 Y198.123 E3.71006
G1 X130.689 Y198.206 E3.72291
G1 X131.178 Y198.472 E3.74274
G1 X132.585 Y199.879 E3.81364
G1 X132.85 Y200.367 E3.83343
G1 X132.929 Y200.679 E3.8449
G1 X132.938 Y207.696 E4.09491
G1 X132.868 Y208.038 E4.10735
G1 X132.585 Y208.573 E4.12891
G1 X131.178 Y209.98 E4.19981
G1 X130.689 Y210.246 E4.21964
G1 X130.301 Y210.333 E4.23381
G1 X124.001 Y210.322 E4.45828
G1 X124.001 Y209.969 F4200
G1 F720
G1 X122.797 Y209.968 E4.50118
G1 X122.61 Y209.919 E4.50807
G1 X122.209 Y209.708 E4.52421
G1 X120.92 Y208.419 E4.58916
G1 X119.631 Y209.708 E4.65411
G1 X119.23 Y209.919 E4.67025
G1 X119.043 Y209.968 E4.67714
G1 X111.558 Y209.976 E4.94383
G1 X111.294 Y209.919 E4.95345
G1 X110.895 Y209.708 E4.96953
G1 X109.528 Y208.341 E5.03841
G1 X109.317 Y207.942 E5.05449
G1 X109.263 Y207.713 E5.06287
G1 X109.259 Y200.773 E5.31014
G1 X109.302 Y200.553 E5.31813
G1 X109.528 Y200.111 E5.33582
G1 X110.895 Y198.745 E5.40467
G1 X111.294 Y198.534 E5.42075
G1 X111.522 Y198.48 E5.4291
G1 X119.043 Y198.485 E5.69707
G1 X119.23 Y198.533 E5.70395
G1 X119.631 Y198.745 E5.72011
G1 X120.92 Y200.034 E5.78506
G1 X122.209 Y198.745 E5.85001
G1 X122.61 Y198.533 E5.86617
G1 X122.797 Y198.485 E5.87305
G1 X130.318 Y198.48 E6.14102
G1 X130.544 Y198.533 E6.14929
G1 X130.945 Y198.745 E6.16545
G1 X132.312 Y200.112 E6.23433
G1 X132.523 Y200.511 E6.25041
G1 X132.577 Y200.739 E6.25876
G1 X132.581 Y207.68 E6.50606
G1 X132.538 Y207.9 E6.51405
G1 X132.312 Y208.341 E6.53171
G1 X130.945 Y209.708 E6.60059
G1 X130.546 Y209.919 E6.61667
G1 X130.282 Y209.976 E6.62629
G1 X124.061 Y209.969 E6.84794
G1 X124.061 Y209.616 F4200
G1 F720
G1 X122.857 Y209.616 E6.89084
G1 X122.749 Y209.59 E6.8948
G1 X122.441 Y209.434 E6.9071
G1 X121.11 Y208.104 E6.97414
G1 X120.92 Y207.796 E6.98703
G1 X120.73 Y208.104 E6.99992
G1 X119.399 Y209.434 E7.06696
G1 X119.091 Y209.59 E7.07926
G1 X118.983 Y209.616 E7.08322
G1 X111.576 Y209.619 E7.34713
G1 X111.432 Y209.589 E7.35237
G1 X111.126 Y209.434 E7.36459
G1 X109.801 Y208.109 E7.43135
G1 X109.646 Y207.801 E7.44364
G1 X109.62 Y207.693 E7.4476
G1 X109.617 Y200.793 E7.69344
G1 X109.647 Y200.65 E7.69865
G1 X109.801 Y200.343 E7.71089
G1 X111.126 Y199.018 E7.77765
G1 X111.434 Y198.863 E7.78994
G1 X111.543 Y198.837 E7.79393
G1 X118.983 Y198.837 E8.05901
G1 X119.091 Y198.863 E8.06297
G1 X119.399 Y199.018 E8.07526
G1 X120.73 Y200.349 E8.14233
G1 X120.92 Y200.656 E8.15519
G1 X121.11 Y200.349 E8.16805
G1 X122.441 Y199.018 E8.23512
G1 X122.749 Y198.863 E8.24741
G1 X122.857 Y198.837 E8.25137
G1 X130.264 Y198.834 E8.51528
G1 X130.408 Y198.864 E8.52052
G1 X130.714 Y199.018 E8.53273
G1 X132.039 Y200.343 E8.59949
G1 X132.194 Y200.652 E8.61181
G1 X132.22 Y200.76 E8.61577
G1 X132.223 Y207.66 E8.86161
G1 X132.193 Y207.803 E8.86682
G1 X132.039 Y208.109 E8.87903
G1 X130.714 Y209.434 E8.94579
G1 X130.408 Y209.589 E8.95801
G1 X130.264 Y209.619 E8.96325
G1 X124.121 Y209.616 E9.18212
G1 X124.121 Y209.262 F4200
G1 F720
G1 X122.907 Y209.262 E9.22537
G1 X122.67 Y209.158 E9.23459
G1 X121.392 Y207.88 E9.29899
G1 X121.294 Y207.673 E9.30715
G1 X121.288 Y200.809 E9.55171
G1 X121.392 Y200.572 E9.56093
G1 X122.67 Y199.294 E9.62533
G1 X122.907 Y199.191 E9.63454
G1 X130.248 Y199.191 E9.8961
G1 X130.485 Y199.294 E9.90531
G1 X131.763 Y200.572 E9.96971
G1 X131.866 Y200.809 E9.97892
G1 X131.866 Y207.643 E10.22241
G1 X131.763 Y207.88 E10.23162
G1 X130.485 Y209.158 E10.29602
G1 X130.248 Y209.262 E10.30524
G1 X124.181 Y209.262 E10.5214
G1 X124.181 Y208.905 F4200
G1 F720
G1 X122.96 Y208.905 E10.5649
G1 X122.894 Y208.878 E10.56744
G1 X121.672 Y207.656 E10.62901
G1 X121.645 Y207.59 E10.63155
G1 X121.645 Y200.862 E10.87127
G1 X121.672 Y200.797 E10.87378
G1 X122.894 Y199.575 E10.93535
G1 X122.96 Y199.548 E10.93789
G1 X130.195 Y199.548 E11.19567
G1 X130.26 Y199.575 E11.19818
G1 X131.482 Y200.797 E11.25975
G1 X131.509 Y200.862 E11.26226
G1 X131.509 Y207.59 E11.50198
G1 X131.482 Y207.656 E11.50452
G1 X130.26 Y208.878 E11.56609
G1 X130.195 Y208.905 E11.5686
G1 X124.241 Y208.905 E11.78074
G1 E9.78074 F1800
G92 E0
G1 X120.546 Y207.673 F4200
G1 E2 F1800
G1 F720
G1 X120.448 Y207.88 E2.00816
G1 X119.17 Y209.158 E2.07256
G1 X118.933 Y209.262 E2.08178
G1 X111.592 Y209.262 E2.34334
G1 X111.355 Y209.158 E2.35256
G1 X110.077 Y207.88 E2.41696
G1 X109.974 Y207.643 E2.42617
G1 X109.974 Y200.809 E2.66966
G1 X110.077 Y200.572 E2.67887
G1 X111.355 Y199.294 E2.74327
G1 X111.592 Y199.191 E2.75248
G1 X118.933 Y199.191 E3.01404
G1 X119.17 Y199.294 E3.02325
G1 X120.448 Y200.572 E3.08765
G1 X120.552 Y200.809 E3.09687
G1 X120.552 Y207.614 E3.33933
G1 X120.195 Y207.59 F4200
G1 F720
G1 X120.168 Y207.656 E3.34187
G1 X118.946 Y208.878 E3.40344
G1 X118.88 Y208.905 E3.40598
G1 X111.645 Y208.905 E3.66376
G1 X111.58 Y208.878 E3.66627
G1 X110.358 Y207.656 E3.72784
G1 X110.331 Y207.59 E3.73038
G1 X110.331 Y200.862 E3.9701
G1 X110.358 Y200.797 E3.97261
G1 X111.58 Y199.575 E4.03418
G1 X111.645 Y199.548 E4.03669
G1 X118.88 Y199.548 E4.29447
G1 X118.946 Y199.575 E4.29701
G1 X120.168 Y200.797 E4.35858
G1 X120.195 Y200.862 E4.36109
G1 X120.195 Y207.53 E4.59867
G1 E2.59867 F1800
G92 E0
G1 X120.248 Y178.335 F4200
G1 E2 F1800
G1 F720
G1 X119.609 Y178.333 E2.02277
G1 X119.342 Y178.26 E2.03263
G1 X118.854 Y177.994 E2.05243
G1 X117.798 Y176.938 E2.10564
G1 X116.699 Y178.025 E2.16071
G1 X116.256 Y178.259 E2.17856
G1 X115.943 Y178.339 E2.19007
G1 X108.417 Y178.347 E2.45822
G1 X108.028 Y178.261 E2.47241
G1 X107.54 Y177.994 E2.49223
G1 X106.133 Y176.587 E2.56313
G1 X105.867 Y176.1 E2.5829
G1 X105.788 Y175.788 E2.59437
G1 X105.78 Y168.771 E2.84438
G1 X105.85 Y168.427 E2.85689
