; generated by CreatWare 7.0.0 on 2022-07-04 at 03:03:01 UTC

; 

; external perimeters extrusion width = 0.40mm
; perimeters extrusion width = 0.40mm
; infill extrusion width = 0.40mm
; solid infill extrusion width = 0.40mm
; top infill extrusion width = 0.40mm
; support material extrusion width = 0.40mm

G21 ; set units to millimeters
G90 ; use absolute coordinates
M82 ; use absolute distances for extrusion
G92 E0
M107
M190 S45 ; set bed temperature and wait for it to be reached
M104 S220 ; set temperature
;TYPE:Custom
M109 S220 ; set temperature and wait for it to be reached
M6013 S0 ; set chamber temp

G28 X0 Y0  ;move X/Y to min endstops
G28 Z0     ;move Z to min endstops

;Add Clear Nozzle
G92 E0                   ;zero the extruded length again
G0 F4200 X0 Y0
G0 F400 X10 Z0.4         ;move a bit while down the Z
M221 T0 S300             ;set flow is 300%
G1 F200 X30 E8          ;extrude amont filament to clean the hotend
M221 T0 S100             ;reset flow is 100%
G92 E0                   ;zero the extruded length again
;Add End

G0 Z15.0 F4200 ;move the platform down 15mm

;Put printing message on LCD screen
M117 Printing...
; Filament gcode
M107
;LAYER_CHANGE
;Layer 1
;Z:0.1
;HEIGHT:0.1
;BEFORE_LAYER_CHANGE
;0.1


G1 Z.1 F4200
;AFTER_LAYER_CHANGE
;G92 E0   ;zero the extruded length again
;0.1
G1 E-2 F1800
G92 E0
G1 X175.565 Y131.154 F4200
G1 E2 F1800
;TYPE:Skirt/Brim
;WIDTH:0.4
G1 F720
G1 X177.89 Y128.041 E2.07338
G1 X178.986 Y126.902 E2.10323
G1 X184.329 Y122.574 E2.23309
G1 X186.3 Y121.489 E2.27558
G1 X188.343 Y121.153 E2.31468
G1 X211.657 Y121.153 E2.75497
G1 X213.872 Y121.549 E2.79746
G1 X215.671 Y122.574 E2.83656
G1 X221.014 Y126.902 E2.96642
G1 X222.11 Y128.041 E2.99627
G1 X225.11 Y132.057 E3.09094
G1 X226.118 Y134.069 E3.13344
G1 X226.379 Y135.874 E3.16788
G1 X226.379 Y164.126 E3.70143
G1 X225.982 Y166.341 E3.74393
G1 X225.11 Y167.943 E3.77838
G1 X222.11 Y171.959 E3.87305
G1 X221.014 Y173.098 E3.9029
G1 X215.671 Y177.426 E4.03276
G1 X213.7 Y178.511 E4.07525
G1 X211.657 Y178.847 E4.11435
G1 X188.343 Y178.847 E4.55464
G1 X186.128 Y178.451 E4.59713
G1 X184.322 Y177.42 E4.6364
G1 X178.992 Y173.092 E4.76607
G1 X177.912 Y171.97 E4.79548
G1 X174.899 Y167.955 E4.89028
G1 X173.886 Y165.945 E4.93279
G1 X173.621 Y164.126 E4.96751
G1 X173.621 Y135.874 E5.50106
G1 X174.018 Y133.659 E5.54356
G1 X174.89 Y132.057 E5.57801
G1 X175.529 Y131.202 E5.59817
G1 E3.59817 F1800
G92 E0
G1 X180.692 Y135.601 F4200
G1 E2 F1800
G1 F720
G1 X182.093 Y134.204 E2.03736
G1 X182.325 Y134.045 E2.04267
G1 X182.872 Y133.848 E2.05365
G1 X183.299 Y133.825 E2.06173
G1 X183.326 Y132.784 E2.0814
G1 X183.458 Y132.436 E2.08843
G1 X183.745 Y132.021 E2.09796
G1 X184.137 Y131.708 E2.10743
G1 X186.302 Y130.812 E2.15168
G1 X186.33 Y130.333 E2.16074
G1 X186.467 Y129.949 E2.16844
G1 X186.663 Y129.636 E2.17541
G1 X188.091 Y128.202 E2.21363
G1 X188.767 Y127.867 E2.22788
G1 X189.023 Y127.828 E2.23277
G1 X211.018 Y127.831 E2.64816
G1 X211.393 Y127.921 E2.65544
G1 X211.909 Y128.202 E2.66654
G1 X213.337 Y129.636 E2.70476
G1 X213.533 Y129.949 E2.71173
G1 X213.67 Y130.333 E2.71943
G1 X213.698 Y130.812 E2.72849
G1 X215.863 Y131.708 E2.77274
G1 X216.214 Y131.977 E2.78109
G1 X216.54 Y132.434 E2.79169
G1 X216.674 Y132.784 E2.79877
G1 X216.701 Y133.825 E2.81844
G1 X217.119 Y133.846 E2.82634
G1 X217.57 Y133.994 E2.8353
G1 X217.861 Y134.167 E2.84169
G1 X219.329 Y135.622 E2.88072
G1 X219.664 Y136.299 E2.89499
G1 X219.703 Y136.554 E2.89986
G1 X219.703 Y163.475 E3.40827
G1 X219.487 Y164.141 E3.42149
G1 X219.308 Y164.399 E3.42742
G1 X217.907 Y165.796 E3.46478
G1 X217.675 Y165.955 E3.47009
G1 X217.128 Y166.152 E3.48107
G1 X216.701 Y166.175 E3.48915
G1 X216.674 Y167.216 E3.50882
G1 X216.542 Y167.564 E3.51585
G1 X216.255 Y167.979 E3.52538
G1 X215.863 Y168.292 E3.53485
G1 X213.698 Y169.188 E3.5791
G1 X213.67 Y169.667 E3.58816
G1 X213.533 Y170.051 E3.59586
G1 X213.337 Y170.364 E3.60283
G1 X211.909 Y171.798 E3.64105
G1 X211.233 Y172.133 E3.6553
G1 X210.977 Y172.172 E3.66019
G1 X188.994 Y172.172 E4.07535
G1 X188.328 Y171.956 E4.08857
G1 X188.07 Y171.777 E4.0945
G1 X186.673 Y170.376 E4.13186
G1 X186.514 Y170.144 E4.13717
G1 X186.317 Y169.598 E4.14813
G1 X186.296 Y169.175 E4.15613
G1 X184.15 Y168.289 E4.19998
G1 X183.798 Y168.021 E4.20834
G1 X183.472 Y167.565 E4.21893
G1 X183.338 Y167.216 E4.22599
G1 X183.308 Y166.175 E4.24566
G1 X182.88 Y166.154 E4.25375
G1 X182.43 Y166.006 E4.2627
G1 X182.139 Y165.833 E4.26909
G1 X180.671 Y164.378 E4.30812
G1 X180.336 Y163.701 E4.32239
G1 X180.297 Y163.446 E4.32726
G1 X180.297 Y136.525 E4.83567
G1 X180.513 Y135.859 E4.84889
G1 X180.658 Y135.651 E4.85368
G1 X180.962 Y135.87 F4200
G1 F720
G1 X182.328 Y134.501 E4.8902
G1 X182.48 Y134.391 E4.89374
G1 X182.967 Y134.216 E4.90351
G1 X183.675 Y134.203 E4.91688
G1 X183.693 Y132.881 E4.94185
G1 X183.787 Y132.625 E4.947
G1 X184.009 Y132.293 E4.95454
G1 X184.309 Y132.047 E4.96187
G1 X186.675 Y131.067 E5.01023
G1 X186.697 Y130.431 E5.02225
G1 X186.817 Y130.096 E5.02897
G1 X186.946 Y129.888 E5.03359
G1 X188.337 Y128.492 E5.07081
G1 X188.856 Y128.236 E5.08174
G1 X189.039 Y128.206 E5.08524
G1 X210.996 Y128.21 E5.49991
G1 X211.239 Y128.267 E5.50462
G1 X211.662 Y128.491 E5.51366
G1 X213.054 Y129.888 E5.5509
G1 X213.183 Y130.096 E5.55552
G1 X213.303 Y130.431 E5.56224
G1 X213.325 Y131.067 E5.57426
G1 X215.693 Y132.048 E5.62267
G1 X215.956 Y132.255 E5.62899
G1 X216.214 Y132.627 E5.63754
G1 X216.307 Y132.881 E5.64265
G1 X216.325 Y134.203 E5.66762
G1 X217.031 Y134.215 E5.68096
G1 X217.433 Y134.347 E5.68895
G1 X217.611 Y134.452 E5.69285
G1 X219.04 Y135.869 E5.73086
G1 X219.295 Y136.387 E5.74176
G1 X219.325 Y136.57 E5.74526
G1 X219.325 Y163.443 E6.25277
G1 X219.139 Y163.99 E6.26368
G1 X219.03 Y164.141 E6.2672
G1 X217.672 Y165.499 E6.30347
G1 X217.52 Y165.609 E6.30701
G1 X217.033 Y165.784 E6.31678
G1 X216.325 Y165.797 E6.33015
G1 X216.307 Y167.119 E6.35512
G1 X216.213 Y167.375 E6.36027
G1 X215.991 Y167.707 E6.36781
G1 X215.691 Y167.953 E6.37514
G1 X213.325 Y168.933 E6.4235
G1 X213.303 Y169.569 E6.43552
G1 X213.183 Y169.904 E6.44224
G1 X213.054 Y170.112 E6.44686
G1 X211.663 Y171.508 E6.48408
G1 X211.144 Y171.764 E6.49501
G1 X210.961 Y171.794 E6.49851
G1 X189.026 Y171.794 E6.91276
G1 X188.479 Y171.608 E6.92367
G1 X188.328 Y171.499 E6.92719
G1 X186.97 Y170.141 E6.96346
G1 X186.86 Y169.989 E6.967
G1 X186.685 Y169.501 E6.97679
G1 X186.672 Y168.921 E6.98775
G1 X184.319 Y167.949 E7.03583
G1 X184.056 Y167.743 E7.04214
G1 X183.798 Y167.371 E7.05069
G1 X183.704 Y167.117 E7.0558
G1 X183.682 Y165.797 E7.08073
G1 X182.969 Y165.785 E7.0942
G1 X182.567 Y165.653 E7.10219
G1 X182.389 Y165.548 E7.10609
G1 X180.96 Y164.131 E7.1441
G1 X180.705 Y163.613 E7.155
G1 X180.675 Y163.43 E7.1585
G1 X180.675 Y136.557 E7.66601
G1 X180.861 Y136.01 E7.67692
G1 X180.927 Y135.919 E7.67904
G1 X181.235 Y136.135 F4200
G1 F720
G1 X182.584 Y134.781 E7.71514
G1 X182.674 Y134.717 E7.71723
G1 X183.058 Y134.585 E7.7249
G1 X184.053 Y134.585 E7.74369
G1 X184.062 Y132.973 E7.77413
G1 X184.116 Y132.814 E7.7773
G1 X184.308 Y132.527 E7.78382
G1 X184.48 Y132.386 E7.78802
G1 X187.052 Y131.321 E7.84059
G1 X187.064 Y130.527 E7.85559
G1 X187.167 Y130.242 E7.86131
G1 X187.23 Y130.139 E7.86359
G1 X188.583 Y128.782 E7.89978
G1 X188.948 Y128.604 E7.90745
G1 X189.057 Y128.585 E7.90954
G1 X210.975 Y128.588 E8.32347
G1 X211.09 Y128.615 E8.3257
G1 X211.416 Y128.781 E8.33261
G1 X212.77 Y130.139 E8.36883
G1 X212.833 Y130.242 E8.37111
G1 X212.936 Y130.527 E8.37683
G1 X212.948 Y131.321 E8.39183
G1 X215.52 Y132.386 E8.4444
G1 X215.692 Y132.527 E8.4486
G1 X215.884 Y132.814 E8.45512
G1 X215.938 Y132.973 E8.45829
G1 X215.947 Y134.585 E8.48873
G1 X216.943 Y134.585 E8.50754
G1 X217.291 Y134.699 E8.51446
G1 X217.392 Y134.761 E8.5167
G1 X218.749 Y136.114 E8.55289
G1 X218.927 Y136.479 E8.56056
G1 X218.946 Y136.588 E8.56265
G1 X218.946 Y163.411 E9.06921
G1 X218.814 Y163.795 E9.07688
G1 X218.75 Y163.885 E9.07897
G1 X217.416 Y165.219 E9.1146
G1 X217.326 Y165.283 E9.11669
G1 X216.942 Y165.415 E9.12436
G1 X215.947 Y165.415 E9.14315
G1 X215.938 Y167.027 E9.17359
G1 X215.884 Y167.186 E9.17676
G1 X215.692 Y167.473 E9.18328
G1 X215.52 Y167.614 E9.18748
G1 X212.948 Y168.679 E9.24005
G1 X212.936 Y169.473 E9.25505
G1 X212.833 Y169.758 E9.26077
G1 X212.77 Y169.861 E9.26305
G1 X211.417 Y171.218 E9.29924
G1 X211.052 Y171.396 E9.30691
G1 X210.943 Y171.415 E9.309
G1 X189.058 Y171.415 E9.72231
G1 X188.674 Y171.283 E9.72998
G1 X188.584 Y171.219 E9.73207
G1 X187.25 Y169.885 E9.7677
G1 X187.186 Y169.795 E9.76979
G1 X187.054 Y169.411 E9.77746
G1 X187.054 Y168.669 E9.79147
G1 X184.491 Y167.611 E9.84384
G1 X184.319 Y167.47 E9.84804
G1 X184.127 Y167.184 E9.85455
G1 X184.072 Y167.025 E9.85773
G1 X184.06 Y165.415 E9.88814
G1 X183.057 Y165.415 E9.90708
G1 X182.709 Y165.301 E9.914
G1 X182.608 Y165.239 E9.91624
G1 X181.251 Y163.886 E9.95243
G1 X181.073 Y163.521 E9.9601
G1 X181.054 Y163.412 E9.96219
G1 X181.054 Y136.589 E10.46875
G1 X181.201 Y136.184 E10.47689
G1 X181.514 Y136.394 F4200
G1 F720
G1 X182.864 Y135.045 E10.51293
G1 X183.092 Y134.963 E10.51751
G1 X184.432 Y134.963 E10.54282
G1 X184.432 Y133.052 E10.57891
G1 X184.448 Y132.998 E10.57997
G1 X184.607 Y132.76 E10.58538
G1 X184.651 Y132.725 E10.58644
G1 X187.432 Y131.573 E10.64329
G1 X187.432 Y130.623 E10.66123
G1 X187.514 Y130.395 E10.66581
G1 X188.826 Y129.073 E10.70098
G1 X189.046 Y128.97 E10.70557
G1 X210.922 Y128.963 E11.11871
G1 X211.174 Y129.073 E11.1239
G1 X212.486 Y130.395 E11.15907
G1 X212.568 Y130.623 E11.16365
G1 X212.568 Y131.573 E11.18159
G1 X215.349 Y132.725 E11.23844
G1 X215.393 Y132.76 E11.2395
G1 X215.552 Y132.998 E11.24491
G1 X215.568 Y133.052 E11.24597
G1 X215.568 Y134.963 E11.28206
G1 X216.908 Y134.963 E11.30737
G1 X217.136 Y135.045 E11.31195
G1 X218.458 Y136.357 E11.34712
G1 X218.561 Y136.577 E11.35171
G1 X218.568 Y163.377 E11.85784
G1 X218.468 Y163.632 E11.86301
G1 X217.136 Y164.955 E11.89847
G1 X216.908 Y165.037 E11.90305
G1 X215.568 Y165.037 E11.92836
G1 X215.568 Y166.948 E11.96445
G1 X215.552 Y167.002 E11.96551
G1 X215.393 Y167.24 E11.97092
G1 X215.349 Y167.275 E11.97198
G1 X212.568 Y168.427 E12.02883
G1 X212.568 Y169.377 E12.04677
G1 X212.486 Y169.605 E12.05135
G1 X211.174 Y170.927 E12.08652
G1 X210.954 Y171.03 E12.09111
G1 X189.092 Y171.037 E12.50398
G1 X188.836 Y170.937 E12.50917
G1 X187.514 Y169.605 E12.54461
G1 X187.432 Y169.377 E12.54919
G1 X187.432 Y168.415 E12.56736
G1 X184.662 Y167.272 E12.62395
G1 X184.618 Y167.236 E12.62502
G1 X184.459 Y166.999 E12.63041
G1 X184.443 Y166.945 E12.63147
G1 X184.438 Y165.037 E12.6675
G1 X183.092 Y165.037 E12.69292
G1 X182.864 Y164.955 E12.6975
G1 X181.542 Y163.643 E12.73267
G1 X181.439 Y163.423 E12.73726
G1 X181.432 Y136.623 E13.24339
G1 X181.494 Y136.451 E13.24684
G1 X181.84 Y136.595 F4200
G1 F720
G1 X183.064 Y135.371 E13.27953
G1 X183.134 Y135.342 E13.28096
G1 X184.811 Y135.342 E13.31263
G1 X184.811 Y133.137 E13.35427
G1 X184.875 Y133.042 E13.35643
G1 X187.45 Y131.975 E13.40907
G1 X187.811 Y132.047 E13.41602
G1 X187.811 Y130.665 E13.44212
G1 X187.84 Y130.595 E13.44355
G1 X189.064 Y129.371 E13.47624
G1 X189.134 Y129.342 E13.47767
G1 X210.866 Y129.342 E13.88809
G1 X210.936 Y129.371 E13.88952
G1 X212.16 Y130.595 E13.92221
G1 X212.189 Y130.665 E13.92364
G1 X212.189 Y132.047 E13.94974
G1 X212.55 Y131.975 E13.95669
G1 X215.125 Y133.042 E14.00933
G1 X215.189 Y133.137 E14.01149
G1 X215.189 Y135.342 E14.05313
G1 X216.866 Y135.342 E14.0848
G1 X216.936 Y135.371 E14.08623
G1 X218.16 Y136.595 E14.11892
G1 X218.189 Y136.665 E14.12035
G1 X218.189 Y163.335 E14.62402
G1 X218.16 Y163.405 E14.62545
G1 X216.936 Y164.629 E14.65814
G1 X216.866 Y164.658 E14.65957
G1 X215.189 Y164.658 E14.69124
G1 X215.189 Y166.863 E14.73288
G1 X215.125 Y166.958 E14.73504
G1 X212.55 Y168.025 E14.78768
G1 X212.189 Y167.953 E14.79463
G1 X212.189 Y169.335 E14.82073
G1 X212.16 Y169.405 E14.82216
G1 X210.936 Y170.629 E14.85485
G1 X210.866 Y170.658 E14.85628
G1 X189.134 Y170.658 E15.2667
G1 X189.064 Y170.629 E15.26813
G1 X187.84 Y169.405 E15.30082
G1 X187.811 Y169.335 E15.30225
G1 X187.811 Y167.946 E15.32848
G1 X187.458 Y168.017 E15.33528
G1 X184.885 Y166.954 E15.38786
G1 X184.821 Y166.859 E15.39002
G1 X184.816 Y164.658 E15.43159
G1 X183.134 Y164.658 E15.46336
G1 X183.064 Y164.629 E15.46479
G1 X181.84 Y163.405 E15.49748
G1 X181.811 Y163.335 E15.49891
G1 X181.817 Y136.651 E16.00285
G1 E14.00285 F1800
G92 E0
G1 X214.92 Y137.845 F4200
G1 E2 F1800
;TYPE:Solid infill
;WIDTH:0.400573
G1 F288
G1 X215.516 Y138.441 E2.01594
G1 X215.516 Y138.977 E2.02608
G1 X214.554 Y138.015 E2.05181
G1 X214.018 Y138.015 E2.06195
G1 X215.516 Y139.513 E2.10202
G1 X215.516 Y140.049 E2.11216
G1 X213.312 Y137.845 E2.17111
G1 E.17111 F1800
G92 E0
G1 X212.686 Y136.147 F4200
G1 E2 F1800
G1 F288
G1 X212.377 Y135.838 E2.00827
G1 X212.109 Y136.106 E2.01544
G1 X212.516 Y136.513 E2.02633
G1 X212.516 Y137.049 E2.03647
G1 X211.841 Y136.374 E2.05453
G1 X211.573 Y136.642 E2.0617
G1 X212.516 Y137.585 E2.08692
G1 X212.516 Y138.015 E2.09505
G1 X212.946 Y138.015 E2.10318
G1 X215.516 Y140.585 E2.17192
G1 X215.516 Y141.121 E2.18206
G1 X211.305 Y136.91 E2.2947
G1 X211.037 Y137.178 E2.30187
G1 X215.516 Y141.658 E2.42169
G1 X215.516 Y142.194 E2.43183
G1 X210.769 Y137.447 E2.5588
G1 X210.501 Y137.715 E2.56597
G1 X215.516 Y142.73 E2.70011
G1 X215.516 Y143.266 E2.71025
G1 X210.233 Y137.983 E2.85156
G1 X209.965 Y138.251 E2.85873
G1 X215.686 Y143.973 E3.01177
G1 E1.01177 F1800
G92 E0
G1 X209.686 Y132.611 F4200
G1 E2 F1800
G1 F288
G1 X209.09 Y132.015 E2.01594
G1 X208.554 Y132.015 E2.02608
G1 X209.516 Y132.977 E2.05181
G1 X209.516 Y133.513 E2.06195
G1 X208.018 Y132.015 E2.10202
G1 X207.482 Y132.015 E2.11216
G1 X209.516 Y134.049 E2.16657
G1 X209.516 Y134.585 E2.17671
G1 X206.946 Y132.015 E2.24545
G1 X206.41 Y132.015 E2.25559
G1 X209.516 Y135.121 E2.33867
G1 X209.516 Y135.658 E2.34883
G1 X205.873 Y132.015 E2.44627
G1 X205.337 Y132.015 E2.45641
G1 X209.516 Y136.194 E2.56819
G1 X209.516 Y136.73 E2.57833
G1 X204.801 Y132.015 E2.70445
G1 X204.265 Y132.015 E2.71459
G1 X209.516 Y137.266 E2.85505
G1 X209.516 Y137.802 E2.86519
G1 X203.729 Y132.015 E3.01998
G1 X203.193 Y132.015 E3.03012
G1 X215.516 Y144.338 E3.35974
G1 X215.516 Y144.874 E3.36988
G1 X214.484 Y143.842 E3.39748
G1 X214.484 Y144.342 E3.40694
G1 X214.447 Y144.342 E3.40764
G1 X215.516 Y145.411 E3.43623
G1 X215.516 Y145.947 E3.44637
G1 X213.911 Y144.342 E3.4893
G1 X213.375 Y144.342 E3.49944
G1 X215.516 Y146.483 E3.55671
G1 X215.516 Y147.019 E3.56685
G1 X212.839 Y144.342 E3.63846
G1 X212.303 Y144.342 E3.6486
G1 X215.516 Y147.555 E3.73454
G1 X215.516 Y148.091 E3.74468
G1 X211.767 Y144.342 E3.84496
G1 X211.23 Y144.342 E3.85512
G1 X215.516 Y148.627 E3.96975
G1 X215.516 Y149.164 E3.97991
G1 X210.694 Y144.342 E4.10889
G1 X210.158 Y144.342 E4.11903
G1 X215.516 Y149.7 E4.26235
G1 X215.516 Y150.236 E4.27249
G1 X209.622 Y144.342 E4.43015
G1 X209.086 Y144.342 E4.44029
G1 X215.516 Y150.772 E4.61228
G1 X215.516 Y151.308 E4.62242
G1 X208.55 Y144.342 E4.80875
G1 X208.014 Y144.342 E4.81889
G1 X215.516 Y151.844 E5.01956
G1 X215.516 Y152.381 E5.02972
G1 X207.477 Y144.342 E5.24475
G1 X206.941 Y144.342 E5.25489
G1 X215.516 Y152.917 E5.48426
G1 X215.516 Y153.453 E5.4944
G1 X206.405 Y144.342 E5.73811
G1 X205.869 Y144.342 E5.74825
G1 X215.516 Y153.989 E6.00629
G1 X215.516 Y154.525 E6.01643
G1 X205.333 Y144.342 E6.28881
G1 X204.797 Y144.342 E6.29895
G1 X215.516 Y155.061 E6.58567
G1 X215.516 Y155.597 E6.59581
G1 X204.261 Y144.342 E6.89686
G1 X203.724 Y144.342 E6.90702
G1 X215.516 Y156.134 E7.22244
G1 X215.516 Y156.67 E7.23258
G1 X203.188 Y144.342 E7.56234
G1 X202.652 Y144.342 E7.57248
G1 X215.516 Y157.206 E7.91657
G1 X215.516 Y157.742 E7.92671
G1 X202.116 Y144.342 E8.28514
G1 X201.58 Y144.342 E8.29528
G1 X215.516 Y158.278 E8.66805
G1 X215.516 Y158.814 E8.67819
G1 X201.044 Y144.342 E9.06529
G1 X200.507 Y144.342 E9.07545
G1 X215.516 Y159.35 E9.4769
G1 X215.516 Y159.887 E9.48706
G1 X199.971 Y144.342 E9.90286
G1 X199.435 Y144.342 E9.913
G1 X215.516 Y160.423 E10.34314
G1 X215.516 Y160.959 E10.35328
G1 X214.484 Y159.927 E10.38088
