; generated by CreatWare 7.0.0 on 2022-06-29 at 04:01:22 UTC

; 

; external perimeters extrusion width = 0.40mm
; perimeters extrusion width = 0.40mm
; infill extrusion width = 0.40mm
; solid infill extrusion width = 0.40mm
; top infill extrusion width = 0.40mm

; external perimeters extrusion width = 0.40mm
; perimeters extrusion width = 0.40mm
; infill extrusion width = 0.40mm
; solid infill extrusion width = 0.40mm
; top infill extrusion width = 0.40mm

; external perimeters extrusion width = 0.40mm
; perimeters extrusion width = 0.40mm
; infill extrusion width = 0.40mm
; solid infill extrusion width = 0.40mm
; top infill extrusion width = 0.40mm

G21 ; set units to millimeters
G90 ; use absolute coordinates
M82 ; use absolute distances for extrusion
G92 E0
M107
M190 S45 ; set bed temperature and wait for it to be reached
M104 S210 ; set temperature
;TYPE:Custom
M109 S210 ; set temperature and wait for it to be reached
M6013 S0 ; set chamber temp

G28 X0 Y0  ;move X/Y to min endstops
G28 Z0     ;move Z to min endstops

;Add Clear Nozzle
G92 E0                   ;zero the extruded length again
G0 F4200 X0 Y0
G0 F400 X10 Z0.4         ;move a bit while down the Z
M221 T0 S300             ;set flow is 300%
G1 F200 X30 E8          ;extrude amont filament to clean the hotend
M221 T0 S100             ;reset flow is 100%
G92 E0                   ;zero the extruded length again
;Add End

G0 Z15.0 F4200 ;move the platform down 15mm

;Put printing message on LCD screen
M117 Printing...
; Filament gcode
M107
;LAYER_CHANGE
;Layer 1
;Z:0.2
;HEIGHT:0.2
;BEFORE_LAYER_CHANGE
;0.2


G1 Z.2 F4200
;AFTER_LAYER_CHANGE
;G92 E0   ;zero the extruded length again
;0.2
G1 E-2 F1800
G92 E0
G1 X193.938 Y141.96 F4200
G1 E2 F1800
;TYPE:Skirt/Brim
;WIDTH:0.4
G1 F720
G1 X194.873 Y140.911 E2.05007
G1 X196.307 Y139.677 E2.11748
G1 X197.376 Y138.973 E2.16309
G1 X198.625 Y138.329 E2.21316
G1 X200.409 Y137.698 E2.28058
G1 X201.483 Y137.462 E2.31976
G1 X202.753 Y137.306 E2.36535
G1 X209.269 Y137.177 E2.59756
G1 X216.275 Y137.652 E2.84775
G1 X218.125 Y138.043 E2.91512
G1 X219.894 Y138.713 E2.98252
G1 X221.023 Y139.316 E3.02812
G1 X221.94 Y139.922 E3.06728
G1 X223.377 Y141.152 E3.13467
G1 X224.788 Y142.837 E3.21298
G1 X225.373 Y143.768 E3.25216
G1 X225.95 Y144.911 E3.29778
G1 X226.446 Y146.226 E3.34785
G1 X226.723 Y147.29 E3.38702
G1 X226.928 Y148.553 E3.43261
G1 X227.002 Y149.65 E3.47178
G1 X226.85 Y151.842 E3.55007
G1 X226.626 Y152.919 E3.58926
G1 X226.249 Y154.142 E3.63486
G1 X225.829 Y155.158 E3.67403
G1 X225.157 Y156.392 E3.72409
G1 X224.428 Y157.445 E3.76972
G1 X223.51 Y158.509 E3.81979
G1 X222.707 Y159.26 E3.85896
G1 X221.695 Y160.044 E3.90457
G1 X220.499 Y160.782 E3.95464
G1 X219.507 Y161.256 E3.99381
G1 X218.306 Y161.698 E4.03941
G1 X217.243 Y161.979 E4.07859
G1 X215.062 Y162.248 E4.15689
G1 X202.941 Y161.964 E4.58887
G1 X201.669 Y161.827 E4.63445
G1 X200.592 Y161.607 E4.67362
G1 X199.252 Y161.182 E4.72371
G1 X198.08 Y160.668 E4.76931
G1 X196.86 Y159.969 E4.81941
G1 X195.592 Y159.017 E4.8759
G1 X194.579 Y158.042 E4.92599
G1 X193.758 Y157.06 E4.9716
G1 X192.975 Y155.893 E5.02167
G1 X192.26 Y154.477 E5.07819
G1 X191.653 Y152.685 E5.1456
G1 X191.327 Y150.82 E5.21306
G1 X191.291 Y148.881 E5.28216
G1 X191.55 Y147.009 E5.34949
G1 X192.075 Y145.24 E5.41524
G1 X192.88 Y143.529 E5.48261
G1 X193.904 Y142.009 E5.54791
G1 E3.54791 F1800
G92 E0
G1 X199.326 Y146.031 F4200
G1 E2 F1800
G1 F720
G1 X199.966 Y145.382 E2.03248
G1 X200.662 Y144.87 E2.06327
G1 X201.41 Y144.478 E2.09336
G1 X202.134 Y144.225 E2.12069
G1 X203.026 Y144.054 E2.15305
G1 X203.945 Y144.031 E2.1858
G1 X204.637 Y144.114 E2.21063
G1 X205.234 Y144.262 E2.23254
G1 X205.657 Y144.402 E2.24842
G1 X206.26 Y144.672 E2.27196
G1 X206.82 Y144.384 E2.2944
G1 X207.492 Y144.144 E2.31982
G1 X208.442 Y143.957 E2.35432
G1 X209.415 Y143.936 E2.389
G1 X210.076 Y144.021 E2.41275
G1 X210.65 Y144.165 E2.43384
G1 X211.042 Y144.293 E2.44853
G1 X211.655 Y144.57 E2.4725
G1 X212.164 Y144.883 E2.49379
G1 X212.45 Y144.739 E2.5052
G1 X213.078 Y144.515 E2.52896
G1 X214.084 Y144.319 E2.56548
G1 X214.893 Y144.296 E2.59432
G1 X215.701 Y144.391 E2.62331
G1 X216.563 Y144.629 E2.65517
G1 X217.305 Y144.961 E2.68413
G1 X218.036 Y145.431 E2.71509
G1 X218.71 Y146.034 E2.74731
G1 X219.185 Y146.604 E2.77375
G1 X219.591 Y147.251 E2.80097
G1 X219.938 Y148.038 E2.83162
G1 X220.188 Y149.042 E2.86848
G1 X220.254 Y149.825 E2.89648
G1 X220.185 Y150.773 E2.93035
G1 X219.992 Y151.588 E2.96019
G1 X219.595 Y152.538 E2.99687
G1 X219.201 Y153.169 E3.02338
G1 X218.741 Y153.73 E3.04923
G1 X218.07 Y154.339 E3.08152
G1 X217.332 Y154.82 E3.11291
G1 X216.382 Y155.231 E3.14979
G1 X215.685 Y155.408 E3.17541
G1 X214.994 Y155.495 E3.20022
G1 X214.016 Y155.469 E3.23508
G1 X213.074 Y155.28 E3.26931
G1 X212.411 Y155.04 E3.29443
G1 X211.851 Y154.753 E3.31685
G1 X211.514 Y154.539 E3.33107
G1 X210.812 Y154.853 E3.35847
G1 X210.034 Y155.05 E3.38706
G1 X209.282 Y155.133 E3.41402
G1 X208.409 Y155.102 E3.44514
G1 X207.491 Y154.92 E3.47848
G1 X206.822 Y154.68 E3.5038
G1 X206.448 Y154.486 E3.51881
G1 X205.417 Y154.942 E3.55898
G1 X204.664 Y155.139 E3.58671
G1 X203.952 Y155.227 E3.61227
G1 X203.126 Y155.214 E3.6417
G1 X202.024 Y155.003 E3.68168
G1 X201.406 Y154.778 E3.70511
G1 X200.839 Y154.489 E3.72778
G1 X200.458 Y154.255 E3.74371
G1 X199.985 Y153.894 E3.76491
G1 X199.273 Y153.162 E3.80129
G1 X198.727 Y152.357 E3.83595
G1 X198.438 Y151.753 E3.85981
G1 X198.209 Y151.077 E3.88524
G1 X198.04 Y150.099 E3.9206
G1 X198.048 Y149.049 E3.95801
G1 X198.149 Y148.429 E3.98039
G1 X198.325 Y147.818 E4.00304
G1 X198.489 Y147.383 E4.0196
G1 X198.733 Y146.89 E4.0392
G1 X199.292 Y146.08 E4.07427
G1 X199.584 Y146.282 F4200
G1 F720
G1 X200.21 Y145.643 E4.10614
G1 X200.861 Y145.166 E4.13489
G1 X201.563 Y144.801 E4.16308
G1 X202.215 Y144.573 E4.18769
G1 X203.051 Y144.411 E4.21803
G1 X203.916 Y144.387 E4.24886
G1 X204.583 Y144.467 E4.2728
G1 X205.14 Y144.607 E4.29326
G1 X205.52 Y144.732 E4.30751
G1 X206.014 Y144.953 E4.32679
G1 X206.237 Y145.086 E4.33604
G1 X206.953 Y144.716 E4.36476
G1 X207.574 Y144.491 E4.38829
G1 X208.495 Y144.311 E4.42173
G1 X209.384 Y144.292 E4.45341
G1 X210 Y144.37 E4.47553
G1 X210.557 Y144.509 E4.49598
G1 X210.921 Y144.629 E4.50964
G1 X211.496 Y144.89 E4.53214
G1 X212.148 Y145.293 E4.55945
G1 X212.581 Y145.071 E4.57679
G1 X213.185 Y144.856 E4.59963
G1 X214.136 Y144.673 E4.63414
G1 X214.889 Y144.654 E4.66098
G1 X215.62 Y144.739 E4.6872
G1 X216.455 Y144.969 E4.71806
G1 X217.124 Y145.269 E4.74418
G1 X217.809 Y145.707 E4.77315
G1 X218.445 Y146.274 E4.80351
G1 X218.889 Y146.805 E4.82817
G1 X219.281 Y147.429 E4.85443
G1 X219.604 Y148.167 E4.88313
G1 X219.838 Y149.114 E4.91789
G1 X219.897 Y149.813 E4.94288
G1 X219.83 Y150.733 E4.97575
G1 X219.657 Y151.465 E5.00255
G1 X219.284 Y152.362 E5.03716
G1 X218.905 Y152.97 E5.06269
G1 X218.474 Y153.492 E5.08681
G1 X217.863 Y154.048 E5.11624
G1 X217.175 Y154.499 E5.14555
G1 X216.279 Y154.888 E5.18035
G1 X215.608 Y155.059 E5.20502
G1 X214.988 Y155.137 E5.22728
G1 X214.071 Y155.116 E5.25996
G1 X213.158 Y154.932 E5.29314
G1 X212.564 Y154.717 E5.31565
G1 X212.022 Y154.439 E5.33735
G1 X211.543 Y154.134 E5.35758
G1 X210.708 Y154.511 E5.39022
G1 X209.982 Y154.697 E5.41692
G1 X209.281 Y154.776 E5.44205
G1 X208.464 Y154.749 E5.47118
G1 X207.575 Y154.572 E5.50348
G1 X206.955 Y154.349 E5.52696
G1 X206.414 Y154.064 E5.54875
G1 X206.187 Y154.212 E5.55841
G1 X205.287 Y154.61 E5.59347
G1 X204.586 Y154.79 E5.61926
G1 X203.944 Y154.87 E5.64231
G1 X203.177 Y154.86 E5.66964
G1 X202.106 Y154.655 E5.70849
G1 X201.539 Y154.446 E5.73002
G1 X201.008 Y154.175 E5.75126
G1 X200.652 Y153.956 E5.76615
G1 X200.232 Y153.635 E5.78498
G1 X199.54 Y152.925 E5.8203
G1 X199.043 Y152.19 E5.85191
G1 X198.772 Y151.629 E5.87411
G1 X198.552 Y150.976 E5.89866
G1 X198.394 Y150.055 E5.93195
G1 X198.403 Y149.093 E5.96623
G1 X198.5 Y148.497 E5.98774
G1 X198.666 Y147.924 E6.009
G1 X198.813 Y147.533 E6.02388
G1 X199.047 Y147.06 E6.04268
G1 X199.55 Y146.331 E6.07424
G1 X199.843 Y146.534 F4200
G1 F720
G1 X200.453 Y145.905 E6.10546
G1 X201.06 Y145.463 E6.13221
G1 X201.716 Y145.124 E6.15852
G1 X202.296 Y144.921 E6.18041
G1 X203.104 Y144.764 E6.20974
G1 X203.911 Y144.744 E6.2385
G1 X204.507 Y144.816 E6.25989
G1 X205.047 Y144.951 E6.27972
G1 X205.399 Y145.068 E6.29294
G1 X205.857 Y145.274 E6.31083
G1 X206.261 Y145.519 E6.32766
G1 X206.497 Y145.353 E6.33794
G1 X207.087 Y145.047 E6.36162
G1 X207.658 Y144.839 E6.38327
G1 X208.519 Y144.667 E6.41455
G1 X209.353 Y144.648 E6.44427
G1 X209.924 Y144.719 E6.46477
G1 X210.464 Y144.854 E6.4846
G1 X210.8 Y144.965 E6.49721
G1 X211.338 Y145.21 E6.51827
G1 X211.905 Y145.562 E6.54205
G1 X212.095 Y145.722 E6.5509
G1 X212.713 Y145.403 E6.57568
G1 X213.292 Y145.197 E6.59758
G1 X214.188 Y145.026 E6.63008
G1 X214.884 Y145.011 E6.65488
G1 X215.538 Y145.087 E6.67834
G1 X216.347 Y145.31 E6.70824
G1 X216.943 Y145.577 E6.73151
G1 X217.582 Y145.983 E6.75848
G1 X218.197 Y146.531 E6.78783
G1 X218.607 Y147.023 E6.81065
G1 X218.971 Y147.607 E6.83517
G1 X219.271 Y148.295 E6.86191
G1 X219.487 Y149.185 E6.89454
G1 X219.54 Y149.801 E6.91657
G1 X219.475 Y150.693 E6.94844
G1 X219.322 Y151.342 E6.9722
G1 X218.973 Y152.186 E7.00474
G1 X218.621 Y152.753 E7.02852
G1 X218.223 Y153.238 E7.05087
G1 X217.654 Y153.758 E7.07833
G1 X217.017 Y154.178 E7.10552
G1 X216.177 Y154.546 E7.13819
G1 X215.531 Y154.71 E7.16194
G1 X214.957 Y154.781 E7.18255
G1 X214.125 Y154.762 E7.2122
G1 X213.266 Y154.592 E7.2434
G1 X212.716 Y154.394 E7.26423
G1 X212.199 Y154.129 E7.28493
G1 X211.914 Y153.956 E7.29681
G1 X211.596 Y153.717 E7.31098
G1 X210.603 Y154.169 E7.34985
G1 X209.928 Y154.344 E7.3747
G1 X209.278 Y154.419 E7.39801
G1 X208.519 Y154.396 E7.42507
G1 X207.658 Y154.225 E7.45635
G1 X207.089 Y154.017 E7.47794
G1 X206.389 Y153.646 E7.50617
G1 X206.027 Y153.893 E7.52178
G1 X205.156 Y154.277 E7.5557
G1 X204.51 Y154.441 E7.57945
G1 X203.937 Y154.512 E7.60002
G1 X203.197 Y154.503 E7.62639
G1 X202.215 Y154.315 E7.66201
G1 X201.692 Y154.124 E7.68185
G1 X201.177 Y153.86 E7.70247
G1 X200.862 Y153.666 E7.71565
G1 X200.459 Y153.359 E7.7337
G1 X199.808 Y152.687 E7.76704
G1 X199.359 Y152.023 E7.7956
G1 X199.107 Y151.504 E7.81616
G1 X198.895 Y150.875 E7.83981
G1 X198.751 Y150.041 E7.86996
G1 X198.758 Y149.135 E7.90224
G1 X198.846 Y148.586 E7.92205
G1 X199.007 Y148.03 E7.94267
G1 X199.137 Y147.683 E7.95587
G1 X199.361 Y147.23 E7.97388
G1 X199.809 Y146.584 E8.00189
G1 X200.102 Y146.788 F4200
G1 F720
G1 X200.16 Y146.704 E8.00553
G1 X200.695 Y146.168 E8.03251
G1 X201.258 Y145.761 E8.05726
G1 X201.868 Y145.448 E8.08169
G1 X202.377 Y145.269 E8.10091
G1 X203.157 Y145.118 E8.12922
G1 X203.906 Y145.101 E8.15591
G1 X204.431 Y145.165 E8.17475
G1 X204.954 Y145.296 E8.19396
G1 X205.261 Y145.398 E8.20549
G1 X205.7 Y145.595 E8.22263
G1 X206.278 Y145.949 E8.24678
G1 X206.674 Y145.664 E8.26416
G1 X207.241 Y145.369 E8.28693
G1 X207.741 Y145.186 E8.3059
G1 X208.574 Y145.021 E8.33616
G1 X209.323 Y145.004 E8.36285
G1 X209.848 Y145.068 E8.38169
G1 X210.371 Y145.199 E8.4009
G1 X210.678 Y145.301 E8.41243
G1 X211.159 Y145.52 E8.43126
G1 X211.703 Y145.857 E8.45406
G1 X212.069 Y146.176 E8.47136
G1 X212.277 Y146.03 E8.48041
G1 X212.845 Y145.736 E8.5032
G1 X213.398 Y145.538 E8.52413
G1 X214.239 Y145.38 E8.55462
G1 X214.879 Y145.368 E8.57743
G1 X215.456 Y145.435 E8.59813
G1 X216.239 Y145.651 E8.62707
G1 X216.764 Y145.886 E8.64756
G1 X217.356 Y146.26 E8.67251
G1 X217.949 Y146.789 E8.70082
G1 X218.324 Y147.241 E8.72175
G1 X218.66 Y147.783 E8.74447
G1 X218.937 Y148.422 E8.76928
G1 X219.137 Y149.254 E8.79977
G1 X219.183 Y149.816 E8.81986
G1 X219.12 Y150.652 E8.84973
G1 X218.986 Y151.219 E8.87049
G1 X218.661 Y152.011 E8.90099
G1 X218.324 Y152.554 E8.92376
G1 X217.972 Y152.984 E8.94356
G1 X217.444 Y153.469 E8.9691
G1 X216.859 Y153.858 E8.99413
G1 X216.074 Y154.204 E9.0247
G1 X215.454 Y154.361 E9.04749
G1 X214.927 Y154.425 E9.0664
G1 X214.178 Y154.409 E9.09309
G1 X213.373 Y154.251 E9.12232
G1 X212.868 Y154.07 E9.14143
G1 X212.368 Y153.814 E9.16144
G1 X212.107 Y153.656 E9.17231
G1 X211.596 Y153.268 E9.19517
G1 X211.256 Y153.491 E9.20966
G1 X210.5 Y153.827 E9.23914
G1 X209.851 Y153.995 E9.26303
G1 X209.274 Y154.062 E9.28373
G1 X208.574 Y154.043 E9.30868
G1 X207.741 Y153.877 E9.33894
G1 X207.242 Y153.695 E9.35786
G1 X206.753 Y153.442 E9.37748
G1 X206.384 Y153.215 E9.39292
G1 X205.865 Y153.574 E9.4154
G1 X205.054 Y153.935 E9.44703
G1 X204.433 Y154.093 E9.46986
G1 X203.906 Y154.157 E9.48877
G1 X203.218 Y154.147 E9.51329
G1 X202.324 Y153.974 E9.54573
G1 X201.826 Y153.792 E9.56462
G1 X201.347 Y153.545 E9.58382
G1 X201.071 Y153.377 E9.59533
G1 X200.687 Y153.084 E9.61254
G1 X200.075 Y152.451 E9.64391
G1 X199.674 Y151.855 E9.6695
G1 X199.441 Y151.378 E9.68841
G1 X199.237 Y150.774 E9.71112
G1 X199.108 Y150.027 E9.73813
G1 X199.113 Y149.178 E9.76838
G1 X199.197 Y148.654 E9.78729
G1 X199.348 Y148.136 E9.80651
G1 X199.461 Y147.833 E9.81803
G1 X199.675 Y147.401 E9.83521
G1 X200.068 Y146.837 E9.8597
G1 X200.36 Y147.041 F4200
G1 F720
G1 X200.443 Y146.922 E9.86487
G1 X200.917 Y146.448 E9.88875
G1 X201.434 Y146.072 E9.91153
G1 X201.999 Y145.78 E9.93419
G1 X202.458 Y145.617 E9.95154
G1 X203.21 Y145.471 E9.97883
G1 X203.877 Y145.458 E10.0026
G1 X204.356 Y145.514 E10.01978
G1 X204.861 Y145.641 E10.03833
G1 X205.124 Y145.727 E10.04819
G1 X205.543 Y145.916 E10.06457
G1 X206.087 Y146.251 E10.08733
G1 X206.264 Y146.401 E10.0956
G1 X206.851 Y145.974 E10.12146
G1 X207.395 Y145.692 E10.14329
G1 X207.85 Y145.527 E10.16053
G1 X208.627 Y145.374 E10.18875
G1 X209.293 Y145.36 E10.21248
G1 X209.773 Y145.417 E10.2297
G1 X210.278 Y145.544 E10.24825
G1 X210.54 Y145.63 E10.25807
G1 X210.981 Y145.829 E10.27531
G1 X211.502 Y146.153 E10.29717
G1 X212.048 Y146.635 E10.32312
G1 X212.455 Y146.34 E10.34103
G1 X212.999 Y146.058 E10.36286
G1 X213.479 Y145.886 E10.38103
G1 X214.261 Y145.737 E10.40939
G1 X214.874 Y145.725 E10.43124
G1 X215.375 Y145.783 E10.44921
G1 X216.131 Y145.991 E10.47715
G1 X216.585 Y146.195 E10.49488
G1 X217.13 Y146.537 E10.5178
G1 X217.701 Y147.046 E10.54505
G1 X218.027 Y147.44 E10.56327
G1 X218.35 Y147.96 E10.58508
G1 X218.602 Y148.548 E10.60787
G1 X218.786 Y149.323 E10.63625
G1 X218.825 Y149.829 E10.65433
G1 X218.765 Y150.61 E10.68224
G1 X218.65 Y151.098 E10.7001
G1 X218.35 Y151.835 E10.72845
G1 X218.027 Y152.356 E10.75029
G1 X217.72 Y152.73 E10.76753
G1 X217.233 Y153.18 E10.79116
G1 X216.699 Y153.538 E10.81407
G1 X215.972 Y153.861 E10.84241
G1 X215.377 Y154.012 E10.86428
G1 X214.898 Y154.069 E10.88147
G1 X214.231 Y154.056 E10.90524
G1 X213.479 Y153.91 E10.93253
G1 X213.02 Y153.747 E10.94988
G1 X212.536 Y153.499 E10.96926
G1 X212.316 Y153.366 E10.97842
G1 X211.934 Y153.076 E10.99551
G1 X211.659 Y152.795 E11.00952
G1 X211.095 Y153.172 E11.03369
G1 X210.396 Y153.485 E11.06098
G1 X209.773 Y153.646 E11.08391
G1 X209.27 Y153.704 E11.10195
G1 X208.627 Y153.689 E11.12487
G1 X207.85 Y153.537 E11.15308
G1 X207.396 Y153.372 E11.17029
G1 X206.922 Y153.127 E11.1893
G1 X206.712 Y153 E11.19804
G1 X206.402 Y152.765 E11.2119
G1 X205.703 Y153.255 E11.24231
G1 X204.95 Y153.593 E11.27172
G1 X204.356 Y153.744 E11.29356
G1 X203.876 Y153.8 E11.31078
G1 X203.24 Y153.79 E11.33344
G1 X202.432 Y153.634 E11.36276
G1 X201.979 Y153.469 E11.37994
G1 X201.516 Y153.231 E11.39849
G1 X201.28 Y153.087 E11.40834
G1 X200.914 Y152.808 E11.42474
G1 X200.344 Y152.215 E11.45405
G1 X199.989 Y151.687 E11.47672
G1 X199.776 Y151.253 E11.49395
G1 X199.58 Y150.672 E11.5158
G1 X199.466 Y150.012 E11.53966
G1 X199.468 Y149.22 E11.56788
G1 X199.543 Y148.743 E11.58508
G1 X199.689 Y148.243 E11.60364
G1 X199.785 Y147.984 E11.61348
G1 X199.989 Y147.571 E11.62989
G1 X200.326 Y147.09 E11.65082
G1 E9.65082 F1800
G92 E0
G1 X212.895 Y149.488 F4200
G1 E2 F1800
;TYPE:External perimeter
G1 F270
G1 X212.978 Y149.225 E2.00983
G1 X213.094 Y148.991 E2.01914
G1 X213.26 Y148.752 E2.02951
G1 X213.45 Y148.554 E2.03929
G1 X213.669 Y148.387 E2.0491
G1 X213.911 Y148.256 E2.0589
G1 X214.171 Y148.163 E2.06874
G1 X214.441 Y148.11 E2.07854
G1 X214.716 Y148.1 E2.08834
G1 X214.975 Y148.13 E2.09763
