; generated by CreatWare 7.0.0 on 2022-07-05 at 18:57:18 UTC

; 

; external perimeters extrusion width = 0.40mm
; perimeters extrusion width = 0.40mm
; infill extrusion width = 0.40mm
; solid infill extrusion width = 0.40mm
; top infill extrusion width = 0.40mm
; support material extrusion width = 0.40mm

; external perimeters extrusion width = 0.40mm
; perimeters extrusion width = 0.40mm
; infill extrusion width = 0.40mm
; solid infill extrusion width = 0.40mm
; top infill extrusion width = 0.40mm
; support material extrusion width = 0.40mm

G21 ; set units to millimeters
G90 ; use absolute coordinates
M82 ; use absolute distances for extrusion
G92 E0
M107
M190 S45 ; set bed temperature and wait for it to be reached
M104 S210 T0 ; set temperature
M104 S210 T1 ; set temperature
;TYPE:Custom
M109 S210 T0 ; set temperature and wait for it to be reached
M109 S210 T1 ; set temperature and wait for it to be reached
M6013 S0 ; set chamber temp

G28 X0 Y0  ;move X/Y to min endstops
G28 Z0     ;move Z to min endstops

;Add Clear Nozzle
G92 E0                   ;zero the extruded length again
G0 F4200 X0 Y0
G0 F400 X10 Z0.4         ;move a bit while down the Z
M221 T0 S300             ;set flow is 300%
G1 F200 X30 E8          ;extrude amont filament to clean the hotend
M221 T0 S100             ;reset flow is 100%
G92 E0                   ;zero the extruded length again
;Add End

G0 Z15.0 F4200 ;move the platform down 15mm

;Put printing message on LCD screen
M117 Printing...
T1
G92 E0
; Filament gcode
M107
;LAYER_CHANGE
;Layer 1
;Z:0.1
;HEIGHT:0.1
;BEFORE_LAYER_CHANGE
;0.1


G1 Z.1 F4200
;AFTER_LAYER_CHANGE
;G92 E0   ;zero the extruded length again
;0.1
G1 E-2 F1800
G92 E0
G1 X103.599 Y61.282 F4200
G1 E2 F1800
;TYPE:Skirt/Brim
;WIDTH:0.4
G1 F720
G1 X105.07 Y58.987 E2.05148
G1 X107.413 Y56.644 E2.11406
G1 X109.26 Y55.358 E2.15656
G1 X111.923 Y54.776 E2.20804
G1 X127.564 Y54.776 E2.50343
G1 X129.779 Y55.172 E2.54592
G1 X132.074 Y56.644 E2.59741
G1 X134.418 Y58.987 E2.66
G1 X135.703 Y60.834 E2.70249
G1 X136.199 Y62.449 E2.7344
G1 X156.386 Y183.572 E5.05341
G1 X156.472 Y184.621 E5.07329
G1 X156.472 Y193.646 E5.24373
G1 X156.382 Y194.718 E5.26405
G1 X153.965 Y208.901 E5.53576
G1 X152.733 Y211.719 E5.59384
G1 X152.543 Y211.965 E5.59971
G1 X150.878 Y213.479 E5.64221
G1 X147.921 Y214.44 E5.70093
G1 X141.416 Y214.868 E5.82405
G1 X134.302 Y214.868 E5.9584
G1 X127.732 Y214.44 E6.08274
G1 X125.549 Y213.896 E6.12523
G1 X123.65 Y212.586 E6.1688
G1 X122.253 Y210.629 E6.21421
G1 X121.759 Y209.027 E6.24587
G1 X119.322 Y194.574 E6.52267
G1 X103.623 Y87.769 E8.5614
G1 X103.204 Y72.971 E8.84098
G1 X103.202 Y63.497 E9.0199
G1 X103.588 Y61.341 E9.06126
G1 E7.06126 F1800
G92 E0
G1 X110.043 Y63.584 F4200
G1 E2 F1800
G1 F720
G1 X110.27 Y63.227 E2.00799
G1 X111.652 Y61.845 E2.0449
G1 X111.861 Y61.692 E2.04979
G1 X112.575 Y61.451 E2.06402
G1 X126.926 Y61.454 E2.33504
G1 X127.3 Y61.544 E2.3423
G1 X127.815 Y61.825 E2.35338
G1 X129.218 Y63.227 E2.39084
G1 X129.444 Y63.583 E2.3988
G1 X129.611 Y64.149 E2.40994
G1 X129.592 Y72.276 E2.56342
G1 X129.444 Y72.727 E2.57238
G1 X129.218 Y73.081 E2.58031
G1 X127.835 Y74.463 E2.61723
G1 X127.627 Y74.617 E2.62212
G1 X126.912 Y74.857 E2.63636
G1 X112.575 Y74.857 E2.90712
G1 X112.009 Y74.691 E2.91826
G1 X111.684 Y74.489 E2.92549
G1 X110.271 Y73.082 E2.96315
G1 X110.118 Y72.874 E2.96803
G1 X109.877 Y72.159 E2.98228
G1 X109.885 Y64.094 E3.13459
G1 X110.025 Y63.642 E3.14353
G1 X110.387 Y63.753 F4200
G1 F720
G1 X110.551 Y63.481 E3.14953
G1 X111.909 Y62.124 E3.18579
G1 X112.059 Y62.015 E3.18929
G1 X112.606 Y61.829 E3.2002
G1 X126.904 Y61.833 E3.47022
G1 X127.146 Y61.89 E3.47492
G1 X127.569 Y62.113 E3.48395
G1 X128.936 Y63.481 E3.52047
G1 X129.091 Y63.721 E3.52587
G1 X129.232 Y64.179 E3.53492
G1 X129.223 Y72.187 E3.68615
G1 X129.092 Y72.585 E3.69406
G1 X128.936 Y72.827 E3.6995
G1 X127.579 Y74.184 E3.73574
G1 X127.429 Y74.293 E3.73924
G1 X126.881 Y74.479 E3.75017
G1 X112.605 Y74.479 E4.01978
G1 X112.148 Y74.338 E4.02881
G1 X111.907 Y74.183 E4.03422
G1 X110.55 Y72.826 E4.07046
G1 X110.441 Y72.675 E4.07398
G1 X110.255 Y72.128 E4.08489
G1 X110.255 Y64.179 E4.23501
G1 X110.369 Y63.811 E4.24229
G1 X110.727 Y63.928 F4200
G1 F720
G1 X110.832 Y63.735 E4.24644
G1 X112.164 Y62.404 E4.282
G1 X112.254 Y62.34 E4.28409
G1 X112.638 Y62.208 E4.29176
G1 X126.882 Y62.211 E4.56076
G1 X126.997 Y62.238 E4.56299
G1 X127.324 Y62.404 E4.56992
G1 X128.655 Y63.735 E4.60547
G1 X128.74 Y63.865 E4.6084
G1 X128.854 Y64.211 E4.61528
G1 X128.854 Y72.097 E4.76421
G1 X128.74 Y72.443 E4.77109
G1 X128.655 Y72.573 E4.77402
G1 X127.324 Y73.904 E4.80957
G1 X127.233 Y73.968 E4.81167
G1 X126.849 Y74.1 E4.81934
G1 X112.637 Y74.1 E5.08774
G1 X112.291 Y73.987 E5.09461
G1 X112.162 Y73.902 E5.09753
G1 X110.83 Y72.57 E5.13311
G1 X110.766 Y72.48 E5.1352
G1 X110.634 Y72.096 E5.14287
G1 X110.634 Y64.211 E5.29178
G1 X110.708 Y63.985 E5.29627
G1 X111.061 Y64.112 F4200
G1 F720
G1 X111.112 Y63.991 E5.29875
G1 X112.417 Y62.686 E5.3336
G1 X112.672 Y62.586 E5.33877
G1 X126.862 Y62.593 E5.60675
G1 X127.081 Y62.696 E5.61132
G1 X128.375 Y63.991 E5.64589
G1 X128.475 Y64.246 E5.65106
G1 X128.475 Y72.062 E5.79867
G1 X128.393 Y72.29 E5.80325
G1 X127.071 Y73.622 E5.83869
G1 X126.815 Y73.722 E5.84388
G1 X112.672 Y73.722 E6.11098
G1 X112.444 Y73.64 E6.11556
G1 X111.112 Y72.318 E6.151
G1 X111.012 Y72.062 E6.15619
G1 X111.012 Y64.246 E6.3038
G1 X111.04 Y64.168 E6.30537
G1 X111.391 Y64.288 F4200
G1 F720
G1 X111.42 Y64.218 E6.3068
G1 X112.645 Y62.994 E6.3395
G1 X112.714 Y62.965 E6.34091
G1 X126.773 Y62.965 E6.60642
G1 X126.843 Y62.994 E6.60785
G1 X128.068 Y64.218 E6.64055
G1 X128.097 Y64.288 E6.64198
G1 X128.097 Y72.02 E6.788
G1 X128.068 Y72.09 E6.78943
G1 X126.843 Y73.315 E6.82215
G1 X126.773 Y73.343 E6.82357
G1 X112.714 Y73.343 E7.08908
G1 X112.645 Y73.315 E7.09049
G1 X111.42 Y72.09 E7.12321
G1 X111.391 Y72.02 E7.12464
G1 X111.391 Y64.348 E7.26953
G1 E5.26953 F1800
G92 E0
G1 X128.628 Y182.574 F4200
G1 E2 F1800
G1 F720
G1 X147.112 Y182.578 E2.34908
G1 X147.487 Y182.667 E2.35636
G1 X148.002 Y182.948 E2.36744
G1 X149.405 Y184.351 E2.40491
G1 X149.626 Y184.693 E2.4126
G1 X149.764 Y185.078 E2.42032
G1 X149.789 Y193.051 E2.57089
G1 X149.704 Y193.382 E2.57734
G1 X149.423 Y193.898 E2.58844
G1 X148.002 Y195.319 E2.62639
G1 X147.484 Y195.601 E2.63753
G1 X147.072 Y195.693 E2.6455
G1 X143.463 Y195.693 E2.71366
G1 X143.463 Y205.496 E2.89879
G1 X143.271 Y206.112 E2.91098
G1 X143.09 Y206.392 E2.91728
G1 X141.686 Y207.8 E2.95483
G1 X141.345 Y208.02 E2.96249
G1 X140.897 Y208.17 E2.97141
G1 X134.955 Y208.193 E3.08363
G1 X134.292 Y207.979 E3.09679
G1 X134.031 Y207.799 E3.10278
G1 X132.649 Y206.416 E3.1397
G1 X132.422 Y206.059 E3.14769
G1 X132.264 Y205.549 E3.15777
G1 X132.256 Y195.693 E3.3439
G1 X128.657 Y195.693 E3.41187
G1 X128.296 Y195.62 E3.41883
G1 X127.725 Y195.32 E3.43101
G1 X126.303 Y193.898 E3.46899
G1 X126.003 Y193.33 E3.48112
G1 X125.929 Y192.968 E3.4881
G1 X125.929 Y185.272 E3.63344
G1 X126.143 Y184.61 E3.64658
G1 X126.323 Y184.349 E3.65257
G1 X127.706 Y182.967 E3.68949
G1 X128.062 Y182.741 E3.69745
G1 X128.57 Y182.591 E3.70745
G1 X128.657 Y182.952 F4200
G1 F720
G1 X147.09 Y182.956 E4.05557
G1 X147.332 Y183.013 E4.06027
G1 X147.755 Y183.237 E4.06931
G1 X149.123 Y184.605 E4.10585
G1 X149.277 Y184.842 E4.11119
G1 X149.396 Y185.175 E4.11787
G1 X149.41 Y193.027 E4.26616
G1 X149.359 Y193.226 E4.27004
G1 X149.134 Y193.651 E4.27912
G1 X147.755 Y195.03 E4.31595
G1 X147.332 Y195.254 E4.32499
G1 X147.053 Y195.314 E4.33038
G1 X143.084 Y195.314 E4.40534
G1 X143.084 Y205.464 E4.59703
G1 X142.921 Y205.967 E4.60702
G1 X142.788 Y206.163 E4.61149
G1 X141.432 Y207.519 E4.64771
G1 X141.195 Y207.672 E4.65304
G1 X140.861 Y207.792 E4.65974
G1 X134.984 Y207.814 E4.77073
G1 X134.482 Y207.651 E4.7807
G1 X134.286 Y207.518 E4.78517
G1 X132.93 Y206.162 E4.82139
G1 X132.776 Y205.922 E4.82678
G1 X132.634 Y205.465 E4.83582
G1 X132.634 Y195.314 E5.02753
G1 X128.674 Y195.314 E5.10232
G1 X128.442 Y195.27 E5.10678
G1 X127.971 Y195.03 E5.11676
G1 X126.593 Y193.652 E5.15356
G1 X126.353 Y193.184 E5.16349
G1 X126.307 Y192.95 E5.16799
G1 X126.307 Y185.302 E5.31243
G1 X126.471 Y184.8 E5.3224
G1 X126.604 Y184.604 E5.32687
G1 X127.959 Y183.248 E5.36307
G1 X128.2 Y183.094 E5.36847
G1 X128.6 Y182.97 E5.37638
G1 X128.689 Y183.331 F4200
G1 F720
G1 X147.068 Y183.335 E5.72348
G1 X147.183 Y183.362 E5.72571
G1 X147.51 Y183.527 E5.73263
G1 X148.842 Y184.859 E5.76821
G1 X148.928 Y184.991 E5.77119
G1 X149.029 Y185.272 E5.77683
G1 X149.037 Y192.964 E5.9221
G1 X149.009 Y193.079 E5.92434
G1 X148.844 Y193.406 E5.93126
G1 X147.51 Y194.74 E5.96689
G1 X147.186 Y194.904 E5.97375
G1 X147.034 Y194.936 E5.97668
G1 X142.706 Y194.936 E6.05842
G1 X142.706 Y205.431 E6.25662
G1 X142.573 Y205.816 E6.26431
G1 X142.51 Y205.906 E6.26638
G1 X141.178 Y207.237 E6.30194
G1 X141.046 Y207.324 E6.30493
G1 X140.764 Y207.425 E6.31059
G1 X135.017 Y207.436 E6.41912
G1 X134.633 Y207.303 E6.42679
G1 X134.543 Y207.24 E6.42886
G1 X133.211 Y205.908 E6.46444
G1 X133.127 Y205.778 E6.46736
G1 X133.013 Y205.433 E6.47422
G1 X133.013 Y194.936 E6.67246
G1 X128.689 Y194.936 E6.75412
G1 X128.58 Y194.917 E6.75621
G1 X128.215 Y194.739 E6.76388
G1 X126.882 Y193.406 E6.79948
G1 X126.718 Y193.081 E6.80635
G1 X126.686 Y192.929 E6.80928
G1 X126.686 Y185.335 E6.9527
G1 X126.819 Y184.951 E6.96037
G1 X126.882 Y184.861 E6.96244
G1 X128.214 Y183.529 E6.99802
G1 X128.343 Y183.445 E7.00093
G1 X128.632 Y183.35 E7.00668
G1 X128.724 Y183.71 F4200
G1 F720
G1 X147.016 Y183.71 E7.35213
G1 X147.267 Y183.82 E7.35731
G1 X148.58 Y185.141 E7.39248
G1 X148.662 Y185.369 E7.39706
G1 X148.662 Y192.912 E7.53951
G1 X148.552 Y193.163 E7.54469
G1 X147.267 Y194.447 E7.579
G1 X147.048 Y194.551 E7.58358
G1 X142.327 Y194.557 E7.67274
G1 X142.327 Y205.397 E7.87746
G1 X142.227 Y205.653 E7.88265
G1 X140.896 Y206.975 E7.91808
G1 X140.667 Y207.057 E7.92267
G1 X135.051 Y207.057 E8.02873
G1 X134.796 Y206.957 E8.0339
G1 X133.473 Y205.626 E8.06934
G1 X133.392 Y205.397 E8.07393
G1 X133.392 Y194.557 E8.27865
G1 X128.678 Y194.551 E8.36768
G1 X128.459 Y194.447 E8.37226
G1 X127.174 Y193.163 E8.40657
G1 X127.071 Y192.944 E8.41114
G1 X127.065 Y185.369 E8.5542
G1 X127.164 Y185.114 E8.55937
G1 X128.469 Y183.809 E8.59422
G1 X128.668 Y183.73 E8.59826
G1 X128.766 Y184.088 F4200
G1 F720
G1 X146.96 Y184.088 E8.94186
G1 X147.029 Y184.117 E8.94327
G1 X148.254 Y185.342 E8.97599
G1 X148.283 Y185.411 E8.9774
G1 X148.283 Y192.855 E9.11798
G1 X148.254 Y192.925 E9.11941
G1 X147.029 Y194.15 E9.15213
G1 X146.96 Y194.179 E9.15354
G1 X141.949 Y194.179 E9.24817
G1 X141.949 Y205.355 E9.45923
G1 X141.92 Y205.425 E9.46066
G1 X140.695 Y206.65 E9.49338
G1 X140.625 Y206.679 E9.49481
G1 X135.093 Y206.679 E9.59928
G1 X135.024 Y206.65 E9.60069
G1 X133.799 Y205.425 E9.63341
G1 X133.77 Y205.355 E9.63484
G1 X133.77 Y194.179 E9.8459
G1 X128.766 Y194.179 E9.9404
G1 X128.697 Y194.15 E9.94181
G1 X127.472 Y192.925 E9.97453
G1 X127.443 Y192.855 E9.97596
G1 X127.443 Y185.411 E10.11654
G1 X127.472 Y185.342 E10.11795
G1 X128.711 Y184.111 E10.15093
G1 E8.15093 F1800
G92 E0
G1 X131.759 Y204.501 F4200
G1 E2 F1800
;TYPE:Support material
G1 F720
G1 X131.867 Y205.443 E2.01791
G1 X132.675 Y207.115 E2.05298
G1 X133.644 Y207.887 E2.07638
G1 X128.238 Y207.887 E2.17847
G1 X128.238 Y197.273 E2.37892
G1 X131.759 Y197.273 E2.44542
G1 X131.759 Y204.444 E2.58085
G1 X132.185 Y207.716 F4200
G1 F720
G1 X132.185 Y206.885 E2.59654
G1 X131.535 Y205.54 E2.62475
G1 X131.419 Y204.52 E2.64414
G1 X131.419 Y197.613 E2.77458
G1 X130.292 Y197.613 E2.79586
G1 X130.292 Y207.716 E2.98666
G1 E.98666 F1800
G92 E0
G1 X147.488 Y207.887 F4200
G1 E2 F1800
G1 F720
G1 X142.152 Y207.887 E2.10077
G1 X142.385 Y207.774 E2.10566
G1 X143.549 Y206.311 E2.14097
G1 X143.959 Y204.512 E2.17582
G1 X143.959 Y197.273 E2.31253
G1 X147.488 Y197.273 E2.37918
G1 X147.488 Y207.83 E2.57855
G1 X145.434 Y207.716 F4200
G1 F720
G1 X145.434 Y197.613 E2.76935
G1 X144.3 Y197.613 E2.79077
G1 X144.3 Y204.55 E2.92178
G1 X143.864 Y206.463 E2.95883
G1 X143.541 Y206.869 E2.96863
G1 X143.541 Y207.716 E2.98463
G1 E.98463 F1800
G92 E0
G1 X144.986 Y186.61 F4200
G1 E2 F1800
;TYPE:Solid infill
;WIDTH:0.404602
G1 F432
G1 X145.591 Y187.214 E2.01634
G1 X145.591 Y187.756 E2.0267
G1 X144.615 Y186.78 E2.05308
G1 X144.073 Y186.78 E2.06344
G1 X145.591 Y188.298 E2.10448
G1 X145.591 Y188.84 E2.11484
G1 X143.531 Y186.78 E2.17053
G1 X142.989 Y186.78 E2.18089
G1 X145.591 Y189.382 E2.25123
G1 X145.591 Y189.924 E2.26159
G1 X142.447 Y186.78 E2.34658
G1 X141.906 Y186.78 E2.35692
G1 X145.591 Y190.466 E2.45655
G1 X145.591 Y191.007 E2.46689
G1 X141.364 Y186.78 E2.58116
G1 X140.822 Y186.78 E2.59152
G1 X145.528 Y191.487 E2.71875
G1 X144.986 Y191.487 E2.72911
G1 X142.716 Y189.216 E2.79049
G1 X142.727 Y189.133 E2.79209
G1 X142.693 Y188.873 E2.7971
G1 X142.592 Y188.63 E2.80213
G1 X142.432 Y188.421 E2.80716
G1 X142.223 Y188.261 E2.81219
G1 X141.979 Y188.16 E2.81724
G1 X141.715 Y188.127 E2.82233
G1 X141.637 Y188.137 E2.82383
G1 X140.28 Y186.78 E2.86051
G1 X139.738 Y186.78 E2.87087
G1 X141.218 Y188.26 E2.91088
G1 X141.006 Y188.422 E2.91598
G1 X140.934 Y188.518 E2.91827
G1 X139.196 Y186.78 E2.96525
G1 X138.655 Y186.78 E2.97559
G1 X140.899 Y189.024 E3.03625
G1 E1.03625 F1800
G92 E0
G1 X142.463 Y189.504 F4200
G1 E2 F1800
G1 F432
G1 X144.445 Y191.487 E2.05359
G1 X143.903 Y191.487 E2.06395
G1 X142.336 Y189.919 E2.10632
G1 X142.223 Y190.006 E2.10905
G1 X141.981 Y190.106 E2.11406
G1 X143.361 Y191.487 E2.15138
G1 X142.819 Y191.487 E2.16174
G1 X138.113 Y186.78 E2.28897
G1 X137.571 Y186.78 E2.29933
G1 X142.277 Y191.487 E2.42656
G1 X141.735 Y191.487 E2.43692
G1 X137.029 Y186.78 E2.56415
G1 X136.487 Y186.78 E2.57451
G1 X141.194 Y191.487 E2.70175
G1 X140.652 Y191.487 E2.71211
G1 X135.945 Y186.78 E2.83935
G1 X135.403 Y186.78 E2.84971
G1 X140.11 Y191.487 E2.97695
G1 X139.568 Y191.487 E2.98731
G1 X134.862 Y186.78 E3.11454
G1 X134.32 Y186.78 E3.1249
G1 X139.257 Y191.717 E3.25836
G1 X139.257 Y192.259 E3.26872
G1 X133.778 Y186.78 E3.41683
G1 X133.236 Y186.78 E3.42719
G1 X139.257 Y192.801 E3.58995
G1 X139.257 Y193.342 E3.60029
G1 X135.008 Y189.094 E3.71514
G1 X134.979 Y188.873 E3.7194
G1 X134.879 Y188.63 E3.72442
G1 X134.719 Y188.421 E3.72945
G1 X134.51 Y188.261 E3.73448
G1 X134.266 Y188.16 E3.73953
G1 X134.047 Y188.132 E3.74375
G1 X132.694 Y186.78 E3.78031
G1 X132.152 Y186.78 E3.79067
G1 X133.595 Y188.223 E3.82968
G1 X133.503 Y188.261 E3.83158
G1 X133.276 Y188.445 E3.83717
G1 X131.611 Y186.78 E3.88218
G1 X131.069 Y186.78 E3.89254
G1 X133.201 Y188.913 E3.95019
G1 E1.95019 F1800
G92 E0
G1 X134.786 Y189.414 F4200
G1 E2 F1800
G1 F432
G1 X139.257 Y193.884 E2.12085
G1 X139.257 Y194.426 E2.13121
G1 X134.694 Y189.864 E2.25455
G1 X134.51 Y190.006 E2.25899
G1 X134.357 Y190.069 E2.26215
G1 X135.775 Y191.487 E2.30048
G1 X135.233 Y191.487 E2.31084
G1 X133.869 Y190.122 E2.34773
G1 X133.746 Y190.106 E2.3501
G1 X133.507 Y190.007 E2.35504
G1 X133.295 Y189.847 E2.36012
G1 X133.134 Y189.637 E2.36518
G1 X133.035 Y189.399 E2.37011
G1 X133.018 Y189.271 E2.37258
G1 X130.527 Y186.78 E2.43992
G1 X130.135 Y186.78 E2.44741
G1 X130.135 Y186.93 E2.45028
G1 X134.691 Y191.487 E2.57345
G1 X134.15 Y191.487 E2.58379
G1 X130.135 Y187.472 E2.69233
G1 X130.135 Y188.014 E2.70269
G1 X133.608 Y191.487 E2.79657
G1 X133.066 Y191.487 E2.80693
G1 X130.135 Y188.556 E2.88616
G1 X130.135 Y189.098 E2.89652
G1 X132.524 Y191.487 E2.9611
G1 X131.982 Y191.487 E2.97146
G1 X130.135 Y189.64 E3.02139
G1 X130.135 Y190.181 E3.03173
G1 X131.44 Y191.487 E3.06702
G1 X130.898 Y191.487 E3.07738
G1 X130.135 Y190.723 E3.09802
G1 X130.135 Y191.265 E3.10838
G1 X130.527 Y191.657 E3.11898
G1 E1.11898 F1800
G92 E0
G1 X136.292 Y192.003 F4200
G1 E2 F1800
G1 F432
G1 X139.257 Y194.968 E2.08015
G1 X139.257 Y195.51 E2.09051
G1 X136.462 Y192.715 E2.16607
G1 X136.462 Y193.257 E2.17643
G1 X139.257 Y196.052 E2.25199
G1 X139.257 Y196.594 E2.26235
G1 X136.462 Y193.799 E2.33791
G1 X136.462 Y194.341 E2.34827
G1 X139.257 Y197.135 E2.42381
G1 X139.257 Y197.677 E2.43417
G1 X136.462 Y194.883 E2.50971
G1 X136.462 Y195.425 E2.52007
G1 X139.257 Y198.219 E2.59561
