; generated by CreatWare 7.0.0 on 2022-07-14 at 20:20:31 UTC

; 

; external perimeters extrusion width = 0.40mm
; perimeters extrusion width = 0.40mm
; infill extrusion width = 0.40mm
; solid infill extrusion width = 0.40mm
; top infill extrusion width = 0.40mm
; support material extrusion width = 0.40mm

G21 ; set units to millimeters
G90 ; use absolute coordinates
M82 ; use absolute distances for extrusion
G92 E0
M107
M190 S45 ; set bed temperature and wait for it to be reached
M104 S215 T0 ; set temperature
M104 S250 T1 ; set temperature
;TYPE:Custom
M109 S215 T0 ; set temperature and wait for it to be reached
M109 S250 T1 ; set temperature and wait for it to be reached
M6013 S0 ; set chamber temp

G28 X0 Y0  ;move X/Y to min endstops
G28 Z0     ;move Z to min endstops

;Add Clear Nozzle
G92 E0                   ;zero the extruded length again
G0 F4200 X0 Y0
G0 F400 X10 Z0.4         ;move a bit while down the Z
M221 T0 S300             ;set flow is 300%
G1 F200 X30 E8          ;extrude amont filament to clean the hotend
M221 T0 S100             ;reset flow is 100%
G92 E0                   ;zero the extruded length again
;Add End

G0 Z15.0 F4200 ;move the platform down 15mm

;Put printing message on LCD screen
M117 Printing...
T0
G92 E0
; Filament gcode
M109 S220 T0 ; set temperature and wait for it to be reached
M107
;LAYER_CHANGE
;Layer 1
;Z:0.1
;HEIGHT:0.1
;BEFORE_LAYER_CHANGE
;0.1


G1 E-2 F1800
G92 E0
G1 Z.1 F3000
;AFTER_LAYER_CHANGE
;G92 E0   ;zero the extruded length again
;0.1
G1 X183.676 Y130.908
G1 E2 F1800
;TYPE:Skirt/Brim
;WIDTH:0.4
G1 F480
G1 X185.633 Y129.512 E2.0454
G1 X188.297 Y128.929 E2.0969
G1 X211.703 Y128.929 E2.53893
G1 X213.918 Y129.326 E2.58143
G1 X216.324 Y130.908 E2.63581
G1 X217.61 Y132.755 E2.67831
G1 X218.193 Y135.418 E2.72979
G1 X218.193 Y150.054 E3.0062
G1 X218.119 Y151.023 E3.02455
G1 X216.472 Y161.732 E3.22917
G1 X215.743 Y163.861 E3.27167
G1 X214.678 Y165.273 E3.30507
G1 X212.334 Y167.616 E3.36766
G1 X210.488 Y168.902 E3.41015
G1 X207.824 Y169.485 E3.46165
G1 X192.183 Y169.485 E3.75704
G1 X189.969 Y169.088 E3.79952
G1 X187.673 Y167.616 E3.85103
G1 X185.33 Y165.273 E3.91361
G1 X184.044 Y163.426 E3.95611
G1 X183.538 Y161.749 E3.98919
G1 X181.884 Y151.175 E4.19131
G1 X181.807 Y150.189 E4.20999
G1 X181.807 Y135.418 E4.48895
G1 X182.204 Y133.203 E4.53145
G1 X183.643 Y130.958 E4.58181
;WIPE_START
G1 F2400
G1 X185.633 Y129.512 E2.82914
G1 X185.972 Y129.438 E2.58181
;WIPE_END
G92 E0
G1 X192.121 Y149.644 F3000
G1 E2 F1800
G1 F480
G1 X192.835 Y149.403 E2.01423
G1 X207.186 Y149.406 E2.28525
G1 X207.56 Y149.496 E2.29251
G1 X208.075 Y149.777 E2.30359
G1 X209.478 Y151.179 E2.34105
G1 X209.704 Y151.535 E2.34901
G1 X209.871 Y152.101 E2.36015
G1 X209.852 Y160.228 E2.51363
G1 X209.704 Y160.679 E2.52259
G1 X209.478 Y161.033 E2.53052
G1 X208.095 Y162.415 E2.56744
G1 X207.887 Y162.568 E2.57232
G1 X207.172 Y162.809 E2.58657
G1 X192.835 Y162.809 E2.85733
G1 X192.269 Y162.643 E2.86847
G1 X191.944 Y162.441 E2.8757
G1 X190.531 Y161.034 E2.91336
G1 X190.378 Y160.825 E2.91825
G1 X190.137 Y160.111 E2.93248
G1 X190.145 Y152.046 E3.08479
G1 X190.303 Y151.536 E3.09487
G1 X190.53 Y151.179 E3.10286
G1 X191.912 Y149.797 E3.13977
G1 X192.072 Y149.679 E3.14352
G1 X192.294 Y149.985 F3000
G1 F480
G1 X192.866 Y149.781 E3.15499
G1 X207.164 Y149.785 E3.42501
G1 X207.406 Y149.842 E3.42971
G1 X207.829 Y150.065 E3.43874
G1 X209.196 Y151.433 E3.47526
G1 X209.351 Y151.673 E3.48066
G1 X209.492 Y152.131 E3.48971
G1 X209.483 Y160.139 E3.64094
G1 X209.352 Y160.537 E3.64885
G1 X209.196 Y160.779 E3.65429
G1 X207.839 Y162.136 E3.69053
G1 X207.689 Y162.245 E3.69403
G1 X207.141 Y162.431 E3.70496
G1 X192.865 Y162.431 E3.97457
G1 X192.408 Y162.29 E3.9836
G1 X192.167 Y162.135 E3.98901
G1 X190.81 Y160.778 E4.02525
G1 X190.701 Y160.627 E4.02877
G1 X190.515 Y160.08 E4.03968
G1 X190.515 Y152.131 E4.1898
G1 X190.657 Y151.673 E4.19886
G1 X190.811 Y151.433 E4.20425
G1 X192.169 Y150.076 E4.24051
G1 X192.245 Y150.02 E4.24229
G1 X192.462 Y150.329 F3000
G1 F480
G1 X192.514 Y150.292 E4.2435
G1 X192.898 Y150.16 E4.25117
G1 X207.142 Y150.163 E4.52017
G1 X207.257 Y150.19 E4.5224
G1 X207.584 Y150.356 E4.52933
G1 X208.915 Y151.687 E4.56488
G1 X209 Y151.817 E4.56781
G1 X209.114 Y152.163 E4.57469
G1 X209.114 Y160.049 E4.72362
G1 X209 Y160.395 E4.7305
G1 X208.915 Y160.525 E4.73343
G1 X207.584 Y161.856 E4.76898
G1 X207.493 Y161.92 E4.77108
G1 X207.109 Y162.052 E4.77875
G1 X192.897 Y162.052 E5.04715
G1 X192.551 Y161.939 E5.05402
G1 X192.422 Y161.854 E5.05694
G1 X191.09 Y160.522 E5.09252
G1 X191.026 Y160.432 E5.09461
G1 X190.894 Y160.048 E5.10228
G1 X190.894 Y152.163 E5.25119
G1 X191.007 Y151.817 E5.25806
G1 X191.092 Y151.687 E5.26099
G1 X192.414 Y150.365 E5.2963
G1 X192.677 Y150.638 F3000
G1 F480
G1 X192.932 Y150.538 E5.30147
G1 X207.09 Y150.538 E5.56885
G1 X207.341 Y150.648 E5.57403
G1 X208.635 Y151.942 E5.60859
G1 X208.735 Y152.198 E5.61378
G1 X208.735 Y160.014 E5.76139
G1 X208.653 Y160.242 E5.76597
G1 X207.331 Y161.574 E5.80141
G1 X207.075 Y161.674 E5.8066
G1 X192.932 Y161.674 E6.0737
G1 X192.704 Y161.592 E6.07828
G1 X191.372 Y160.269 E6.11374
G1 X191.272 Y160.014 E6.11891
G1 X191.272 Y152.198 E6.26652
G1 X191.372 Y151.942 E6.27171
G1 X192.634 Y150.68 E6.30542
G1 X192.902 Y150.948 F3000
G1 F480
G1 X192.974 Y150.917 E6.3069
G1 X207.033 Y150.917 E6.57241
G1 X207.103 Y150.946 E6.57384
G1 X208.328 Y152.17 E6.60654
G1 X208.357 Y152.24 E6.60797
G1 X208.357 Y159.972 E6.75399
G1 X208.328 Y160.042 E6.75542
G1 X207.103 Y161.266 E6.78812
G1 X207.033 Y161.295 E6.78955
G1 X192.974 Y161.295 E7.05506
G1 X192.905 Y161.266 E7.05647
G1 X191.68 Y160.042 E7.08917
G1 X191.651 Y159.972 E7.0906
G1 X191.651 Y152.24 E7.23662
G1 X191.68 Y152.17 E7.23805
G1 X192.86 Y150.991 E7.26955
;WIPE_START
G1 F2400
G1 X192.974 Y150.917 E7.17271
G1 X195.645 Y150.917 E5.26955
;WIPE_END
G92 E0
G1 X205.044 Y153.42 F3000
G1 E2 F1800
;TYPE:Solid infill
;WIDTH:0.420738
G1 F192
G1 X205.683 Y154.058 E2.01799
G1 X205.683 Y154.623 E2.02924
G1 X204.65 Y153.59 E2.05834
G1 X204.085 Y153.59 E2.06959
G1 X205.683 Y155.188 E2.11461
G1 X205.683 Y155.752 E2.12584
G1 X203.521 Y153.59 E2.18675
G1 X202.956 Y153.59 E2.198
G1 X205.683 Y156.317 E2.27482
G1 X205.683 Y156.882 E2.28607
G1 X205.009 Y156.208 E2.30506
G1 X205.024 Y156.1 E2.30723
G1 X204.99 Y155.844 E2.31237
G1 X204.891 Y155.606 E2.3175
G1 X204.734 Y155.401 E2.32264
G1 X204.53 Y155.244 E2.32777
G1 X204.279 Y155.14 E2.33318
G1 X203.928 Y155.126 E2.34018
G1 X202.392 Y153.59 E2.38345
G1 X201.873 Y153.59 E2.39379
G1 X201.873 Y153.636 E2.39471
G1 X203.507 Y155.27 E2.44074
G1 X203.337 Y155.401 E2.44502
G1 X203.223 Y155.55 E2.44876
G1 X201.873 Y154.201 E2.48678
G1 X201.873 Y154.766 E2.49803
G1 X203.221 Y156.113 E2.53599
G1 E.53599 F1800
G92 E0
G1 X202.969 Y156.147 F3000
G1 X202.999 Y156.378
G1 X203.106 Y156.636
G1 X203.277 Y156.859
G1 X203.499 Y157.029
G1 X203.758 Y157.136
G1 X204.035 Y157.173
G1 X204.313 Y157.136
G1 X204.572 Y157.029
G1 X204.794 Y156.859
G1 X204.965 Y156.636
G1 X204.978 Y156.604
G1 X204.743 Y156.506
G1 E2 F1800
G1 F192
G1 X205.683 Y157.446 E2.02648
G1 X205.683 Y158.011 E2.03773
G1 X204.585 Y156.913 E2.06866
G1 X204.53 Y156.956 E2.07005
G1 X204.291 Y157.054 E2.0752
G1 X204.177 Y157.069 E2.07749
G1 X205.683 Y158.576 E2.11993
G1 X205.683 Y158.622 E2.12085
G1 X205.165 Y158.622 E2.13117
G1 X201.873 Y155.33 E2.22391
G1 X201.873 Y155.895 E2.23516
G1 X204.6 Y158.622 E2.31198
G1 X204.036 Y158.622 E2.32321
G1 X201.873 Y156.46 E2.38413
G1 X201.873 Y157.024 E2.39536
G1 X203.471 Y158.622 E2.44038
G1 X202.906 Y158.622 E2.45163
G1 X201.873 Y157.589 E2.48073
G1 X201.873 Y158.154 E2.49198
G1 X202.512 Y158.792 E2.50997
G1 E.50997 F1800
G92 E0
G1 X201.589 Y158.906 F3000
G1 E2 F1800
;TYPE:External perimeter
;WIDTH:0.4
G1 F120
G1 X201.589 Y153.306 E2.10576
G1 X205.967 Y153.306 E2.18844
G1 X205.967 Y158.906 E2.2942
G1 X201.649 Y158.906 E2.37575
;WIPE_START
G1 F2400
G1 X201.619 Y156.099 E.37575
;WIPE_END
G92 E0
G1 X203.539 Y156.596 F3000
G1 E2 F1800
G1 F120
G1 X203.428 Y156.451 E2.00345
G1 X203.358 Y156.282 E2.0069
G1 X203.334 Y156.1 E2.01037
G1 X203.358 Y155.918 E2.01384
G1 X203.428 Y155.749 E2.01729
G1 X203.539 Y155.604 E2.02074
G1 X203.685 Y155.492 E2.02422
G1 X203.854 Y155.422 E2.02767
G1 X203.996 Y155.404 E2.03037
G1 X204.212 Y155.42 E2.03446
G1 X204.386 Y155.492 E2.03802
G1 X204.532 Y155.604 E2.0415
G1 X204.643 Y155.749 E2.04495
G1 X204.713 Y155.918 E2.0484
G1 X204.737 Y156.1 E2.05187
G1 X204.713 Y156.282 E2.05534
G1 X204.643 Y156.451 E2.05879
G1 X204.532 Y156.596 E2.06224
G1 X204.386 Y156.708 E2.06572
G1 X204.217 Y156.778 E2.06917
G1 X204.035 Y156.802 E2.07264
G1 X203.854 Y156.778 E2.07609
G1 X203.685 Y156.708 E2.07954
G1 X203.587 Y156.633 E2.08187
;WIPE_START
G1 F2400
G1 X203.428 Y156.451 E1.90968
G1 X203.358 Y156.282 E1.77935
G1 X203.334 Y156.1 E1.64855
G1 X203.358 Y155.918 E1.51775
G1 X203.428 Y155.749 E1.38742
G1 X203.539 Y155.604 E1.25731
G1 X203.685 Y155.492 E1.1262
G1 X203.854 Y155.422 E.99587
G1 X203.996 Y155.404 E.89389
G1 X204.212 Y155.42 E.73957
G1 X204.386 Y155.492 E.6054
G1 X204.532 Y155.604 E.47429
G1 X204.643 Y155.749 E.34418
G1 X204.713 Y155.918 E.21385
G1 X204.737 Y156.1 E.08305
G1 X204.737 Y156.102 E.08187
;WIPE_END
G92 E0
G1 X205.102 Y156.15 F3000
G1 X205.599 Y158.271
G1 X205.85 Y158.901
G1 E2 F1800
;TYPE:Ironing
;WIDTH:0.400537
;HEIGHT:0.0025
G1 F180
G1 X205.85 Y153.356 E2.00277
G1 X205.75 Y153.356 E2.00282
G1 X205.75 Y158.856 E2.00556
G1 X205.65 Y158.856 E2.00561
G1 X205.65 Y153.356 E2.00835
G1 X205.55 Y153.356 E2.0084
G1 X205.55 Y158.856 E2.01114
G1 X205.45 Y158.856 E2.01119
G1 X205.45 Y153.356 E2.01393
G1 X205.35 Y153.356 E2.01398
G1 X205.35 Y158.856 E2.01672
G1 X205.25 Y158.856 E2.01677
G1 X205.25 Y153.356 E2.01951
G1 X205.15 Y153.356 E2.01956
G1 X205.15 Y158.856 E2.0223
G1 X205.05 Y158.856 E2.02235
G1 X205.05 Y153.356 E2.02509
G1 X204.95 Y153.356 E2.02514
G1 X204.95 Y158.856 E2.02788
G1 X204.85 Y158.856 E2.02793
G1 X204.85 Y153.356 E2.03067
G1 X204.75 Y153.356 E2.03072
G1 X204.75 Y158.856 E2.03346
G1 X204.65 Y158.856 E2.03351
G1 X204.65 Y156.524 E2.03467
G1 X204.55 Y156.645 E2.03475
G1 X204.55 Y158.856 E2.03585
G1 X204.45 Y158.856 E2.0359
G1 X204.45 Y156.722 E2.03696
G1 X204.35 Y156.777 E2.03702
G1 X204.35 Y158.856 E2.03806
G1 X204.25 Y158.856 E2.03811
G1 X204.25 Y156.818 E2.03913
G1 X204.15 Y156.837 E2.03918
G1 X204.15 Y158.856 E2.04019
G1 X204.05 Y158.856 E2.04024
G1 X204.05 Y156.85 E2.04124
G1 X203.95 Y156.841 E2.04129
G1 X203.95 Y158.856 E2.0423
G1 X203.85 Y158.856 E2.04235
G1 X203.85 Y156.828 E2.04336
G1 X203.75 Y156.789 E2.04341
G1 X203.75 Y158.856 E2.04444
G1 X203.65 Y158.856 E2.04449
G1 X203.65 Y156.744 E2.04554
G1 X203.55 Y156.667 E2.0456
G1 X203.55 Y158.856 E2.04669
G1 X203.45 Y158.856 E2.04674
G1 X203.45 Y156.562 E2.04788
G1 X203.384 Y156.476 E2.04793
G1 X203.35 Y156.394 E2.04797
G1 X203.35 Y158.901 E2.04922
G1 E.04922 F1800
G92 E0
G1 X203.5 Y158.538 F3000
G1 X204.794 Y156.859
G1 X204.965 Y156.636
G1 X205.072 Y156.378
G1 X205.108 Y156.1
G1 X205.072 Y155.822
G1 X205.03 Y155.721
G1 X204.985 Y155.614
G1 X204.65 Y155.752
G1 E2 F1800
G1 F180
G1 X204.65 Y153.356 E2.0012
G1 X204.55 Y153.356 E2.00125
G1 X204.55 Y155.555 E2.00235
G1 X204.45 Y155.478 E2.00241
G1 X204.45 Y153.356 E2.00347
G1 X204.35 Y153.356 E2.00352
G1 X204.35 Y155.423 E2.00455
G1 X204.25 Y155.382 E2.0046
G1 X204.25 Y153.356 E2.00561
G1 X204.15 Y153.356 E2.00566
G1 X204.15 Y155.363 E2.00666
G1 X204.05 Y155.35 E2.00671
G1 X204.05 Y153.356 E2.0077
G1 X203.95 Y153.356 E2.00775
G1 X203.95 Y155.359 E2.00875
G1 X203.85 Y155.372 E2.0088
G1 X203.85 Y153.356 E2.00981
G1 X203.75 Y153.356 E2.00986
G1 X203.75 Y155.411 E2.01089
G1 X203.65 Y155.456 E2.01094
G1 X203.65 Y153.356 E2.01199
G1 X203.55 Y153.356 E2.01204
G1 X203.55 Y155.533 E2.01313
G1 X203.45 Y155.638 E2.0132
G1 X203.45 Y153.356 E2.01434
G1 X203.35 Y153.356 E2.01439
G1 X203.35 Y155.939 E2.01568
G1 E.01568 F1800
G92 E0
G1 X203.25 Y153.311 F3000
G1 E2 F1800
G1 F180
G1 X203.25 Y158.856 E2.00277
G1 X203.15 Y158.856 E2.00282
G1 X203.15 Y153.356 E2.00556
G1 X203.05 Y153.356 E2.00561
G1 X203.05 Y158.856 E2.00835
G1 X202.95 Y158.856 E2.0084
G1 X202.95 Y153.356 E2.01114
G1 X202.85 Y153.356 E2.01119
G1 X202.85 Y158.856 E2.01393
G1 X202.75 Y158.856 E2.01398
G1 X202.75 Y153.356 E2.01672
G1 X202.65 Y153.356 E2.01677
G1 X202.65 Y158.856 E2.01951
G1 X202.55 Y158.856 E2.01956
G1 X202.55 Y153.356 E2.0223
G1 X202.45 Y153.356 E2.02235
G1 X202.45 Y158.856 E2.02509
G1 X202.35 Y158.856 E2.02514
G1 X202.35 Y153.356 E2.02788
G1 X202.25 Y153.356 E2.02793
G1 X202.25 Y158.856 E2.03067
G1 X202.15 Y158.856 E2.03072
G1 X202.15 Y153.356 E2.03346
G1 X202.05 Y153.356 E2.03351
G1 X202.05 Y158.856 E2.03625
G1 X201.95 Y158.856 E2.0363
G1 X201.95 Y153.356 E2.03904
G1 X201.85 Y153.356 E2.03909
G1 X201.85 Y158.856 E2.04183
G1 X201.75 Y158.856 E2.04188
G1 X201.75 Y153.356 E2.04462
G1 X201.65 Y153.356 E2.04467
G1 X201.65 Y158.901 E2.04744
G1 E.04744 F1800
G92 E0
G1 X200.276 Y154.2 F3000
G1 E2 F1800
;TYPE:Solid infill
;WIDTH:0.407184
;HEIGHT:0.1
G1 F192
G1 X199.894 Y153.818 E2.0104
G1 X199.894 Y154.364 E2.02091
G1 X200.106 Y154.575 E2.02667
G1 X200.106 Y155.121 E2.03718
G1 X199.894 Y154.909 E2.04295
G1 X199.894 Y155.455 E2.05346
G1 X200.106 Y155.666 E2.05922
G1 X200.106 Y156.212 E2.06973
G1 X199.894 Y156 E2.0755
G1 X199.894 Y156.546 E2.08601
G1 X200.106 Y156.757 E2.09177
G1 X200.106 Y157.303 E2.10228
G1 X199.894 Y157.091 E2.10805
G1 X199.894 Y157.637 E2.11856
G1 X200.106 Y157.848 E2.12432
G1 X200.106 Y158.394 E2.13483
G1 X199.724 Y158.012 E2.14523
G1 E.14523 F1800
G92 E0
G1 X199.611 Y158.906 F3000
G1 E2 F1800
;TYPE:External perimeter
;WIDTH:0.4
G1 F120
G1 X199.611 Y153.306 E2.10576
G1 X200.389 Y153.306 E2.12045
G1 X200.389 Y158.906 E2.22621
G1 X199.671 Y158.906 E2.23977
;WIPE_START
G1 F2400
G1 X199.641 Y156.099 E.23977
;WIPE_END
G92 E0
G1 X200.25 Y153.311 F3000
G1 E2 F1800
;TYPE:Ironing
;WIDTH:0.400537
;HEIGHT:0.0025
G1 F180
G1 X200.25 Y158.856 E2.00277
G1 X200.15 Y158.856 E2.00282
G1 X200.15 Y153.356 E2.00556
G1 X200.05 Y153.356 E2.00561
G1 X200.05 Y158.856 E2.00835
G1 X199.95 Y158.856 E2.0084
G1 X199.95 Y153.356 E2.01114
G1 X199.85 Y153.356 E2.01119
G1 X199.85 Y158.856 E2.01393
G1 X199.75 Y158.856 E2.01398
G1 X199.75 Y153.311 E2.01675
G1 E.01675 F1800
G92 E0
G1 X197.488 Y153.42 F3000
G1 E2 F1800
;TYPE:Solid infill
;WIDTH:0.420427
;HEIGHT:0.1
G1 F192
G1 X198.127 Y154.058 E2.01797
G1 X198.127 Y154.622 E2.0292
G1 X197.095 Y153.59 E2.05825
G1 X196.53 Y153.59 E2.0695
G1 X198.127 Y155.186 E2.11444
G1 X198.127 Y155.75 E2.12567
G1 X195.966 Y153.59 E2.18649
G1 X195.402 Y153.59 E2.19772
G1 X198.127 Y156.315 E2.27443
G1 X198.127 Y156.879 E2.28566
G1 X194.838 Y153.59 E2.37824
G1 X194.324 Y153.59 E2.38847
G1 X194.324 Y153.641 E2.38949
G1 X195.816 Y155.132 E2.43147
G1 X195.716 Y155.146 E2.43348
G1 X195.478 Y155.244 E2.4386
G1 X195.413 Y155.294 E2.44023
G1 X194.324 Y154.205 E2.47088
G1 X194.324 Y154.769 E2.48211
G1 X195.264 Y155.709 E2.50857
G1 E.50857 F1800
G92 E0
G1 X195.024 Y155.61 F3000
G1 X195.043 Y155.564
G1 X195.213 Y155.341
G1 X195.436 Y155.171
G1 X195.694 Y155.064
G1 X195.972 Y155.027
G1 X196.25 Y155.064
G1 X196.508 Y155.171
G1 X196.731 Y155.341
G1 X196.901 Y155.564
G1 X197.008 Y155.822
G1 X197.045 Y156.1
G1 X197.04 Y156.137
G1 X196.788 Y156.104
G1 E2 F1800
G1 F192
G1 X198.127 Y157.443 E2.03769
G1 X198.127 Y158.007 E2.04892
G1 X196.774 Y156.655 E2.08699
G1 X196.681 Y156.79 E2.09025
G1 X196.491 Y156.936 E2.09502
G1 X198.127 Y158.572 E2.14107
G1 X198.127 Y158.622 E2.14207
G1 X197.613 Y158.622 E2.1523
G1 X196.067 Y157.076 E2.19582
G1 X195.972 Y157.088 E2.19773
G1 X195.716 Y157.054 E2.20287
G1 X195.522 Y156.974 E2.20705
G1 X195.282 Y156.809 E2.21285
G1 X195.116 Y156.594 E2.21826
G1 X195.036 Y156.4 E2.22244
G1 X194.982 Y156.113 E2.22825
G1 X194.996 Y156.005 E2.23042
G1 X194.324 Y155.333 E2.24934
G1 X194.324 Y155.897 E2.26057
G1 X197.049 Y158.622 E2.33728
G1 X196.485 Y158.622 E2.34851
G1 X194.324 Y156.462 E2.40933
G1 X194.324 Y157.026 E2.42056
G1 X195.92 Y158.622 E2.46549
G1 X195.356 Y158.622 E2.47672
G1 X194.324 Y157.59 E2.50577
