; generated by CreatWare 7.0.0 on 2022-09-05 at 23:26:31 UTC

; 

; external perimeters extrusion width = 0.40mm
; perimeters extrusion width = 0.40mm
; infill extrusion width = 0.40mm
; solid infill extrusion width = 0.40mm
; top infill extrusion width = 0.40mm
; support material extrusion width = 0.40mm

; external perimeters extrusion width = 0.40mm
; perimeters extrusion width = 0.40mm
; infill extrusion width = 0.40mm
; solid infill extrusion width = 0.40mm
; top infill extrusion width = 0.40mm
; support material extrusion width = 0.40mm

; external perimeters extrusion width = 0.40mm
; perimeters extrusion width = 0.40mm
; infill extrusion width = 0.40mm
; solid infill extrusion width = 0.40mm
; top infill extrusion width = 0.40mm
; support material extrusion width = 0.40mm

; external perimeters extrusion width = 0.40mm
; perimeters extrusion width = 0.40mm
; infill extrusion width = 0.40mm
; solid infill extrusion width = 0.40mm
; top infill extrusion width = 0.40mm
; support material extrusion width = 0.40mm

; external perimeters extrusion width = 0.40mm
; perimeters extrusion width = 0.40mm
; infill extrusion width = 0.40mm
; solid infill extrusion width = 0.40mm
; top infill extrusion width = 0.40mm
; support material extrusion width = 0.40mm

; external perimeters extrusion width = 0.40mm
; perimeters extrusion width = 0.40mm
; infill extrusion width = 0.40mm
; solid infill extrusion width = 0.40mm
; top infill extrusion width = 0.40mm
; support material extrusion width = 0.40mm

; external perimeters extrusion width = 0.40mm
; perimeters extrusion width = 0.40mm
; infill extrusion width = 0.40mm
; solid infill extrusion width = 0.40mm
; top infill extrusion width = 0.40mm
; support material extrusion width = 0.40mm

; external perimeters extrusion width = 0.40mm
; perimeters extrusion width = 0.40mm
; infill extrusion width = 0.40mm
; solid infill extrusion width = 0.40mm
; top infill extrusion width = 0.40mm
; support material extrusion width = 0.40mm

; external perimeters extrusion width = 0.40mm
; perimeters extrusion width = 0.40mm
; infill extrusion width = 0.40mm
; solid infill extrusion width = 0.40mm
; top infill extrusion width = 0.40mm
; support material extrusion width = 0.40mm

; external perimeters extrusion width = 0.40mm
; perimeters extrusion width = 0.40mm
; infill extrusion width = 0.40mm
; solid infill extrusion width = 0.40mm
; top infill extrusion width = 0.40mm
; support material extrusion width = 0.40mm

; external perimeters extrusion width = 0.40mm
; perimeters extrusion width = 0.40mm
; infill extrusion width = 0.40mm
; solid infill extrusion width = 0.40mm
; top infill extrusion width = 0.40mm
; support material extrusion width = 0.40mm

; external perimeters extrusion width = 0.40mm
; perimeters extrusion width = 0.40mm
; infill extrusion width = 0.40mm
; solid infill extrusion width = 0.40mm
; top infill extrusion width = 0.40mm
; support material extrusion width = 0.40mm

; external perimeters extrusion width = 0.40mm
; perimeters extrusion width = 0.40mm
; infill extrusion width = 0.40mm
; solid infill extrusion width = 0.40mm
; top infill extrusion width = 0.40mm
; support material extrusion width = 0.40mm

G21 ; set units to millimeters
G90 ; use absolute coordinates
M82 ; use absolute distances for extrusion
G92 E0
M107
M190 S45 ; set bed temperature and wait for it to be reached
M104 S205 ; set temperature
;TYPE:Custom
M109 S205 ; set temperature and wait for it to be reached
M6013 S0 ; set chamber temp

G28 X0 Y0  ;move X/Y to min endstops
G28 Z0     ;move Z to min endstops

;Add Clear Nozzle
G92 E0                   ;zero the extruded length again
G0 F4200 X0 Y0
G0 F400 X10 Z0.4         ;move a bit while down the Z
M221 T0 S300             ;set flow is 300%
G1 F200 X30 E8          ;extrude amont filament to clean the hotend
M221 T0 S100             ;reset flow is 100%
G92 E0                   ;zero the extruded length again
;Add End

G0 Z15.0 F4200 ;move the platform down 15mm

;Put printing message on LCD screen
M117 Printing...
; Filament gcode
M107
;LAYER_CHANGE
;Layer 1
;Z:0.2
;HEIGHT:0.2
;BEFORE_LAYER_CHANGE
;0.2


G1 Z.2 F4200
;AFTER_LAYER_CHANGE
;G92 E0   ;zero the extruded length again
;0.2
G1 E-2 F1800
G92 E0
G1 X74.421 Y76.05 F4200
G1 E2 F1800
;TYPE:Skirt/Brim
;WIDTH:0.4
G1 F720
G1 X76.265 Y74.768 E2.08002
G1 X78.739 Y74.191 E2.17053
G1 X315.516 Y67.656 E10.61
G1 X335.465 Y67.654 E11.32077
G1 X337.676 Y68.05 E11.4008
G1 X339.961 Y69.516 E11.49753
G1 X342.304 Y71.859 E11.61559
G1 X343.587 Y73.703 E11.69563
G1 X344.166 Y76.354 E11.79231
G1 X344.165 Y85.441 E12.11608
G1 X343.397 Y164.566 E14.9354
G1 X342.967 Y180.986 E15.52064
G1 X342.889 Y181.827 E15.55073
G1 X333.273 Y241.704 E17.71146
G1 X332.53 Y243.824 E17.7915
G1 X331.491 Y245.191 E17.85268
G1 X329.148 Y247.534 E17.97074
G1 X327.304 Y248.817 E18.05078
G1 X324.956 Y249.389 E18.13688
G1 X308.256 Y250.187 E18.73257
G1 X299.97 Y250.195 E19.0278
G1 X115.508 Y248.959 E25.60025
G1 X59.267 Y248.044 E27.60436
G1 X57.063 Y247.611 E27.68439
G1 X54.875 Y246.183 E27.77748
G1 X52.532 Y243.84 E27.89554
G1 X51.249 Y241.996 E27.97558
G1 X50.67 Y239.345 E28.07226
G1 X50.67 Y230.031 E28.40411
G1 X50.725 Y229.194 E28.434
G1 X70.271 Y82.052 E33.72266
G1 X70.956 Y79.912 E33.80272
G1 X72.078 Y78.394 E33.86998
G1 X74.379 Y76.093 E33.98592
G1 E31.98592 F1800
G92 E0
G1 X153.351 Y81.417 F4200
G1 E2 F1800
G1 F720
G1 X153.553 Y80.792 E2.0234
G1 X153.723 Y80.547 E2.03402
G1 X155.111 Y79.159 E2.10396
G1 X155.6 Y78.892 E2.12381
G1 X155.988 Y78.806 E2.13797
G1 X174.427 Y78.809 E2.79494
G1 X174.78 Y78.893 E2.80787
G1 X175.266 Y79.158 E2.82759
G1 X176.674 Y80.566 E2.89854
G1 X176.989 Y81.203 E2.92386
G1 X177.026 Y81.444 E2.93255
G1 X177.018 Y89.174 E3.20797
G1 X176.938 Y89.485 E3.21941
G1 X176.673 Y89.971 E3.23913
G1 X175.265 Y91.379 E3.31008
G1 X174.727 Y91.662 E3.33174
G1 X174.386 Y91.731 E3.34414
G1 X170.692 Y91.731 E3.47576
G1 X170.692 Y101.621 E3.82814
G1 X170.511 Y102.202 E3.84982
G1 X170.34 Y102.466 E3.86103
G1 X168.932 Y103.878 E3.93208
G1 X168.446 Y104.143 E3.9518
G1 X168.134 Y104.223 E3.96328
G1 X162.29 Y104.231 E4.1715
G1 X161.665 Y104.03 E4.19489
G1 X161.419 Y103.86 E4.20554
G1 X160.031 Y102.471 E4.2755
G1 X159.765 Y101.984 E4.29527
G1 X159.692 Y101.716 E4.30517
G1 X159.678 Y91.731 E4.66093
G1 X155.991 Y91.731 E4.7923
G1 X155.65 Y91.662 E4.8047
G1 X155.112 Y91.379 E4.82636
G1 X153.705 Y89.972 E4.89726
G1 X153.422 Y89.439 E4.91876
G1 X153.351 Y89.096 E4.93124
G1 X153.351 Y81.477 E5.2027
G1 X153.708 Y81.477 F4200
G1 F720
G1 X153.862 Y80.972 E5.22151
G1 X153.988 Y80.787 E5.22949
G1 X155.344 Y79.431 E5.29782
G1 X155.743 Y79.22 E5.3139
G1 X156.007 Y79.163 E5.32352
G1 X174.406 Y79.166 E5.97907
G1 X174.635 Y79.22 E5.98745
G1 X175.034 Y79.431 E6.00353
G1 X176.4 Y80.797 E6.07236
G1 X176.641 Y81.287 E6.09182
G1 X176.669 Y81.459 E6.09803
G1 X176.661 Y89.15 E6.37206
G1 X176.613 Y89.338 E6.37897
G1 X176.401 Y89.739 E6.39513
G1 X175.034 Y91.106 E6.46401
G1 X174.59 Y91.332 E6.48176
G1 X174.37 Y91.374 E6.48974
G1 X170.335 Y91.374 E6.63351
G1 X170.335 Y101.591 E6.99754
G1 X170.181 Y102.065 E7.0153
G1 X170.055 Y102.25 E7.02328
G1 X168.699 Y103.606 E7.09161
G1 X168.299 Y103.818 E7.10774
G1 X168.111 Y103.866 E7.11465
G1 X162.318 Y103.874 E7.32105
G1 X161.844 Y103.72 E7.33881
G1 X161.659 Y103.595 E7.34677
G1 X160.303 Y102.239 E7.4151
G1 X160.092 Y101.838 E7.43124
G1 X160.043 Y101.65 E7.43816
G1 X160.035 Y91.374 E7.80429
G1 X156.007 Y91.374 E7.94781
G1 X155.788 Y91.332 E7.95576
G1 X155.344 Y91.106 E7.97351
G1 X153.976 Y89.739 E8.04242
G1 X153.765 Y89.339 E8.05853
G1 X153.708 Y89.076 E8.06812
G1 X153.708 Y81.537 E8.33673
G1 X154.065 Y81.537 F4200
G1 F720
G1 X154.065 Y81.477 E8.33887
G1 X154.19 Y81.114 E8.35255
G1 X154.25 Y81.029 E8.35626
G1 X155.575 Y79.705 E8.423
G1 X155.881 Y79.55 E8.43522
G1 X156.024 Y79.52 E8.44043
G1 X174.386 Y79.523 E9.09466
G1 X174.494 Y79.549 E9.09862
G1 X174.802 Y79.705 E9.11092
G1 X176.126 Y81.028 E9.17761
G1 X176.294 Y81.373 E9.19128
G1 X176.312 Y81.476 E9.19501
G1 X176.309 Y89.091 E9.46633
G1 X176.283 Y89.199 E9.47029
G1 X176.127 Y89.507 E9.48259
G1 X174.803 Y90.831 E9.5493
G1 X174.459 Y90.999 E9.56294
G1 X174.356 Y91.017 E9.56667
G1 X169.978 Y91.017 E9.72266
G1 X169.978 Y101.56 E10.0983
G1 X169.853 Y101.922 E10.11195
G1 X169.793 Y102.007 E10.11566
G1 X168.468 Y103.332 E10.18242
G1 X168.16 Y103.488 E10.19472
G1 X168.051 Y103.514 E10.19871
G1 X162.349 Y103.517 E10.40187
G1 X161.987 Y103.392 E10.41552
G1 X161.902 Y103.332 E10.41923
G1 X160.577 Y102.007 E10.48599
G1 X160.421 Y101.699 E10.49829
G1 X160.396 Y101.591 E10.50224
G1 X160.392 Y91.017 E10.87899
G1 X156.021 Y91.017 E11.03473
G1 X155.919 Y90.999 E11.03842
G1 X155.574 Y90.831 E11.05209
G1 X154.25 Y89.507 E11.1188
G1 X154.095 Y89.201 E11.13102
G1 X154.065 Y89.058 E11.13623
G1 X154.065 Y81.597 E11.40206
G1 X154.422 Y81.597 F4200
G1 F720
G1 X154.422 Y81.509 E11.4052
G1 X154.517 Y81.268 E11.41443
G1 X155.804 Y79.98 E11.4793
G1 X156.041 Y79.877 E11.48851
G1 X174.336 Y79.877 E12.14035
G1 X174.573 Y79.98 E12.14956
G1 X175.851 Y81.258 E12.21396
G1 X175.955 Y81.495 E12.22318
G1 X175.955 Y89.041 E12.49204
G1 X175.851 Y89.278 E12.50126
G1 X174.573 Y90.556 E12.56566
G1 X174.367 Y90.654 E12.57379
G1 X169.621 Y90.66 E12.74289
G1 X169.621 Y101.528 E13.13011
G1 X169.526 Y101.769 E13.13934
G1 X168.239 Y103.056 E13.20419
G1 X168.002 Y103.16 E13.21341
G1 X162.381 Y103.16 E13.41368
G1 X162.14 Y103.066 E13.4229
G1 X160.853 Y101.778 E13.48777
G1 X160.749 Y101.541 E13.49699
G1 X160.749 Y90.66 E13.88468
G1 X156.011 Y90.654 E14.05349
G1 X155.804 Y90.556 E14.06165
G1 X154.526 Y89.278 E14.12605
G1 X154.422 Y89.041 E14.13527
G1 X154.422 Y81.657 E14.39836
G1 X154.779 Y81.657 F4200
G1 F720
G1 X154.779 Y81.548 E14.40224
G1 X154.807 Y81.483 E14.40476
G1 X156.028 Y80.261 E14.46631
G1 X156.094 Y80.234 E14.46885
G1 X174.283 Y80.234 E15.11692
G1 X174.349 Y80.261 E15.11946
G1 X175.571 Y81.483 E15.18103
G1 X175.598 Y81.548 E15.18354
G1 X175.598 Y88.988 E15.44862
G1 X175.571 Y89.054 E15.45116
G1 X174.349 Y90.276 E15.51273
G1 X174.283 Y90.303 E15.51527
G1 X169.263 Y90.303 E15.69413
G1 X169.263 Y101.488 E16.09265
G1 X169.236 Y101.554 E16.09519
G1 X168.015 Y102.776 E16.15674
G1 X167.949 Y102.803 E16.15928
G1 X162.421 Y102.803 E16.35624
G1 X162.355 Y102.776 E16.35878
G1 X161.134 Y101.554 E16.42033
G1 X161.106 Y101.488 E16.42288
G1 X161.106 Y90.303 E16.8214
G1 X156.094 Y90.303 E16.99998
G1 X156.028 Y90.276 E17.00252
G1 X154.807 Y89.054 E17.06407
G1 X154.779 Y88.988 E17.06662
G1 X154.779 Y81.717 E17.32568
G1 E15.32568 F1800
G92 E0
G1 X154.766 Y153.452 F4200
G1 E2 F1800
G1 F720
G1 X172.024 Y153.456 E2.61489
G1 X172.377 Y153.54 E2.62782
G1 X172.863 Y153.805 E2.64754
G1 X174.27 Y155.212 E2.71844
G1 X174.586 Y155.849 E2.74378
G1 X174.623 Y156.091 E2.7525
G1 X174.615 Y163.82 E3.02788
G1 X174.535 Y164.132 E3.03936
G1 X174.27 Y164.618 E3.05908
G1 X172.862 Y166.026 E3.13003
G1 X172.324 Y166.309 E3.15169
G1 X171.983 Y166.378 E3.16409
G1 X168.289 Y166.378 E3.29571
G1 X168.289 Y176.267 E3.64805
G1 X168.108 Y176.849 E3.66977
G1 X167.937 Y177.113 E3.68098
G1 X166.529 Y178.525 E3.75203
G1 X166.043 Y178.79 E3.77175
G1 X165.731 Y178.87 E3.78323
G1 X159.887 Y178.878 E3.99145
G1 X159.262 Y178.676 E4.01485
G1 X159.016 Y178.506 E4.0255
G1 X157.628 Y177.118 E4.09544
G1 X157.362 Y176.631 E4.11521
G1 X157.289 Y176.363 E4.12511
G1 X157.275 Y166.378 E4.48087
G1 X153.588 Y166.378 E4.61224
G1 X153.247 Y166.309 E4.62464
G1 X152.709 Y166.026 E4.6463
G1 X151.302 Y164.619 E4.7172
G1 X151.019 Y164.086 E4.7387
G1 X150.948 Y163.742 E4.75121
G1 X150.948 Y156.064 E5.02477
G1 X151.149 Y155.439 E5.04816
G1 X151.32 Y155.193 E5.05883
G1 X152.708 Y153.805 E5.12877
G1 X153.196 Y153.539 E5.14857
G1 X153.585 Y153.452 E5.16277
G1 X154.706 Y153.452 E5.20271
G1 X154.706 Y153.809 F4200
G1 F720
G1 X172.003 Y153.813 E5.81899
G1 X172.232 Y153.867 E5.82737
G1 X172.631 Y154.077 E5.84343
G1 X173.997 Y155.444 E5.91228
G1 X174.238 Y155.933 E5.9317
G1 X174.266 Y156.106 E5.93794
G1 X174.258 Y163.797 E6.21197
G1 X174.21 Y163.985 E6.21888
G1 X173.998 Y164.385 E6.23501
G1 X172.631 Y165.753 E6.30392
G1 X172.186 Y165.979 E6.3217
G1 X171.967 Y166.021 E6.32965
G1 X167.932 Y166.021 E6.47342
G1 X167.932 Y176.238 E6.83745
G1 X167.777 Y176.712 E6.85522
G1 X167.652 Y176.897 E6.86318
G1 X166.296 Y178.253 E6.93151
G1 X165.896 Y178.464 E6.94762
G1 X165.708 Y178.513 E6.95454
G1 X159.915 Y178.521 E7.16094
G1 X159.441 Y178.367 E7.1787
G1 X159.256 Y178.241 E7.18668
G1 X157.9 Y176.885 E7.25501
G1 X157.689 Y176.485 E7.27112
G1 X157.64 Y176.297 E7.27804
G1 X157.632 Y166.021 E7.64417
G1 X153.604 Y166.021 E7.78769
G1 X153.385 Y165.979 E7.79564
G1 X152.941 Y165.753 E7.81339
G1 X151.573 Y164.385 E7.88232
G1 X151.362 Y163.986 E7.8984
G1 X151.305 Y163.722 E7.90802
G1 X151.305 Y156.092 E8.17987
G1 X151.459 Y155.618 E8.19763
G1 X151.585 Y155.433 E8.20561
G1 X152.941 Y154.077 E8.27394
G1 X153.34 Y153.866 E8.29002
G1 X153.603 Y153.809 E8.29961
G1 X154.646 Y153.809 E8.33677
G1 X154.646 Y154.166 F4200
G1 F720
G1 X171.983 Y154.17 E8.95448
G1 X172.091 Y154.195 E8.95843
G1 X172.399 Y154.351 E8.97073
G1 X173.723 Y155.675 E9.03744
G1 X173.891 Y156.02 E9.05111
G1 X173.909 Y156.122 E9.0548
G1 X173.906 Y163.737 E9.32612
G1 X173.88 Y163.846 E9.33011
G1 X173.724 Y164.154 E9.34241
G1 X172.4 Y165.478 E9.40912
G1 X172.056 Y165.646 E9.42276
G1 X171.953 Y165.664 E9.42649
G1 X167.575 Y165.664 E9.58248
G1 X167.575 Y176.206 E9.95809
G1 X167.449 Y176.569 E9.97178
G1 X167.39 Y176.654 E9.97547
G1 X166.065 Y177.979 E10.04223
G1 X165.757 Y178.135 E10.05453
G1 X165.648 Y178.16 E10.05851
G1 X159.946 Y178.164 E10.26167
G1 X159.584 Y178.039 E10.27532
G1 X159.499 Y177.979 E10.27903
G1 X158.174 Y176.654 E10.34579
G1 X158.018 Y176.346 E10.35809
G1 X157.993 Y176.237 E10.36207
G1 X157.989 Y165.664 E10.73878
G1 X153.618 Y165.664 E10.89452
G1 X153.516 Y165.646 E10.89821
G1 X153.171 Y165.478 E10.91188
G1 X151.847 Y164.154 E10.97859
G1 X151.692 Y163.848 E10.99081
G1 X151.662 Y163.705 E10.99602
G1 X151.662 Y156.123 E11.26616
G1 X151.787 Y155.761 E11.27981
G1 X151.847 Y155.676 E11.28352
G1 X153.172 Y154.351 E11.35028
G1 X153.478 Y154.196 E11.3625
G1 X153.621 Y154.166 E11.36771
G1 X154.586 Y154.166 E11.40209
G1 X154.586 Y154.523 F4200
G1 F720
G1 X171.933 Y154.523 E12.02016
G1 X172.17 Y154.627 E12.02938
G1 X173.448 Y155.905 E12.09378
G1 X173.552 Y156.142 E12.103
G1 X173.552 Y163.688 E12.37186
G1 X173.448 Y163.925 E12.38108
G1 X172.17 Y165.203 E12.44548
G1 X171.964 Y165.301 E12.45361
G1 X167.217 Y165.307 E12.62274
G1 X167.217 Y176.175 E13.00996
G1 X167.123 Y176.415 E13.01914
G1 X165.836 Y177.703 E13.08401
G1 X165.599 Y177.807 E13.09323
G1 X159.978 Y177.807 E13.2935
G1 X159.737 Y177.712 E13.30273
G1 X158.45 Y176.425 E13.36758
G1 X158.346 Y176.188 E13.3768
G1 X158.346 Y165.307 E13.76449
G1 X153.608 Y165.301 E13.9333
G1 X153.401 Y165.203 E13.94146
G1 X152.123 Y163.925 E14.00586
G1 X152.019 Y163.688 E14.01508
G1 X152.019 Y156.155 E14.28348
G1 X152.113 Y155.914 E14.2927
G1 X153.401 Y154.627 E14.35757
G1 X153.638 Y154.523 E14.36679
G1 X154.526 Y154.523 E14.39843
G1 X154.526 Y154.88 F4200
G1 F720
G1 X171.88 Y154.88 E15.01675
G1 X171.946 Y154.908 E15.0193
G1 X173.168 Y156.129 E15.08085
G1 X173.195 Y156.195 E15.08339
G1 X173.195 Y163.635 E15.34847
G1 X173.168 Y163.7 E15.35098
G1 X171.946 Y164.922 E15.41255
G1 X171.88 Y164.949 E15.41509
G1 X166.86 Y164.949 E15.59395
G1 X166.86 Y176.135 E15.9925
G1 X166.833 Y176.2 E15.99501
G1 X165.611 Y177.422 E16.05658
G1 X165.546 Y177.449 E16.05909
G1 X160.018 Y177.449 E16.25605
G1 X159.952 Y177.422 E16.25859
G1 X158.73 Y176.2 E16.32016
G1 X158.703 Y176.135 E16.32267
G1 X158.703 Y164.949 E16.72122
G1 X153.691 Y164.949 E16.8998
G1 X153.625 Y164.922 E16.90234
G1 X152.403 Y163.7 E16.96391
G1 X152.376 Y163.635 E16.96642
G1 X152.376 Y156.195 E17.2315
G1 X152.403 Y156.129 E17.23404
G1 X153.625 Y154.908 E17.29559
G1 X153.691 Y154.88 E17.29814
G1 X154.466 Y154.88 E17.32575
G1 E15.32575 F1800
G92 E0
G1 X102.606 Y156.769 F4200
G1 E2 F1800
G1 F720
G1 X102.597 Y164.498 E2.27538
