; generated by CreatWare 7.0.0 on 2022-07-05 at 03:19:06 UTC

; 

; external perimeters extrusion width = 0.40mm
; perimeters extrusion width = 0.40mm
; infill extrusion width = 0.40mm
; solid infill extrusion width = 0.40mm
; top infill extrusion width = 0.40mm
; support material extrusion width = 0.40mm

; external perimeters extrusion width = 0.40mm
; perimeters extrusion width = 0.40mm
; infill extrusion width = 0.40mm
; solid infill extrusion width = 0.40mm
; top infill extrusion width = 0.40mm
; support material extrusion width = 0.40mm

; external perimeters extrusion width = 0.40mm
; perimeters extrusion width = 0.40mm
; infill extrusion width = 0.40mm
; solid infill extrusion width = 0.40mm
; top infill extrusion width = 0.40mm
; support material extrusion width = 0.40mm

G21 ; set units to millimeters
G90 ; use absolute coordinates
M82 ; use absolute distances for extrusion
G92 E0
M107
M190 S130 ; set bed temperature and wait for it to be reached
M104 S440 ; set temperature
;TYPE:Custom
M109 S440 ; set temperature and wait for it to be reached
M6013 S0 ; set chamber temp

G28 X0 Y0  ;move X/Y to min endstops
G28 Z0     ;move Z to min endstops

;Add Clear Nozzle
G92 E0                   ;zero the extruded length again
G0 F4200 X0 Y0
G0 F400 X10 Z0.4         ;move a bit while down the Z
M221 T0 S300             ;set flow is 300%
G1 F200 X30 E8          ;extrude amont filament to clean the hotend
M221 T0 S100             ;reset flow is 100%
G92 E0                   ;zero the extruded length again
;Add End

G0 Z15.0 F4200 ;move the platform down 15mm

;Put printing message on LCD screen
M117 Printing...
; Filament gcode
M107
;LAYER_CHANGE
;Layer 1
;Z:0.1
;HEIGHT:0.1
;BEFORE_LAYER_CHANGE
;0.1


G1 Z.1 F4200
;AFTER_LAYER_CHANGE
;G92 E0   ;zero the extruded length again
;0.1
G1 E-2 F1800
G92 E0
G1 X101.457 Y52.976 F4200
G1 E2 F1800
;TYPE:Skirt/Brim
;WIDTH:0.4
G1 F720
G1 X102.935 Y50.835 E2.09826
G1 X104.781 Y49.55 E2.18321
G1 X106.356 Y49.06 E2.24551
G1 X112.498 Y47.996 E2.48095
G1 X113.587 Y47.902 E2.52224
G1 X120.701 Y47.902 E2.79094
G1 X121.789 Y47.996 E2.83219
G1 X127.939 Y49.06 E3.06793
G1 X130.054 Y49.829 E3.15293
G1 X131.472 Y50.946 E3.22111
G1 X132.758 Y52.793 E3.30612
G1 X133.335 Y55.177 E3.39877
G1 X133.684 Y63.167 E3.70085
G1 X137.758 Y217.463 E9.53077
G1 X137.76 Y226.657 E9.87804
G1 X137.67 Y227.729 E9.91867
G1 X135.253 Y241.912 E10.4621
G1 X134.021 Y244.731 E10.5783
G1 X133.831 Y244.977 E10.59004
G1 X132.166 Y246.49 E10.67502
G1 X129.209 Y247.451 E10.79246
G1 X122.704 Y247.879 E11.03869
G1 X115.59 Y247.879 E11.30739
G1 X109.02 Y247.451 E11.55607
G1 X106.836 Y246.907 E11.64108
G1 X104.827 Y245.487 E11.734
G1 X103.541 Y243.64 E11.81901
G1 X103.047 Y242.038 E11.88233
G1 X100.631 Y227.719 E12.43082
G1 X100.542 Y226.67 E12.47058
G1 X100.378 Y131.249 E16.07472
G1 X100.609 Y63.05 E18.65067
G1 X100.962 Y55.171 E18.94857
G1 X101.444 Y53.034 E19.03131
G1 E17.03131 F1800
G92 E0
G1 X109.916 Y215.585 F4200
G1 E2 F1800
G1 F720
G1 X128.4 Y215.589 E2.69816
G1 X128.774 Y215.678 E2.71268
G1 X129.29 Y215.959 E2.73487
G1 X130.693 Y217.362 E2.80981
G1 X130.914 Y217.704 E2.82519
G1 X131.052 Y218.09 E2.84067
G1 X131.076 Y226.062 E3.14178
G1 X130.992 Y226.394 E3.15472
G1 X130.711 Y226.909 E3.17688
G1 X129.29 Y228.33 E3.25278
G1 X128.772 Y228.612 E3.27506
G1 X128.36 Y228.704 E3.291
G1 X124.751 Y228.704 E3.42732
G1 X124.751 Y238.507 E3.79759
G1 X124.559 Y239.124 E3.822
G1 X124.377 Y239.403 E3.83458
G1 X122.974 Y240.812 E3.90968
G1 X122.633 Y241.031 E3.92499
G1 X122.185 Y241.182 E3.94285
G1 X116.243 Y241.204 E4.16729
G1 X115.58 Y240.99 E4.1936
G1 X115.319 Y240.81 E4.20558
G1 X113.937 Y239.427 E4.27943
G1 X113.71 Y239.07 E4.29541
G1 X113.552 Y238.56 E4.31558
G1 X113.544 Y228.704 E4.68785
G1 X109.945 Y228.704 E4.82379
G1 X109.584 Y228.631 E4.8377
G1 X109.013 Y228.331 E4.86206
G1 X107.591 Y226.909 E4.93802
G1 X107.291 Y226.342 E4.96225
G1 X107.217 Y225.979 E4.97624
G1 X107.217 Y218.283 E5.26692
G1 X107.43 Y217.621 E5.29319
G1 X107.611 Y217.361 E5.30516
G1 X108.993 Y215.978 E5.37901
G1 X109.35 Y215.752 E5.39497
G1 X109.858 Y215.602 E5.41498
G1 X109.945 Y215.964 F4200
G1 F720
G1 X128.378 Y215.967 E6.11121
G1 X128.62 Y216.025 E6.12061
G1 X129.043 Y216.248 E6.13867
G1 X130.411 Y217.616 E6.21174
G1 X130.565 Y217.853 E6.22242
G1 X130.684 Y218.187 E6.23581
G1 X130.698 Y226.039 E6.53239
G1 X130.647 Y226.237 E6.54011
G1 X130.422 Y226.662 E6.55827
G1 X129.043 Y228.041 E6.63193
G1 X128.62 Y228.265 E6.65001
G1 X128.341 Y228.325 E6.66079
G1 X124.372 Y228.325 E6.8107
G1 X124.372 Y238.476 E7.19411
G1 X124.209 Y238.978 E7.21405
G1 X124.076 Y239.174 E7.223
G1 X122.72 Y240.53 E7.29543
G1 X122.483 Y240.684 E7.30611
G1 X122.149 Y240.803 E7.3195
G1 X116.272 Y240.825 E7.54148
G1 X115.77 Y240.662 E7.56142
G1 X115.574 Y240.529 E7.57037
G1 X114.218 Y239.174 E7.64278
G1 X114.064 Y238.933 E7.65358
G1 X113.922 Y238.476 E7.67166
G1 X113.922 Y228.325 E8.05507
G1 X109.962 Y228.325 E8.20464
G1 X109.73 Y228.281 E8.21356
G1 X109.259 Y228.041 E8.23353
G1 X107.881 Y226.663 E8.30714
G1 X107.641 Y226.195 E8.32701
G1 X107.595 Y225.962 E8.33598
G1 X107.595 Y218.313 E8.62489
G1 X107.759 Y217.811 E8.64484
G1 X107.892 Y217.615 E8.65379
G1 X109.247 Y216.26 E8.72617
G1 X109.488 Y216.105 E8.73699
G1 X109.888 Y215.981 E8.75281
G1 X109.977 Y216.342 F4200
G1 F720
G1 X128.356 Y216.346 E9.447
G1 X128.471 Y216.373 E9.45146
G1 X128.798 Y216.538 E9.46529
G1 X130.13 Y217.87 E9.53644
G1 X130.216 Y218.002 E9.54239
G1 X130.317 Y218.284 E9.5537
G1 X130.324 Y225.975 E9.8442
G1 X130.297 Y226.09 E9.84866
G1 X130.132 Y226.417 E9.86249
G1 X128.798 Y227.751 E9.93375
G1 X128.473 Y227.915 E9.9475
G1 X128.322 Y227.947 E9.95333
G1 X123.994 Y227.947 E10.1168
G1 X123.994 Y238.443 E10.51324
G1 X123.861 Y238.827 E10.52859
G1 X123.798 Y238.917 E10.53274
G1 X122.466 Y240.249 E10.60389
G1 X122.334 Y240.335 E10.60984
G1 X122.052 Y240.436 E10.62115
G1 X116.305 Y240.447 E10.83822
G1 X115.921 Y240.314 E10.85357
G1 X115.831 Y240.251 E10.85772
G1 X114.499 Y238.919 E10.92887
G1 X114.414 Y238.79 E10.93471
G1 X114.301 Y238.444 E10.94846
G1 X114.301 Y227.947 E11.34494
G1 X109.977 Y227.947 E11.50826
G1 X109.868 Y227.928 E11.51244
G1 X109.503 Y227.75 E11.52778
G1 X108.17 Y226.417 E11.59898
G1 X108.006 Y226.092 E11.61273
G1 X107.974 Y225.941 E11.61856
G1 X107.974 Y218.347 E11.90539
G1 X108.106 Y217.962 E11.92076
G1 X108.17 Y217.872 E11.92493
G1 X109.502 Y216.541 E11.99605
G1 X109.631 Y216.456 E12.00189
G1 X109.92 Y216.361 E12.01338
G1 X110.012 Y216.721 F4200
G1 F720
G1 X128.304 Y216.721 E12.70428
G1 X128.555 Y216.831 E12.71463
G1 X129.868 Y218.152 E12.78498
G1 X129.95 Y218.38 E12.79413
G1 X129.95 Y225.923 E13.07904
G1 X129.84 Y226.174 E13.08939
G1 X128.555 Y227.458 E13.158
G1 X128.336 Y227.562 E13.16716
G1 X123.615 Y227.568 E13.34548
G1 X123.615 Y238.409 E13.75495
G1 X123.515 Y238.664 E13.7653
G1 X122.184 Y239.987 E13.83618
G1 X121.955 Y240.068 E13.84535
G1 X116.339 Y240.068 E14.05747
G1 X116.084 Y239.969 E14.0678
G1 X114.761 Y238.637 E14.13871
G1 X114.679 Y238.409 E14.14786
G1 X114.679 Y227.568 E14.55733
G1 X109.966 Y227.562 E14.73534
G1 X109.747 Y227.458 E14.7445
G1 X108.462 Y226.174 E14.81311
G1 X108.359 Y225.955 E14.82225
G1 X108.352 Y218.38 E15.10836
G1 X108.452 Y218.125 E15.11871
G1 X109.757 Y216.821 E15.18839
G1 X109.956 Y216.741 E15.19649
G1 X110.054 Y217.099 F4200
G1 F720
G1 X128.248 Y217.099 E15.88369
G1 X128.317 Y217.128 E15.88652
G1 X129.542 Y218.353 E15.95195
G1 X129.571 Y218.423 E15.95481
G1 X129.571 Y225.867 E16.23598
G1 X129.542 Y225.936 E16.23881
G1 X128.317 Y227.161 E16.30424
G1 X128.248 Y227.19 E16.30707
G1 X123.237 Y227.19 E16.49634
G1 X123.237 Y238.367 E16.9185
G1 X123.208 Y238.436 E16.92133
G1 X121.983 Y239.661 E16.98676
G1 X121.913 Y239.69 E16.98962
G1 X116.381 Y239.69 E17.19857
G1 X116.312 Y239.661 E17.2014
G1 X115.087 Y238.436 E17.26683
G1 X115.058 Y238.367 E17.26966
G1 X115.058 Y227.19 E17.69182
G1 X110.054 Y227.19 E17.88083
G1 X109.985 Y227.161 E17.88366
G1 X108.76 Y225.936 E17.94909
G1 X108.731 Y225.867 E17.95192
G1 X108.731 Y218.423 E18.23309
G1 X108.76 Y218.353 E18.23595
G1 X109.999 Y217.122 E18.30192
G1 E16.30192 F1800
G92 E0
G1 X109.999 Y142.609 F4200
G1 E2 F1800
G1 F720
G1 X109.752 Y142.609 E2.00933
G1 X109.185 Y142.443 E2.03165
G1 X108.861 Y142.241 E2.04607
G1 X107.448 Y140.834 E2.12139
G1 X107.294 Y140.625 E2.1312
G1 X107.054 Y139.911 E2.15965
G1 X107.062 Y131.846 E2.46427
G1 X107.219 Y131.336 E2.48443
G1 X107.446 Y130.979 E2.50041
G1 X108.829 Y129.597 E2.57426
G1 X109.038 Y129.444 E2.58404
G1 X109.752 Y129.203 E2.6125
G1 X124.102 Y129.206 E3.15451
G1 X124.477 Y129.296 E3.16908
G1 X124.992 Y129.577 E3.19124
G1 X126.395 Y130.979 E3.26616
G1 X126.621 Y131.335 E3.28209
G1 X126.787 Y131.901 E3.30437
G1 X126.768 Y140.028 E3.61133
G1 X126.621 Y140.479 E3.62925
G1 X126.395 Y140.833 E3.64511
G1 X125.012 Y142.215 E3.71896
G1 X124.803 Y142.369 E3.72877
G1 X124.089 Y142.609 E3.75722
G1 X110.059 Y142.609 E4.28715
G1 X110.059 Y142.231 F4200
G1 F720
G1 X109.782 Y142.231 E4.29761
G1 X109.324 Y142.09 E4.31571
G1 X109.084 Y141.935 E4.3265
G1 X107.727 Y140.578 E4.39899
G1 X107.618 Y140.427 E4.40602
G1 X107.432 Y139.88 E4.42784
G1 X107.432 Y131.931 E4.72808
G1 X107.573 Y131.473 E4.74618
G1 X107.728 Y131.233 E4.75697
G1 X109.085 Y129.876 E4.82946
G1 X109.236 Y129.767 E4.83649
G1 X109.783 Y129.581 E4.85831
G1 X124.08 Y129.585 E5.39832
G1 X124.323 Y129.642 E5.40775
G1 X124.745 Y129.865 E5.42578
G1 X126.113 Y131.233 E5.49885
G1 X126.268 Y131.473 E5.50964
G1 X126.409 Y131.931 E5.52774
G1 X126.399 Y139.939 E5.83021
G1 X126.268 Y140.337 E5.84604
G1 X126.113 Y140.579 E5.85689
G1 X124.756 Y141.936 E5.92938
G1 X124.605 Y142.045 E5.93641
G1 X124.058 Y142.231 E5.95823
G1 X110.119 Y142.231 E6.48472
G1 X110.119 Y141.852 F4200
G1 F720
G1 X109.814 Y141.852 E6.49624
G1 X109.468 Y141.739 E6.50999
G1 X109.338 Y141.654 E6.51586
G1 X108.007 Y140.322 E6.58698
G1 X107.943 Y140.232 E6.59115
G1 X107.811 Y139.848 E6.60649
G1 X107.811 Y131.963 E6.90431
G1 X107.924 Y131.617 E6.91806
G1 X108.009 Y131.487 E6.92393
G1 X109.341 Y130.156 E6.99505
G1 X109.431 Y130.092 E6.99922
G1 X109.815 Y129.96 E7.01456
G1 X124.059 Y129.963 E7.55257
G1 X124.174 Y129.99 E7.55703
G1 X124.5 Y130.156 E7.57085
G1 X125.832 Y131.487 E7.64197
G1 X125.917 Y131.617 E7.64784
G1 X126.03 Y131.963 E7.66159
G1 X126.03 Y139.849 E7.95945
G1 X125.917 Y140.195 E7.9732
G1 X125.832 Y140.325 E7.97907
G1 X124.5 Y141.656 E8.05019
G1 X124.41 Y141.72 E8.05436
G1 X124.026 Y141.852 E8.0697
G1 X110.179 Y141.852 E8.59271
G1 X110.179 Y141.474 F4200
G1 F720
G1 X109.849 Y141.474 E8.60517
G1 X109.593 Y141.374 E8.61555
G1 X108.289 Y140.07 E8.6852
G1 X108.189 Y139.814 E8.69558
G1 X108.189 Y131.998 E8.9908
G1 X108.289 Y131.743 E9.00115
G1 X109.621 Y130.42 E9.07206
G1 X109.849 Y130.338 E9.08121
G1 X124.006 Y130.338 E9.61593
G1 X124.258 Y130.448 E9.62632
G1 X125.57 Y131.77 E9.69667
G1 X125.652 Y131.998 E9.70582
G1 X125.652 Y139.814 E10.00104
G1 X125.552 Y140.07 E10.01142
G1 X124.22 Y141.392 E10.0823
G1 X123.992 Y141.474 E10.09145
G1 X110.239 Y141.474 E10.61091
G1 X110.239 Y141.095 F4200
G1 F720
G1 X109.891 Y141.095 E10.62405
G1 X109.821 Y141.066 E10.62691
G1 X108.597 Y139.842 E10.69229
G1 X108.568 Y139.772 E10.69515
G1 X108.568 Y132.04 E10.98719
G1 X108.597 Y131.97 E10.99005
G1 X109.821 Y130.746 E11.05543
G1 X109.891 Y130.717 E11.05829
G1 X123.95 Y130.717 E11.58931
G1 X124.02 Y130.746 E11.59217
G1 X125.244 Y131.97 E11.65755
G1 X125.273 Y132.04 E11.66041
G1 X125.273 Y139.772 E11.95245
G1 X125.244 Y139.842 E11.95531
G1 X124.02 Y141.066 E12.02069
G1 X123.95 Y141.095 E12.02355
G1 X110.299 Y141.095 E12.53916
G1 E10.53916 F1800
G92 E0
G1 X110.299 Y69.984 F4200
G1 E2 F1800
G1 F720
G1 X109.976 Y69.984 E2.0122
G1 X109.411 Y69.818 E2.03444
G1 X109.156 Y69.673 E2.04552
G1 X107.652 Y68.19 E2.1253
G1 X107.317 Y67.513 E2.15383
G1 X107.277 Y67.258 E2.16358
G1 X107.277 Y64.015 E2.28607
G1 X107.317 Y63.76 E2.29582
G1 X107.652 Y63.084 E2.32432
G1 X109.169 Y61.593 E2.40466
G1 X109.593 Y61.379 E2.4226
G1 X109.921 Y61.298 E2.43536
G1 X111.541 Y61.289 E2.49655
G1 X111.541 Y57.276 E2.64812
G1 X111.707 Y56.712 E2.67033
G1 X111.853 Y56.456 E2.68146
G1 X113.317 Y54.971 E2.76022
G1 X113.66 Y54.749 E2.77565
G1 X114.045 Y54.611 E2.7911
G1 X120.152 Y54.592 E3.02177
G1 X120.436 Y54.67 E3.03289
G1 X120.952 Y54.952 E3.0551
G1 X122.375 Y56.374 E3.13108
G1 X122.675 Y56.944 E3.15541
G1 X122.748 Y57.306 E3.16936
G1 X122.748 Y61.288 E3.31976
G1 X124.325 Y61.293 E3.37932
G1 X124.698 Y61.38 E3.39379
G1 X125.172 Y61.63 E3.41403
G1 X126.618 Y63.065 E3.49098
G1 X126.822 Y63.374 E3.50497
G1 X127.011 Y63.987 E3.5292
G1 X127.011 Y67.286 E3.65381
G1 X126.845 Y67.85 E3.67602
G1 X126.7 Y68.106 E3.68713
G1 X125.171 Y69.642 E3.76899
G1 X124.879 Y69.818 E3.78187
G1 X124.313 Y69.984 E3.80415
G1 X110.359 Y69.984 E4.3312
G1 X110.359 Y69.606 F4200
G1 F720
G1 X110.006 Y69.606 E4.34453
G1 X109.547 Y69.464 E4.36268
G1 X109.37 Y69.36 E4.37043
G1 X107.941 Y67.943 E4.44644
G1 X107.686 Y67.425 E4.46825
G1 X107.656 Y67.242 E4.47525
G1 X107.656 Y64.031 E4.59653
G1 X107.686 Y63.848 E4.60353
G1 X107.941 Y63.33 E4.62534
G1 X109.366 Y61.918 E4.70111
G1 X109.742 Y61.728 E4.71702
G1 X109.985 Y61.671 E4.72645
G1 X112.032 Y61.667 E4.80377
G1 X111.919 Y61.259 E4.81976
G1 X111.919 Y57.306 E4.96907
G1 X112.061 Y56.847 E4.98722
G1 X112.166 Y56.67 E4.99499
G1 X113.571 Y55.252 E5.07039
G1 X113.809 Y55.098 E5.0811
G1 X114.142 Y54.978 E5.09447
G1 X120.082 Y54.965 E5.31883
G1 X120.281 Y55.016 E5.32659
G1 X120.706 Y55.24 E5.34474
G1 X122.085 Y56.619 E5.4184
G1 X122.325 Y57.09 E5.43837
G1 X122.369 Y57.323 E5.44733
G1 X122.369 Y61.667 E5.61141
G1 X124.267 Y61.667 E5.6831
G1 X124.546 Y61.728 E5.69389
G1 X124.969 Y61.952 E5.71197
G1 X126.338 Y63.321 E5.7851
G1 X126.471 Y63.518 E5.79408
G1 X126.633 Y64.018 E5.81393
G1 X126.633 Y67.256 E5.93623
G1 X126.491 Y67.715 E5.95438
G1 X126.387 Y67.892 E5.96213
G1 X124.951 Y69.334 E6.039
G1 X124.742 Y69.464 E6.0483
G1 X124.283 Y69.606 E6.06645
G1 X110.419 Y69.606 E6.59011
G1 X110.419 Y69.227 F4200
G1 F720
G1 X110.037 Y69.227 E6.60454
G1 X109.69 Y69.113 E6.61834
G1 X109.589 Y69.051 E6.62282
G1 X108.231 Y67.698 E6.69523
G1 X108.053 Y67.333 E6.71057
G1 X108.034 Y67.224 E6.71475
G1 X108.034 Y64.049 E6.83467
G1 X108.053 Y63.94 E6.83885
G1 X108.231 Y63.575 E6.85419
G1 X109.564 Y62.242 E6.92539
G1 X109.889 Y62.078 E6.93914
G1 X110.041 Y62.046 E6.94501
G1 X112.754 Y62.046 E7.04748
G1 X112.411 Y61.567 E7.06973
G1 X112.298 Y61.224 E7.08337
G1 X112.298 Y57.338 E7.23015
G1 X112.412 Y56.99 E7.24398
G1 X112.474 Y56.889 E7.24846
G1 X113.826 Y55.533 E7.32079
G1 X113.957 Y55.447 E7.32671
G1 X114.239 Y55.346 E7.33802
G1 X120.019 Y55.338 E7.55634
G1 X120.134 Y55.365 E7.5608
G1 X120.461 Y55.531 E7.57465
G1 X121.794 Y56.864 E7.64585
G1 X121.972 Y57.229 E7.66119
G1 X121.991 Y57.338 E7.66537
G1 X121.991 Y62.046 E7.8432
G1 X124.248 Y62.046 E7.92845
G1 X124.4 Y62.078 E7.93432
G1 X124.724 Y62.242 E7.94804
G1 X126.056 Y63.573 E8.01916
G1 X126.141 Y63.703 E8.02503
G1 X126.254 Y64.049 E8.03878
G1 X126.254 Y67.224 E8.1587
G1 X126.14 Y67.572 E8.17253
G1 X126.078 Y67.673 E8.17701
G1 X124.726 Y69.029 E8.24934
G1 X124.597 Y69.114 E8.25518
G1 X124.251 Y69.227 E8.26893
G1 X110.479 Y69.227 E8.78911
G1 X110.479 Y68.849 F4200
G1 F720
G1 X110.073 Y68.849 E8.80444
G1 X109.817 Y68.749 E8.81482
G1 X108.523 Y67.455 E8.88394
G1 X108.419 Y67.235 E8.89313
G1 X108.413 Y64.07 E9.01267
G1 X108.523 Y63.819 E9.02302
G1 X109.807 Y62.534 E9.09163
G1 X110.026 Y62.431 E9.10077
G1 X113.769 Y62.424 E9.24215
G1 X112.777 Y61.445 E9.29479
G1 X112.677 Y61.189 E9.30517
G1 X112.677 Y57.373 E9.4493
G1 X112.776 Y57.117 E9.45967
G1 X114.081 Y55.813 E9.52935
G1 X114.336 Y55.713 E9.5397
G1 X119.967 Y55.713 E9.75239
G1 X120.218 Y55.823 E9.76274
G1 X121.502 Y57.107 E9.83133
G1 X121.606 Y57.327 E9.84052
G1 X121.612 Y62.424 E10.03304
G1 X124.262 Y62.431 E10.13313
G1 X124.481 Y62.534 E10.14227
G1 X125.776 Y63.829 E10.21144
G1 X125.876 Y64.084 E10.22179
G1 X125.876 Y67.189 E10.33907
G1 X125.776 Y67.444 E10.34942
G1 X124.471 Y68.749 E10.41913
G1 X124.216 Y68.849 E10.42948
