; generated by CreatWare 7.0.0 on 2022-07-05 at 23:43:08 UTC

; 

; external perimeters extrusion width = 0.40mm
; perimeters extrusion width = 0.40mm
; infill extrusion width = 0.40mm
; solid infill extrusion width = 0.40mm
; top infill extrusion width = 0.40mm
; support material extrusion width = 0.40mm

; external perimeters extrusion width = 0.40mm
; perimeters extrusion width = 0.40mm
; infill extrusion width = 0.40mm
; solid infill extrusion width = 0.40mm
; top infill extrusion width = 0.40mm
; support material extrusion width = 0.40mm

G21 ; set units to millimeters
G90 ; use absolute coordinates
M82 ; use absolute distances for extrusion
G92 E0
M107
M190 S45 ; set bed temperature and wait for it to be reached
M104 S210 ; set temperature
;TYPE:Custom
M109 S210 ; set temperature and wait for it to be reached
M6013 S0 ; set chamber temp

G28 X0 Y0  ;move X/Y to min endstops
G28 Z0     ;move Z to min endstops

;Add Clear Nozzle
G92 E0                   ;zero the extruded length again
G0 F4200 X0 Y0
G0 F400 X10 Z0.4         ;move a bit while down the Z
M221 T0 S300             ;set flow is 300%
G1 F200 X30 E8          ;extrude amont filament to clean the hotend
M221 T0 S100             ;reset flow is 100%
G92 E0                   ;zero the extruded length again
;Add End

G0 Z15.0 F4200 ;move the platform down 15mm

;Put printing message on LCD screen
M117 Printing...
; Filament gcode
M107
;LAYER_CHANGE
;Layer 1
;Z:0.1
;HEIGHT:0.1
;BEFORE_LAYER_CHANGE
;0.1


G1 Z.1 F4200
;AFTER_LAYER_CHANGE
;G92 E0   ;zero the extruded length again
;0.1
G1 E-2 F1800
G92 E0
G1 X178.421 Y102.093 F4200
G1 E2 F1800
;TYPE:Skirt/Brim
;WIDTH:0.4
G1 F720
G1 X179.89 Y99.805 E2.05135
G1 X182.233 Y97.462 E2.11393
G1 X184.08 Y96.176 E2.15643
G1 X186.743 Y95.593 E2.20791
G1 X202.384 Y95.593 E2.5033
G1 X204.599 Y95.99 E2.5458
G1 X206.894 Y97.462 E2.59729
G1 X209.238 Y99.805 E2.65988
G1 X210.523 Y101.651 E2.70236
G1 X211.103 Y104.115 E2.75017
G1 X215.084 Y230.793 E5.14372
G1 X215.087 Y240.019 E5.31796
G1 X214.997 Y241.091 E5.33828
G1 X212.58 Y255.274 E5.60999
G1 X211.348 Y258.092 E5.66807
G1 X209.493 Y259.852 E5.71636
G1 X206.536 Y260.813 E5.77508
G1 X200.464 Y261.226 E5.89002
G1 X192.917 Y261.241 E6.03255
G1 X186.347 Y260.813 E6.15689
G1 X184.164 Y260.269 E6.19938
G1 X182.265 Y258.96 E6.24294
G1 X180.868 Y257.002 E6.28836
G1 X180.374 Y255.4 E6.32002
G1 X177.958 Y241.081 E6.59426
G1 X177.869 Y240.019 E6.61439
G1 X178.022 Y104.307 E9.17737
G1 X178.411 Y102.152 E9.21873
G1 E7.21873 F1800
G92 E0
G1 X184.863 Y104.402 F4200
G1 E2 F1800
G1 F720
G1 X185.09 Y104.045 E2.00799
G1 X186.472 Y102.662 E2.04491
G1 X186.681 Y102.509 E2.0498
G1 X187.395 Y102.268 E2.06403
G1 X201.746 Y102.272 E2.33505
G1 X202.12 Y102.361 E2.34231
G1 X202.635 Y102.643 E2.3534
G1 X204.038 Y104.045 E2.39086
G1 X204.264 Y104.401 E2.39882
G1 X204.431 Y104.967 E2.40996
G1 X204.412 Y113.094 E2.56344
G1 X204.264 Y113.544 E2.57239
G1 X204.038 Y113.898 E2.58032
G1 X202.655 Y115.281 E2.61726
G1 X202.447 Y115.434 E2.62214
G1 X201.732 Y115.675 E2.63639
G1 X187.395 Y115.675 E2.90715
G1 X186.829 Y115.508 E2.91829
G1 X186.504 Y115.307 E2.92551
G1 X185.091 Y113.9 E2.96317
G1 X184.938 Y113.691 E2.96806
G1 X184.697 Y112.977 E2.98229
G1 X184.705 Y104.912 E3.1346
G1 X184.845 Y104.46 E3.14354
G1 X185.207 Y104.571 F4200
G1 F720
G1 X185.371 Y104.299 E3.14954
G1 X186.729 Y102.941 E3.18581
G1 X186.879 Y102.833 E3.1893
G1 X187.426 Y102.647 E3.20021
G1 X201.724 Y102.651 E3.47023
G1 X201.966 Y102.708 E3.47493
G1 X202.389 Y102.931 E3.48396
G1 X203.756 Y104.299 E3.52048
G1 X203.911 Y104.539 E3.52588
G1 X204.052 Y104.997 E3.53493
G1 X204.043 Y113.005 E3.68616
G1 X203.912 Y113.403 E3.69407
G1 X203.756 Y113.645 E3.69951
G1 X202.399 Y115.002 E3.73575
G1 X202.249 Y115.111 E3.73925
G1 X201.701 Y115.297 E3.75018
G1 X187.425 Y115.297 E4.01979
G1 X186.967 Y115.155 E4.02885
G1 X186.727 Y115.001 E4.03424
G1 X185.37 Y113.644 E4.07048
G1 X185.261 Y113.493 E4.074
G1 X185.075 Y112.946 E4.08491
G1 X185.075 Y104.997 E4.23503
G1 X185.189 Y104.629 E4.24231
G1 X185.547 Y104.746 F4200
G1 F720
G1 X185.652 Y104.553 E4.24646
G1 X186.984 Y103.221 E4.28204
G1 X187.074 Y103.158 E4.28411
G1 X187.458 Y103.025 E4.29178
G1 X201.702 Y103.029 E4.56078
G1 X201.817 Y103.056 E4.56301
G1 X202.144 Y103.221 E4.56993
G1 X203.475 Y104.553 E4.60549
G1 X203.56 Y104.683 E4.60842
G1 X203.674 Y105.028 E4.61528
G1 X203.674 Y112.915 E4.76423
G1 X203.56 Y113.261 E4.77111
G1 X203.475 Y113.391 E4.77404
G1 X202.144 Y114.722 E4.80959
G1 X202.053 Y114.786 E4.81169
G1 X201.669 Y114.918 E4.81936
G1 X187.457 Y114.918 E5.08776
G1 X187.111 Y114.805 E5.09463
G1 X186.982 Y114.72 E5.09755
G1 X185.65 Y113.388 E5.13313
G1 X185.586 Y113.298 E5.13522
G1 X185.454 Y112.914 E5.14289
G1 X185.454 Y105.028 E5.29182
G1 X185.528 Y104.803 E5.29629
G1 X185.881 Y104.929 F4200
G1 F720
G1 X185.932 Y104.808 E5.29877
G1 X187.237 Y103.504 E5.33361
G1 X187.492 Y103.404 E5.33878
G1 X201.682 Y103.41 E5.60676
G1 X201.901 Y103.514 E5.61134
G1 X203.195 Y104.808 E5.6459
G1 X203.295 Y105.064 E5.65109
G1 X203.295 Y112.88 E5.7987
G1 X203.213 Y113.108 E5.80328
G1 X201.891 Y114.44 E5.83872
G1 X201.635 Y114.54 E5.84391
G1 X187.492 Y114.54 E6.11101
G1 X187.264 Y114.458 E6.11559
G1 X185.932 Y113.135 E6.15105
G1 X185.832 Y112.88 E6.15622
G1 X185.832 Y105.064 E6.30383
G1 X185.86 Y104.986 E6.3054
G1 X186.211 Y105.106 F4200
G1 F720
G1 X186.24 Y105.036 E6.30683
G1 X187.465 Y103.811 E6.33955
G1 X187.534 Y103.783 E6.34096
G1 X201.593 Y103.783 E6.60647
G1 X201.663 Y103.811 E6.60789
G1 X202.888 Y105.036 E6.64061
G1 X202.916 Y105.106 E6.64203
G1 X202.916 Y112.838 E6.78805
G1 X202.888 Y112.907 E6.78946
G1 X201.663 Y114.132 E6.82218
G1 X201.593 Y114.161 E6.82361
G1 X187.534 Y114.161 E7.08912
G1 X187.465 Y114.132 E7.09053
G1 X186.24 Y112.907 E7.12325
G1 X186.211 Y112.838 E7.12466
G1 X186.211 Y105.166 E7.26955
G1 E5.26955 F1800
G92 E0
G1 X187.243 Y228.947 F4200
G1 E2 F1800
G1 F720
G1 X205.727 Y228.951 E2.34908
G1 X206.102 Y229.04 E2.35636
G1 X206.617 Y229.321 E2.36744
G1 X208.02 Y230.724 E2.40491
G1 X208.241 Y231.066 E2.4126
G1 X208.379 Y231.452 E2.42034
G1 X208.404 Y239.424 E2.5709
G1 X208.319 Y239.756 E2.57737
G1 X208.038 Y240.271 E2.58845
G1 X206.617 Y241.692 E2.6264
G1 X206.099 Y241.974 E2.63754
G1 X205.687 Y242.066 E2.64551
G1 X202.078 Y242.066 E2.71367
G1 X202.078 Y251.869 E2.8988
G1 X201.886 Y252.485 E2.91099
G1 X201.705 Y252.765 E2.91729
G1 X200.301 Y254.173 E2.95484
G1 X199.96 Y254.393 E2.9625
G1 X199.512 Y254.543 E2.97142
G1 X193.57 Y254.566 E3.08364
G1 X192.907 Y254.352 E3.0968
G1 X192.646 Y254.172 E3.10279
G1 X191.264 Y252.789 E3.13971
G1 X191.037 Y252.432 E3.1477
G1 X190.879 Y251.922 E3.15778
G1 X190.871 Y242.066 E3.34391
G1 X187.272 Y242.066 E3.41188
G1 X186.911 Y241.993 E3.41884
G1 X186.34 Y241.693 E3.43102
G1 X184.918 Y240.271 E3.469
G1 X184.618 Y239.704 E3.48111
G1 X184.544 Y239.341 E3.48811
G1 X184.544 Y231.645 E3.63345
G1 X184.757 Y230.983 E3.64658
G1 X184.938 Y230.722 E3.65258
G1 X186.321 Y229.34 E3.6895
G1 X186.677 Y229.114 E3.69746
G1 X187.185 Y228.964 E3.70746
G1 X187.272 Y229.326 F4200
G1 F720
G1 X205.705 Y229.329 E4.05558
G1 X205.947 Y229.386 E4.06028
G1 X206.37 Y229.61 E4.06932
G1 X207.738 Y230.978 E4.10586
G1 X207.892 Y231.215 E4.1112
G1 X208.011 Y231.549 E4.1179
G1 X208.025 Y239.401 E4.26619
G1 X207.974 Y239.599 E4.27005
G1 X207.749 Y240.024 E4.27913
G1 X206.37 Y241.403 E4.31596
G1 X205.947 Y241.627 E4.325
G1 X205.668 Y241.687 E4.33039
G1 X201.699 Y241.687 E4.40535
G1 X201.699 Y251.838 E4.59706
G1 X201.536 Y252.34 E4.60703
G1 X201.403 Y252.536 E4.6115
G1 X200.047 Y253.892 E4.64772
G1 X199.81 Y254.045 E4.65305
G1 X199.476 Y254.165 E4.65975
G1 X193.599 Y254.187 E4.77074
G1 X193.097 Y254.024 E4.78071
G1 X192.901 Y253.891 E4.78518
G1 X191.545 Y252.535 E4.8214
G1 X191.391 Y252.295 E4.82679
G1 X191.249 Y251.838 E4.83583
G1 X191.249 Y241.687 E5.02754
G1 X187.289 Y241.687 E5.10233
G1 X187.057 Y241.643 E5.10679
G1 X186.586 Y241.403 E5.11677
G1 X185.208 Y240.025 E5.15357
G1 X184.968 Y239.557 E5.1635
G1 X184.922 Y239.323 E5.168
G1 X184.922 Y231.675 E5.31244
G1 X185.086 Y231.173 E5.32241
G1 X185.219 Y230.977 E5.32688
G1 X186.574 Y229.621 E5.36308
G1 X186.815 Y229.467 E5.36848
G1 X187.215 Y229.343 E5.37639
G1 X187.304 Y229.704 F4200
G1 F720
G1 X205.683 Y229.708 E5.72349
G1 X205.798 Y229.735 E5.72572
G1 X206.125 Y229.9 E5.73264
G1 X207.457 Y231.232 E5.76822
G1 X207.543 Y231.364 E5.7712
G1 X207.644 Y231.645 E5.77684
G1 X207.651 Y239.337 E5.92211
G1 X207.624 Y239.452 E5.92434
G1 X207.459 Y239.779 E5.93126
G1 X206.125 Y241.113 E5.96689
G1 X205.801 Y241.277 E5.97375
G1 X205.649 Y241.309 E5.97668
G1 X201.321 Y241.309 E6.05842
G1 X201.321 Y251.804 E6.25662
G1 X201.188 Y252.189 E6.26431
G1 X201.125 Y252.279 E6.26638
G1 X199.793 Y253.61 E6.30194
G1 X199.661 Y253.697 E6.30493
G1 X199.379 Y253.798 E6.31059
G1 X193.632 Y253.809 E6.41912
G1 X193.248 Y253.676 E6.42679
G1 X193.158 Y253.613 E6.42886
G1 X191.826 Y252.281 E6.46444
G1 X191.741 Y252.151 E6.46737
G1 X191.628 Y251.806 E6.47423
G1 X191.628 Y241.309 E6.67247
G1 X187.304 Y241.309 E6.75413
G1 X187.195 Y241.29 E6.75622
G1 X186.83 Y241.112 E6.76389
G1 X185.497 Y239.779 E6.79949
G1 X185.333 Y239.454 E6.80636
G1 X185.301 Y239.302 E6.80929
G1 X185.301 Y231.709 E6.95269
G1 X185.434 Y231.324 E6.96038
G1 X185.497 Y231.234 E6.96245
G1 X186.829 Y229.902 E6.99803
G1 X186.958 Y229.818 E7.00094
G1 X187.247 Y229.723 E7.00669
G1 X187.339 Y230.083 F4200
G1 F720
G1 X205.631 Y230.083 E7.35214
G1 X205.882 Y230.193 E7.35732
G1 X207.195 Y231.514 E7.39249
G1 X207.277 Y231.742 E7.39707
G1 X207.277 Y239.285 E7.53952
G1 X207.167 Y239.536 E7.5447
G1 X205.882 Y240.82 E7.57901
G1 X205.663 Y240.924 E7.58359
G1 X200.942 Y240.93 E7.67275
G1 X200.942 Y251.771 E7.87749
G1 X200.842 Y252.026 E7.88266
G1 X199.511 Y253.348 E7.91809
G1 X199.282 Y253.43 E7.92268
G1 X193.666 Y253.43 E8.02874
G1 X193.411 Y253.33 E8.03391
G1 X192.088 Y251.999 E8.06935
G1 X192.007 Y251.771 E8.07392
G1 X192.007 Y240.93 E8.27866
G1 X187.293 Y240.924 E8.36769
G1 X187.074 Y240.82 E8.37227
G1 X185.789 Y239.536 E8.40658
G1 X185.686 Y239.317 E8.41115
G1 X185.68 Y231.742 E8.55421
G1 X185.779 Y231.487 E8.55938
G1 X187.084 Y230.183 E8.59422
G1 X187.283 Y230.103 E8.59827
G1 X187.381 Y230.461 F4200
G1 F720
G1 X205.575 Y230.461 E8.94187
G1 X205.644 Y230.49 E8.94328
G1 X206.869 Y231.715 E8.976
G1 X206.898 Y231.784 E8.97741
G1 X206.898 Y239.229 E9.11801
G1 X206.869 Y239.298 E9.11942
G1 X205.644 Y240.523 E9.15214
G1 X205.575 Y240.552 E9.15355
G1 X200.564 Y240.552 E9.24818
G1 X200.564 Y251.729 E9.45926
G1 X200.535 Y251.798 E9.46067
G1 X199.31 Y253.023 E9.49339
G1 X199.24 Y253.052 E9.49482
G1 X193.708 Y253.052 E9.59929
G1 X193.639 Y253.023 E9.6007
G1 X192.414 Y251.798 E9.63342
G1 X192.385 Y251.729 E9.63483
G1 X192.385 Y240.552 E9.84591
G1 X187.381 Y240.552 E9.94041
G1 X187.312 Y240.523 E9.94182
G1 X186.087 Y239.298 E9.97454
G1 X186.058 Y239.229 E9.97595
G1 X186.058 Y231.784 E10.11655
G1 X186.087 Y231.715 E10.11796
G1 X187.326 Y230.484 E10.15094
G1 E8.15094 F1800
G92 E0
G1 X195.934 Y116.172 F4200
G1 E2 F1800
;TYPE:Support material
G1 F720
G1 X198.435 Y116.172 E2.04723
G1 X198.435 Y116.967 E2.06224
G1 X204.192 Y116.967 E2.17096
G1 X204.192 Y127.581 E2.37141
G1 X184.943 Y127.581 E2.73494
G1 X184.943 Y116.967 E2.93539
G1 X190.7 Y116.967 E3.04411
G1 X190.7 Y116.172 E3.05912
G1 X193.189 Y116.172 E3.10613
G1 X193.701 Y116.114 E3.11586
G1 X193.955 Y116.172 E3.12078
G1 X195.168 Y116.172 E3.14369
G1 X195.679 Y116.114 E3.1534
G1 X195.879 Y116.159 E3.15727
G1 X202.138 Y127.411 F4200
G1 F720
G1 X202.138 Y117.308 E3.34807
G1 X200.246 Y117.308 E3.3838
G1 X200.246 Y127.24 E3.57137
G1 X198.353 Y127.24 E3.60712
G1 X198.353 Y117.308 E3.79469
G1 X198.094 Y117.308 E3.79958
G1 X198.094 Y116.513 E3.81459
G1 X196.46 Y116.513 E3.84545
G1 X196.46 Y127.24 E4.04803
G1 X194.567 Y127.24 E4.08378
G1 X194.567 Y116.513 E4.28636
G1 X193.917 Y116.513 E4.29864
G1 X193.681 Y116.459 E4.30321
G1 X193.209 Y116.513 E4.31218
G1 X192.675 Y116.513 E4.32226
G1 X192.675 Y127.24 E4.52484
G1 X190.782 Y127.24 E4.56059
G1 X190.782 Y117.308 E4.74816
G1 X188.889 Y117.308 E4.78391
G1 X188.889 Y127.24 E4.97148
G1 X186.997 Y127.24 E5.00721
G1 X186.997 Y117.138 E5.19799
G1 E3.19799 F1800
G92 E0
G1 X199.593 Y106.304 F4200
G1 E2 F1800
;TYPE:Solid infill
;WIDTH:0.417278
G1 F432
G1 X200.224 Y106.936 E2.01764
G1 X200.224 Y107.496 E2.0287
G1 X199.203 Y106.475 E2.05721
G1 X198.644 Y106.475 E2.06825
G1 X200.224 Y108.055 E2.11237
G1 X200.224 Y108.615 E2.12343
G1 X198.084 Y106.475 E2.18319
G1 X197.524 Y106.475 E2.19425
G1 X200.224 Y109.175 E2.26965
G1 X200.224 Y109.735 E2.28071
G1 X199.587 Y109.097 E2.29851
G1 X199.603 Y108.978 E2.30088
G1 X199.568 Y108.717 E2.30608
G1 X199.468 Y108.474 E2.31127
G1 X199.308 Y108.266 E2.31645
G1 X199.099 Y108.106 E2.32165
G1 X198.847 Y108.001 E2.32704
G1 X198.563 Y107.975 E2.33267
G1 X198.476 Y107.986 E2.3344
G1 X196.964 Y106.475 E2.37661
G1 X196.46 Y106.475 E2.38656
G1 X196.46 Y106.53 E2.38765
G1 X198.06 Y108.13 E2.43233
G1 X197.883 Y108.266 E2.43674
G1 X197.776 Y108.406 E2.44022
G1 X196.46 Y107.09 E2.47697
G1 X196.46 Y107.649 E2.48801
G1 X197.763 Y108.953 E2.52441
G1 E.52441 F1800
G92 E0
G1 X199.321 Y109.391 F4200
G1 E2 F1800
G1 F432
G1 X200.224 Y110.294 E2.02522
G1 X200.224 Y110.854 E2.03628
G1 X199.168 Y109.797 E2.06578
G1 X199.099 Y109.85 E2.0675
G1 X198.856 Y109.951 E2.0727
G1 X198.772 Y109.962 E2.07437
G1 X200.224 Y111.414 E2.11492
G1 X200.224 Y111.469 E2.11601
G1 X199.72 Y111.469 E2.12596
G1 X196.46 Y108.209 E2.217
G1 X196.46 Y108.769 E2.22806
G1 X199.16 Y111.469 E2.30346
G1 X198.6 Y111.469 E2.31452
G1 X196.46 Y109.329 E2.37428
G1 X196.46 Y109.888 E2.38532
G1 X198.04 Y111.469 E2.42946
G1 X197.481 Y111.469 E2.4405
G1 X196.46 Y110.448 E2.46901
G1 X196.46 Y111.008 E2.48007
G1 X197.091 Y111.639 E2.49769
G1 E.49769 F1800
G92 E0
G1 X196.157 Y111.772 F4200
G1 E2 F1800
;TYPE:External perimeter
;WIDTH:0.4
G1 F270
G1 X196.157 Y106.172 E2.10576
G1 X200.527 Y106.172 E2.18829
G1 X200.527 Y111.772 E2.29405
G1 X196.217 Y111.772 E2.37545
G1 E.37545 F1800
G92 E0
G1 X197.988 Y109.329 F4200
G1 E2 F1800
G1 F270
G1 X197.928 Y109.184 E2.00296
G1 X197.893 Y108.982 E2.00683
G1 X197.918 Y108.796 E2.01037
G1 X197.988 Y108.627 E2.01382
G1 X198.099 Y108.482 E2.01727
G1 X198.245 Y108.37 E2.02075
G1 X198.414 Y108.3 E2.0242
G1 X198.569 Y108.28 E2.02715
G1 X198.773 Y108.298 E2.03102
G1 X198.946 Y108.37 E2.03456
G1 X199.092 Y108.482 E2.03804
G1 X199.203 Y108.627 E2.04149
G1 X199.273 Y108.796 E2.04494
G1 X199.297 Y108.978 E2.04841
G1 X199.273 Y109.159 E2.05186
G1 X199.203 Y109.329 E2.05533
G1 X199.092 Y109.474 E2.05878
G1 X198.946 Y109.586 E2.06226
G1 X198.777 Y109.656 E2.06571
G1 X198.595 Y109.68 E2.06918
G1 X198.414 Y109.656 E2.07263
G1 X198.269 Y109.596 E2.07559
G1 X198.102 Y109.477 E2.07946
G1 X198.024 Y109.376 E2.08187
G1 E.08187 F1800
G92 E0
G1 X194.31 Y106.56 F4200
G1 E2 F1800
;TYPE:Solid infill
;WIDTH:0.402317
G1 F432
G1 X194.654 Y106.904 E2.00924
G1 X194.654 Y107.443 E2.01948
G1 X194.481 Y107.269 E2.02414
G1 X194.481 Y107.808 E2.03438
G1 X194.654 Y107.981 E2.03903
G1 X194.654 Y108.52 E2.04927
G1 X194.481 Y108.347 E2.05392
G1 X194.481 Y108.885 E2.06414
G1 X194.654 Y109.059 E2.0688
G1 X194.654 Y109.597 E2.07902
G1 X194.481 Y109.424 E2.08367
G1 X194.481 Y109.962 E2.09389
G1 X194.654 Y110.136 E2.09855
G1 X194.654 Y110.674 E2.10877
G1 X194.481 Y110.501 E2.11342
G1 X194.481 Y111.04 E2.12366
G1 X194.824 Y111.383 E2.13288
G1 X194.957 Y111.772 F4200
;TYPE:External perimeter
;WIDTH:0.4
G1 F270
G1 X194.178 Y111.772 E2.14759
G1 X194.178 Y106.172 E2.25335
G1 X194.957 Y106.172 E2.26806
G1 X194.957 Y111.712 E2.37269
G1 E.37269 F1800
G92 E0
G1 X192.846 Y107.107 F4200
G1 E2 F1800
;TYPE:Solid infill
;WIDTH:0.417589
G1 F432
G1 X192.213 Y106.475 E2.01768
G1 X191.653 Y106.475 E2.02875
G1 X192.675 Y107.497 E2.05731
G1 X192.675 Y108.057 E2.06838
G1 X191.093 Y106.475 E2.1126
G1 X190.533 Y106.475 E2.12367
G1 X192.675 Y108.617 E2.18354
G1 X192.675 Y109.177 E2.19461
G1 X189.972 Y106.475 E2.27014
G1 X189.412 Y106.475 E2.28121
G1 X192.846 Y109.908 E2.37717
G1 E.37717 F1800
G92 E0
