; generated by CreatWare 7.0.0 on 2022-07-12 at 17:56:01 UTC

; 

; external perimeters extrusion width = 0.40mm
; perimeters extrusion width = 0.40mm
; infill extrusion width = 0.40mm
; solid infill extrusion width = 0.40mm
; top infill extrusion width = 0.40mm
; support material extrusion width = 0.40mm

; external perimeters extrusion width = 0.40mm
; perimeters extrusion width = 0.40mm
; infill extrusion width = 0.40mm
; solid infill extrusion width = 0.40mm
; top infill extrusion width = 0.40mm
; support material extrusion width = 0.40mm

; external perimeters extrusion width = 0.40mm
; perimeters extrusion width = 0.40mm
; infill extrusion width = 0.40mm
; solid infill extrusion width = 0.40mm
; top infill extrusion width = 0.40mm
; support material extrusion width = 0.40mm

; external perimeters extrusion width = 0.40mm
; perimeters extrusion width = 0.40mm
; infill extrusion width = 0.40mm
; solid infill extrusion width = 0.40mm
; top infill extrusion width = 0.40mm
; support material extrusion width = 0.40mm

G21 ; set units to millimeters
G90 ; use absolute coordinates
M82 ; use absolute distances for extrusion
G92 E0
M107
M190 S45 ; set bed temperature and wait for it to be reached
M104 S210 ; set temperature
;TYPE:Custom
M109 S210 ; set temperature and wait for it to be reached
M6013 S0 ; set chamber temp

G28 X0 Y0  ;move X/Y to min endstops
G28 Z0     ;move Z to min endstops

;Add Clear Nozzle
G92 E0                   ;zero the extruded length again
G0 F4200 X0 Y0
G0 F400 X10 Z0.4         ;move a bit while down the Z
M221 T0 S300             ;set flow is 300%
G1 F200 X30 E8          ;extrude amont filament to clean the hotend
M221 T0 S100             ;reset flow is 100%
G92 E0                   ;zero the extruded length again
;Add End

G0 Z15.0 F4200 ;move the platform down 15mm

;Put printing message on LCD screen
M117 Printing...
; Filament gcode
M107
;LAYER_CHANGE
;Layer 1
;Z:0.1
;HEIGHT:0.1
;BEFORE_LAYER_CHANGE
;0.1


G1 Z.1 F4200
;AFTER_LAYER_CHANGE
;G92 E0   ;zero the extruded length again
;0.1
G1 E-2 F1800
G92 E0
G1 X176.996 Y58.53 F4200
G1 E2 F1800
;TYPE:Skirt/Brim
;WIDTH:0.4
G1 F720
G1 X178.411 Y56.381 E2.04859
G1 X180.754 Y54.037 E2.11118
G1 X182.601 Y52.752 E2.15367
G1 X184.518 Y52.213 E2.19128
G1 X192.038 Y51.371 E2.33419
G1 X209.947 Y51.371 E2.67241
G1 X212.162 Y51.768 E2.71491
G1 X214.457 Y53.239 E2.76639
G1 X216.801 Y55.582 E2.82898
G1 X218.086 Y57.429 E2.87147
G1 X218.669 Y60.092 E2.92295
G1 X218.668 Y69.507 E3.10076
G1 X215.786 Y251.688 E6.54176
G1 X215.354 Y253.896 E6.58425
G1 X213.919 Y256.097 E6.63387
G1 X211.576 Y258.44 E6.69645
G1 X209.729 Y259.726 E6.73895
G1 X207.37 Y260.301 E6.78481
G1 X190.669 Y261.1 E7.10058
G1 X182.383 Y261.107 E7.25706
G1 X180.168 Y260.71 E7.29956
G1 X177.872 Y259.239 E7.35106
G1 X175.529 Y256.896 E7.41364
G1 X174.244 Y255.049 E7.45613
G1 X173.661 Y252.394 E7.50747
G1 X173.574 Y181.379 E8.84862
G1 X176.545 Y60.734 E11.12774
G1 X176.984 Y58.588 E11.16911
G1 E9.16911 F1800
G92 E0
G1 X189.809 Y240.226 F4200
G1 E2 F1800
G1 F720
G1 X197.998 Y240.23 E2.15465
G1 X198.117 Y240.249 E2.15693
G1 X198.246 Y240.227 E2.1594
G1 X206.531 Y240.245 E2.31587
G1 X206.982 Y240.394 E2.32484
G1 X207.305 Y240.595 E2.33202
G1 X208.8 Y242.105 E2.37215
G1 X208.946 Y242.361 E2.37772
G1 X209.112 Y242.925 E2.38882
G1 X209.112 Y250.935 E2.54009
G1 X208.945 Y251.502 E2.55125
G1 X208.77 Y251.793 E2.55766
G1 X207.233 Y253.322 E2.5986
G1 X206.978 Y253.467 E2.60414
G1 X206.413 Y253.633 E2.61526
G1 X198.245 Y253.633 E2.76952
G1 X198.111 Y253.609 E2.77209
G1 X197.976 Y253.633 E2.77468
G1 X191.038 Y253.633 E2.90571
G1 X190.567 Y254.095 E2.91817
G1 X190.314 Y254.249 E2.92376
G1 X189.712 Y254.432 E2.93564
G1 X183.035 Y254.432 E3.06174
G1 X182.468 Y254.265 E3.0729
G1 X182.176 Y254.09 E3.07933
G1 X180.648 Y252.553 E3.12026
G1 X180.502 Y252.298 E3.12581
G1 X180.336 Y251.733 E3.13693
G1 X180.336 Y243.724 E3.28818
G1 X180.503 Y243.157 E3.29934
G1 X180.678 Y242.865 E3.30577
G1 X182.215 Y241.337 E3.3467
G1 X182.47 Y241.191 E3.35225
G1 X183.035 Y241.025 E3.36337
G1 X188.482 Y241.025 E3.46624
G1 X188.954 Y240.564 E3.4787
G1 X189.207 Y240.409 E3.4843
G1 X189.752 Y240.244 E3.49505
G1 X189.838 Y240.605 F4200
G1 F720
G1 X197.977 Y240.609 E3.64876
G1 X198.121 Y240.637 E3.65153
G1 X198.269 Y240.605 E3.65439
G1 X206.441 Y240.615 E3.80872
G1 X206.84 Y240.745 E3.81665
G1 X207.081 Y240.901 E3.82207
G1 X208.487 Y242.319 E3.85978
G1 X208.592 Y242.496 E3.86367
G1 X208.733 Y242.955 E3.87274
G1 X208.733 Y250.905 E4.02288
G1 X208.592 Y251.364 E4.03195
G1 X208.461 Y251.574 E4.03662
G1 X207.019 Y253.009 E4.07504
G1 X206.842 Y253.113 E4.07892
G1 X206.384 Y253.255 E4.08798
G1 X198.269 Y253.255 E4.24124
G1 X198.111 Y253.22 E4.2443
G1 X197.952 Y253.255 E4.24737
G1 X190.884 Y253.255 E4.38085
G1 X190.319 Y253.807 E4.39577
G1 X190.142 Y253.912 E4.39966
G1 X189.683 Y254.053 E4.40873
G1 X183.064 Y254.053 E4.53373
G1 X182.606 Y253.912 E4.54278
G1 X182.396 Y253.781 E4.54745
G1 X180.961 Y252.339 E4.58587
G1 X180.856 Y252.162 E4.58976
G1 X180.715 Y251.704 E4.59881
G1 X180.715 Y243.753 E4.74897
G1 X180.856 Y243.294 E4.75804
G1 X180.987 Y243.085 E4.7627
G1 X182.429 Y241.65 E4.80112
G1 X182.606 Y241.545 E4.80501
G1 X183.064 Y241.404 E4.81406
G1 X188.637 Y241.404 E4.91931
G1 X189.201 Y240.851 E4.93423
G1 X189.379 Y240.747 E4.93812
G1 X189.78 Y240.623 E4.94605
G1 X189.869 Y240.984 F4200
G1 F720
G1 X197.951 Y240.987 E5.09868
G1 X198.128 Y241.028 E5.10211
G1 X198.298 Y240.984 E5.10543
G1 X206.352 Y240.984 E5.25753
G1 X206.697 Y241.097 E5.26439
G1 X206.827 Y241.182 E5.26732
G1 X208.178 Y242.538 E5.30347
G1 X208.24 Y242.639 E5.30571
G1 X208.355 Y242.987 E5.31263
G1 X208.355 Y250.873 E5.46156
G1 X208.241 Y251.219 E5.46844
G1 X208.157 Y251.348 E5.47135
G1 X206.8 Y252.7 E5.50753
G1 X206.7 Y252.762 E5.50975
G1 X206.352 Y252.876 E5.51667
G1 X198.298 Y252.876 E5.66877
G1 X198.111 Y252.826 E5.67243
G1 X197.923 Y252.876 E5.6761
G1 X190.727 Y252.876 E5.812
G1 X190.1 Y253.498 E5.82868
G1 X189.999 Y253.561 E5.83093
G1 X189.651 Y253.675 E5.83785
G1 X183.096 Y253.675 E5.96164
G1 X182.751 Y253.561 E5.9685
G1 X182.621 Y253.477 E5.97142
G1 X181.27 Y252.12 E6.00758
G1 X181.208 Y252.02 E6.0098
G1 X181.093 Y251.672 E6.01672
G1 X181.093 Y243.785 E6.16567
G1 X181.207 Y243.439 E6.17255
G1 X181.291 Y243.31 E6.17546
G1 X182.648 Y241.959 E6.21162
G1 X182.748 Y241.896 E6.21385
G1 X183.096 Y241.782 E6.22077
G1 X188.793 Y241.782 E6.32836
G1 X189.421 Y241.16 E6.34505
G1 X189.522 Y241.098 E6.34729
G1 X189.812 Y241.002 E6.35306
G1 X189.905 Y241.362 F4200
G1 F720
G1 X197.899 Y241.362 E6.50403
G1 X198.103 Y241.439 E6.50815
G1 X198.335 Y241.362 E6.51277
G1 X206.317 Y241.362 E6.66351
G1 X206.545 Y241.444 E6.66809
G1 X207.876 Y242.766 E6.70352
G1 X207.976 Y243.022 E6.70871
G1 X207.976 Y250.838 E6.85632
G1 X207.894 Y251.066 E6.8609
G1 X206.572 Y252.398 E6.89634
G1 X206.317 Y252.498 E6.90151
G1 X198.335 Y252.498 E7.05225
G1 X198.111 Y252.423 E7.05671
G1 X197.887 Y252.498 E7.06117
G1 X190.57 Y252.498 E7.19935
G1 X189.871 Y253.196 E7.21801
G1 X189.616 Y253.296 E7.22318
G1 X183.132 Y253.296 E7.34563
G1 X182.903 Y253.214 E7.35022
G1 X181.572 Y251.892 E7.38565
G1 X181.472 Y251.637 E7.39082
G1 X181.472 Y243.82 E7.53845
G1 X181.554 Y243.592 E7.54303
G1 X182.876 Y242.26 E7.57847
G1 X183.132 Y242.161 E7.58365
G1 X188.951 Y242.161 E7.69354
G1 X189.649 Y241.462 E7.7122
G1 X189.848 Y241.382 E7.71625
G1 X189.947 Y241.741 F4200
G1 F720
G1 X197.842 Y241.741 E7.86535
G1 X197.912 Y241.769 E7.86677
G1 X198.111 Y241.968 E7.87208
G1 X198.309 Y241.769 E7.87738
G1 X198.379 Y241.741 E7.8788
G1 X206.274 Y241.741 E8.0279
G1 X206.344 Y241.769 E8.02932
G1 X207.569 Y242.994 E8.06204
G1 X207.598 Y243.064 E8.06347
G1 X207.598 Y250.796 E8.20949
G1 X207.569 Y250.866 E8.21092
G1 X206.344 Y252.09 E8.24362
G1 X206.274 Y252.119 E8.24505
G1 X198.379 Y252.119 E8.39415
G1 X198.309 Y252.09 E8.39558
G1 X198.111 Y251.892 E8.40087
G1 X197.912 Y252.09 E8.40617
G1 X197.842 Y252.119 E8.4076
G1 X190.413 Y252.119 E8.5479
G1 X189.644 Y252.889 E8.56845
G1 X189.574 Y252.918 E8.56988
G1 X183.174 Y252.918 E8.69075
G1 X183.104 Y252.889 E8.69218
G1 X181.879 Y251.664 E8.7249
G1 X181.85 Y251.594 E8.72633
G1 X181.85 Y243.862 E8.87235
G1 X181.879 Y243.793 E8.87376
G1 X183.104 Y242.568 E8.90648
G1 X183.174 Y242.539 E8.90791
G1 X189.107 Y242.539 E9.01996
G1 X189.891 Y241.764 E9.04078
G1 E7.04078 F1800
G92 E0
G1 X189.623 Y192.896 F4200
G1 E2 F1800
G1 F720
G1 X182.946 Y192.896 E2.1261
G1 X182.379 Y192.73 E2.13726
G1 X182.087 Y192.555 E2.14369
G1 X180.559 Y191.018 E2.18462
G1 X180.413 Y190.762 E2.19019
G1 X180.247 Y190.198 E2.20129
G1 X180.247 Y182.188 E2.35256
G1 X180.414 Y181.621 E2.36372
G1 X180.589 Y181.33 E2.37013
G1 X182.126 Y179.801 E2.41107
G1 X182.381 Y179.656 E2.41661
G1 X182.946 Y179.49 E2.42773
G1 X188.393 Y179.49 E2.5306
G1 X188.865 Y179.028 E2.54307
G1 X189.118 Y178.874 E2.54866
G1 X189.72 Y178.691 E2.56054
G1 X197.909 Y178.695 E2.71519
G1 X198.028 Y178.714 E2.71747
G1 X198.157 Y178.691 E2.71994
G1 X206.442 Y178.71 E2.87641
G1 X206.893 Y178.858 E2.88537
G1 X207.216 Y179.059 E2.89255
G1 X208.711 Y180.57 E2.93269
G1 X208.857 Y180.825 E2.93824
G1 X209.023 Y181.39 E2.94936
G1 X209.023 Y189.399 E3.10061
G1 X208.856 Y189.966 E3.11177
G1 X208.681 Y190.258 E3.1182
G1 X207.144 Y191.786 E3.15913
G1 X206.889 Y191.932 E3.16468
G1 X206.324 Y192.098 E3.1758
G1 X198.156 Y192.098 E3.33006
G1 X198.022 Y192.074 E3.33263
G1 X197.887 Y192.098 E3.33522
G1 X190.949 Y192.098 E3.46625
G1 X190.478 Y192.559 E3.4787
G1 X190.225 Y192.714 E3.4843
G1 X189.68 Y192.879 E3.49505
G1 X189.594 Y192.518 F4200
G1 F720
G1 X182.975 Y192.518 E3.62005
G1 X182.517 Y192.376 E3.62911
G1 X182.307 Y192.246 E3.63377
G1 X180.872 Y190.804 E3.67219
G1 X180.767 Y190.627 E3.67608
G1 X180.626 Y190.168 E3.68515
G1 X180.626 Y182.218 E3.83529
G1 X180.767 Y181.759 E3.84436
G1 X180.898 Y181.549 E3.84903
G1 X182.34 Y180.114 E3.88745
G1 X182.517 Y180.01 E3.89133
G1 X182.975 Y179.868 E3.90039
G1 X188.548 Y179.868 E4.00564
G1 X189.112 Y179.316 E4.02054
G1 X189.29 Y179.211 E4.02444
G1 X189.749 Y179.07 E4.03351
G1 X197.888 Y179.073 E4.18722
G1 X198.032 Y179.101 E4.18999
G1 X198.18 Y179.07 E4.19285
G1 X206.352 Y179.079 E4.34718
G1 X206.751 Y179.21 E4.35511
G1 X206.992 Y179.366 E4.36053
G1 X208.398 Y180.783 E4.39823
G1 X208.503 Y180.961 E4.40213
G1 X208.644 Y181.419 E4.41118
G1 X208.644 Y189.37 E4.56134
G1 X208.503 Y189.829 E4.57041
G1 X208.372 Y190.038 E4.57507
G1 X206.93 Y191.473 E4.61349
G1 X206.753 Y191.578 E4.61738
G1 X206.295 Y191.719 E4.62643
G1 X198.18 Y191.719 E4.77969
G1 X198.022 Y191.685 E4.78274
G1 X197.863 Y191.719 E4.78581
G1 X190.795 Y191.719 E4.91929
G1 X190.23 Y192.272 E4.93422
G1 X190.053 Y192.376 E4.9381
G1 X189.651 Y192.5 E4.94604
G1 X189.562 Y192.139 F4200
G1 F720
G1 X183.007 Y192.139 E5.06983
G1 X182.662 Y192.026 E5.07669
G1 X182.532 Y191.941 E5.07962
G1 X181.181 Y190.585 E5.11577
G1 X181.119 Y190.484 E5.11801
G1 X181.004 Y190.136 E5.12493
G1 X181.004 Y182.25 E5.27386
G1 X181.118 Y181.904 E5.28074
G1 X181.202 Y181.775 E5.28365
G1 X182.559 Y180.423 E5.31983
G1 X182.659 Y180.361 E5.32205
G1 X183.007 Y180.247 E5.32897
G1 X188.704 Y180.247 E5.43656
G1 X189.332 Y179.625 E5.45325
G1 X189.433 Y179.562 E5.4555
G1 X189.78 Y179.448 E5.4624
G1 X197.862 Y179.452 E5.61503
G1 X198.039 Y179.493 E5.61846
G1 X198.209 Y179.448 E5.62178
G1 X206.263 Y179.448 E5.77388
G1 X206.608 Y179.562 E5.78074
G1 X206.738 Y179.646 E5.78366
G1 X208.089 Y181.003 E5.81982
G1 X208.151 Y181.103 E5.82204
G1 X208.266 Y181.451 E5.82896
G1 X208.266 Y189.338 E5.97791
G1 X208.152 Y189.684 E5.98479
G1 X208.068 Y189.813 E5.9877
G1 X206.711 Y191.164 E6.02386
G1 X206.611 Y191.227 E6.02609
G1 X206.263 Y191.341 E6.03301
G1 X198.209 Y191.341 E6.18511
G1 X198.022 Y191.29 E6.18877
G1 X197.834 Y191.341 E6.19245
G1 X190.638 Y191.341 E6.32835
G1 X190.011 Y191.963 E6.34503
G1 X189.91 Y192.025 E6.34727
G1 X189.619 Y192.121 E6.35306
G1 X189.527 Y191.761 F4200
G1 F720
G1 X183.043 Y191.761 E6.47551
G1 X182.787 Y191.661 E6.4807
G1 X181.465 Y190.329 E6.51614
G1 X181.383 Y190.101 E6.52072
G1 X181.383 Y182.285 E6.66833
G1 X181.483 Y182.03 E6.6735
G1 X182.814 Y180.707 E6.70894
G1 X183.043 Y180.625 E6.71353
G1 X188.862 Y180.625 E6.82342
G1 X189.56 Y179.927 E6.84206
G1 X189.816 Y179.827 E6.84725
G1 X197.81 Y179.827 E6.99822
G1 X198.014 Y179.904 E7.00234
G1 X198.246 Y179.827 E7.00696
G1 X206.228 Y179.827 E7.1577
G1 X206.483 Y179.927 E7.16287
G1 X207.805 Y181.258 E7.1983
G1 X207.887 Y181.486 E7.20288
G1 X207.887 Y189.303 E7.35051
G1 X207.787 Y189.558 E7.35568
G1 X206.456 Y190.881 E7.39112
G1 X206.228 Y190.962 E7.39569
G1 X198.246 Y190.962 E7.54643
G1 X198.022 Y190.888 E7.55089
G1 X197.798 Y190.962 E7.55535
G1 X190.481 Y190.962 E7.69353
G1 X189.782 Y191.661 E7.7122
G1 X189.584 Y191.741 E7.71623
G1 X189.485 Y191.382 F4200
G1 F720
G1 X183.085 Y191.382 E7.8371
G1 X183.015 Y191.354 E7.83852
G1 X181.79 Y190.129 E7.87124
G1 X181.761 Y190.059 E7.87267
G1 X181.761 Y182.327 E8.01869
G1 X181.79 Y182.257 E8.02012
G1 X183.015 Y181.033 E8.05282
G1 X183.085 Y181.004 E8.05425
G1 X189.018 Y181.004 E8.1663
G1 X189.788 Y180.234 E8.18687
G1 X189.858 Y180.205 E8.1883
G1 X197.753 Y180.205 E8.3374
G1 X197.823 Y180.234 E8.33883
G1 X198.022 Y180.433 E8.34414
G1 X198.22 Y180.234 E8.34944
G1 X198.29 Y180.205 E8.35087
G1 X206.185 Y180.205 E8.49997
G1 X206.255 Y180.234 E8.5014
G1 X207.48 Y181.459 E8.53412
G1 X207.509 Y181.529 E8.53555
G1 X207.509 Y189.261 E8.68157
G1 X207.48 Y189.33 E8.68298
G1 X206.255 Y190.555 E8.7157
G1 X206.185 Y190.584 E8.71713
G1 X198.29 Y190.584 E8.86623
G1 X198.22 Y190.555 E8.86766
G1 X198.022 Y190.356 E8.87296
G1 X197.823 Y190.555 E8.87827
G1 X197.753 Y190.584 E8.8797
G1 X190.324 Y190.584 E9.02
G1 X189.54 Y191.359 E9.04082
G1 E7.04082 F1800
G92 E0
G1 X189.54 Y133.391 F4200
G1 E2 F1800
G1 F720
G1 X184.592 Y133.391 E2.09345
G1 X184.025 Y133.224 E2.10461
G1 X183.733 Y133.049 E2.11104
G1 X182.205 Y131.512 E2.15197
G1 X182.059 Y131.257 E2.15752
G1 X181.893 Y130.692 E2.16864
G1 X181.893 Y122.683 E2.31989
G1 X182.06 Y122.116 E2.33105
G1 X182.235 Y121.824 E2.33748
G1 X183.772 Y120.296 E2.37841
G1 X184.027 Y120.15 E2.38396
G1 X184.592 Y119.984 E2.39508
G1 X190.04 Y119.984 E2.49797
G1 X190.511 Y119.523 E2.51042
G1 X190.764 Y119.368 E2.51602
G1 X191.366 Y119.186 E2.5279
G1 X199.555 Y119.189 E2.68255
G1 X199.674 Y119.208 E2.68483
G1 X199.803 Y119.186 E2.6873
G1 X208.088 Y119.205 E2.84377
G1 X208.539 Y119.353 E2.85273
G1 X208.862 Y119.554 E2.85991
G1 X210.357 Y121.064 E2.90004
G1 X210.503 Y121.32 E2.90561
G1 X210.669 Y121.884 E2.91671
G1 X210.669 Y129.894 E3.06798
G1 X210.502 Y130.461 E3.07914
G1 X210.327 Y130.752 E3.08555
G1 X208.79 Y132.281 E3.12649
G1 X208.535 Y132.426 E3.13203
G1 X207.97 Y132.592 E3.14315
G1 X199.802 Y132.592 E3.29741
G1 X199.668 Y132.568 E3.29998
G1 X199.533 Y132.592 E3.30257
G1 X192.595 Y132.592 E3.4336
G1 X192.124 Y133.054 E3.44606
G1 X191.871 Y133.208 E3.45165
G1 X191.269 Y133.391 E3.46353
G1 X189.6 Y133.391 E3.49505
G1 X189.6 Y133.012 F4200
G1 F720
G1 X184.622 Y133.012 E3.58906
G1 X184.163 Y132.871 E3.59813
G1 X183.953 Y132.74 E3.6028
G1 X182.518 Y131.298 E3.64122
G1 X182.413 Y131.122 E3.64509
G1 X182.272 Y130.663 E3.65416
G1 X182.272 Y122.712 E3.80432
G1 X182.414 Y122.253 E3.81339
G1 X182.544 Y122.044 E3.81804
G1 X183.986 Y120.609 E3.85646
G1 X184.163 Y120.504 E3.86035
G1 X184.622 Y120.363 E3.86942
G1 X190.194 Y120.363 E3.97465
G1 X190.758 Y119.81 E3.98957
G1 X190.936 Y119.706 E3.99346
G1 X191.395 Y119.564 E4.00253
G1 X199.534 Y119.568 E4.15624
G1 X199.678 Y119.596 E4.15901
G1 X199.826 Y119.564 E4.16187
G1 X207.998 Y119.574 E4.3162
G1 X208.397 Y119.704 E4.32413
G1 X208.639 Y119.86 E4.32957
G1 X210.044 Y121.278 E4.36727
G1 X210.149 Y121.455 E4.37116
G1 X210.29 Y121.914 E4.38023
G1 X210.29 Y129.864 E4.53037
G1 X210.149 Y130.323 E4.53944
G1 X210.018 Y130.533 E4.54411
G1 X208.576 Y131.968 E4.58253
G1 X208.4 Y132.072 E4.58639
G1 X207.941 Y132.214 E4.59546
G1 X199.826 Y132.214 E4.74872
G1 X199.668 Y132.179 E4.75178
G1 X199.509 Y132.214 E4.75485
G1 X192.441 Y132.214 E4.88833
G1 X191.876 Y132.766 E4.90325
