; generated by CreatWare 7.0.0 on 2022-07-05 at 18:52:41 UTC

; 

; external perimeters extrusion width = 0.40mm
; perimeters extrusion width = 0.40mm
; infill extrusion width = 0.40mm
; solid infill extrusion width = 0.40mm
; top infill extrusion width = 0.40mm
; support material extrusion width = 0.40mm

; external perimeters extrusion width = 0.40mm
; perimeters extrusion width = 0.40mm
; infill extrusion width = 0.40mm
; solid infill extrusion width = 0.40mm
; top infill extrusion width = 0.40mm
; support material extrusion width = 0.40mm

G21 ; set units to millimeters
G90 ; use absolute coordinates
M82 ; use absolute distances for extrusion
G92 E0
M107
M190 S45 ; set bed temperature and wait for it to be reached
M104 S210 T0 ; set temperature
M104 S210 T1 ; set temperature
;TYPE:Custom
M109 S210 T0 ; set temperature and wait for it to be reached
M109 S210 T1 ; set temperature and wait for it to be reached
M6013 S0 ; set chamber temp

G28 X0 Y0  ;move X/Y to min endstops
G28 Z0     ;move Z to min endstops

;Add Clear Nozzle
G92 E0                   ;zero the extruded length again
G0 F4200 X0 Y0
G0 F400 X10 Z0.4         ;move a bit while down the Z
M221 T0 S300             ;set flow is 300%
G1 F200 X30 E8          ;extrude amont filament to clean the hotend
M221 T0 S100             ;reset flow is 100%
G92 E0                   ;zero the extruded length again
;Add End

G0 Z15.0 F4200 ;move the platform down 15mm

;Put printing message on LCD screen
M117 Printing...
T1
G92 E0
; Filament gcode
M107
;LAYER_CHANGE
;Layer 1
;Z:0.1
;HEIGHT:0.1
;BEFORE_LAYER_CHANGE
;0.1


G1 Z.1 F4200
;AFTER_LAYER_CHANGE
;G92 E0   ;zero the extruded length again
;0.1
G1 E-2 F1800
G92 E0
G1 X103.599 Y61.282 F4200
G1 E2 F1800
;TYPE:Skirt/Brim
;WIDTH:0.4
G1 F720
G1 X105.07 Y58.987 E2.10296
G1 X107.413 Y56.644 E2.22811
G1 X109.26 Y55.358 E2.31312
G1 X111.923 Y54.776 E2.41608
G1 X127.564 Y54.776 E3.00685
G1 X129.779 Y55.172 E3.09184
G1 X132.074 Y56.644 E3.19482
G1 X134.418 Y58.987 E3.32
G1 X135.703 Y60.834 E3.40499
G1 X136.199 Y62.449 E3.4688
G1 X156.386 Y183.572 E8.10682
G1 X156.472 Y184.621 E8.14657
G1 X156.472 Y193.646 E8.48745
G1 X156.382 Y194.718 E8.52808
G1 X153.965 Y208.901 E9.07151
G1 X152.733 Y211.719 E9.18768
G1 X152.543 Y211.965 E9.19942
G1 X150.878 Y213.479 E9.28442
G1 X147.921 Y214.44 E9.40186
G1 X141.416 Y214.868 E9.64809
G1 X134.302 Y214.868 E9.91679
G1 X127.732 Y214.44 E10.16547
G1 X125.549 Y213.896 E10.25045
G1 X123.65 Y212.586 E10.33759
G1 X122.253 Y210.629 E10.42841
G1 X121.759 Y209.027 E10.49173
G1 X119.322 Y194.574 E11.04534
G1 X103.623 Y87.769 E15.1228
G1 X103.204 Y72.971 E15.68196
G1 X103.202 Y63.497 E16.0398
G1 X103.588 Y61.341 E16.12253
G1 E14.12253 F1800
G92 E0
G1 X110.043 Y63.584 F4200
G1 E2 F1800
G1 F720
G1 X110.27 Y63.227 E2.01598
G1 X111.652 Y61.845 E2.0898
G1 X111.861 Y61.692 E2.09958
G1 X112.575 Y61.451 E2.12804
G1 X126.926 Y61.454 E2.67009
G1 X127.3 Y61.544 E2.68462
G1 X127.815 Y61.825 E2.70678
G1 X129.218 Y63.227 E2.7817
G1 X129.444 Y63.583 E2.79763
G1 X129.611 Y64.149 E2.81992
G1 X129.592 Y72.276 E3.12688
G1 X129.444 Y72.727 E3.14481
G1 X129.218 Y73.081 E3.16067
G1 X127.835 Y74.463 E3.23452
G1 X127.627 Y74.617 E3.2443
G1 X126.912 Y74.857 E3.27279
G1 X112.575 Y74.857 E3.81431
G1 X112.009 Y74.691 E3.83659
G1 X111.684 Y74.489 E3.85104
G1 X110.271 Y73.082 E3.92636
G1 X110.118 Y72.874 E3.93611
G1 X109.877 Y72.159 E3.96461
G1 X109.885 Y64.094 E4.26923
G1 X110.025 Y63.642 E4.2871
G1 X110.387 Y63.753 F4200
G1 F720
G1 X110.551 Y63.481 E4.2991
G1 X111.909 Y62.124 E4.37161
G1 X112.059 Y62.015 E4.37861
G1 X112.606 Y61.829 E4.40043
G1 X126.904 Y61.833 E4.94048
G1 X127.146 Y61.89 E4.94987
G1 X127.569 Y62.113 E4.96793
G1 X128.936 Y63.481 E5.04098
G1 X129.091 Y63.721 E5.05177
G1 X129.232 Y64.179 E5.06987
G1 X129.223 Y72.187 E5.37234
G1 X129.092 Y72.585 E5.38817
G1 X128.936 Y72.827 E5.39905
G1 X127.579 Y74.184 E5.47154
G1 X127.429 Y74.293 E5.47854
G1 X126.881 Y74.479 E5.5004
G1 X112.605 Y74.479 E6.03962
G1 X112.148 Y74.338 E6.05768
G1 X111.907 Y74.183 E6.0685
G1 X110.55 Y72.826 E6.14099
G1 X110.441 Y72.675 E6.14802
G1 X110.255 Y72.128 E6.16984
G1 X110.255 Y64.179 E6.47008
G1 X110.369 Y63.811 E6.48463
G1 X110.727 Y63.928 F4200
G1 F720
G1 X110.832 Y63.735 E6.49293
G1 X112.164 Y62.404 E6.56405
G1 X112.254 Y62.34 E6.56822
G1 X112.638 Y62.208 E6.58356
G1 X126.882 Y62.211 E7.12157
G1 X126.997 Y62.238 E7.12603
G1 X127.324 Y62.404 E7.13988
G1 X128.655 Y63.735 E7.21098
G1 X128.74 Y63.865 E7.21685
G1 X128.854 Y64.211 E7.23061
G1 X128.854 Y72.097 E7.52847
G1 X128.74 Y72.443 E7.54223
G1 X128.655 Y72.573 E7.5481
G1 X127.324 Y73.904 E7.6192
G1 X127.233 Y73.968 E7.6234
G1 X126.849 Y74.1 E7.63874
G1 X112.637 Y74.1 E8.17554
G1 X112.291 Y73.987 E8.18929
G1 X112.162 Y73.902 E8.19513
G1 X110.83 Y72.57 E8.26628
G1 X110.766 Y72.48 E8.27045
G1 X110.634 Y72.096 E8.28579
G1 X110.634 Y64.211 E8.58361
G1 X110.708 Y63.985 E8.59259
G1 X111.061 Y64.112 F4200
G1 F720
G1 X111.112 Y63.991 E8.59755
G1 X112.417 Y62.686 E8.66726
G1 X112.672 Y62.586 E8.67761
G1 X126.862 Y62.593 E9.21358
G1 X127.081 Y62.696 E9.22272
G1 X128.375 Y63.991 E9.29187
G1 X128.475 Y64.246 E9.30222
G1 X128.475 Y72.062 E9.59744
G1 X128.393 Y72.29 E9.60659
G1 X127.071 Y73.622 E9.67747
G1 X126.815 Y73.722 E9.68785
G1 X112.672 Y73.722 E10.22204
G1 X112.444 Y73.64 E10.23119
G1 X111.112 Y72.318 E10.30207
G1 X111.012 Y72.062 E10.31245
G1 X111.012 Y64.246 E10.60767
G1 X111.04 Y64.168 E10.6108
G1 X111.391 Y64.288 F4200
G1 F720
G1 X111.42 Y64.218 E10.61366
G1 X112.645 Y62.994 E10.67907
G1 X112.714 Y62.965 E10.6819
G1 X126.773 Y62.965 E11.21292
G1 X126.843 Y62.994 E11.21578
G1 X128.068 Y64.218 E11.28119
G1 X128.097 Y64.288 E11.28405
G1 X128.097 Y72.02 E11.57609
G1 X128.068 Y72.09 E11.57895
G1 X126.843 Y73.315 E11.64438
G1 X126.773 Y73.343 E11.64723
G1 X112.714 Y73.343 E12.17825
G1 X112.645 Y73.315 E12.18106
G1 X111.42 Y72.09 E12.24649
G1 X111.391 Y72.02 E12.24935
G1 X111.391 Y64.348 E12.53913
G1 E10.53913 F1800
G92 E0
G1 X128.628 Y182.574 F4200
G1 E2 F1800
G1 F720
G1 X147.112 Y182.578 E2.69816
G1 X147.487 Y182.667 E2.71272
G1 X148.002 Y182.948 E2.73488
G1 X149.405 Y184.351 E2.80982
G1 X149.626 Y184.693 E2.8252
G1 X149.764 Y185.078 E2.84065
G1 X149.789 Y193.051 E3.1418
G1 X149.704 Y193.382 E3.15471
G1 X149.423 Y193.898 E3.1769
G1 X148.002 Y195.319 E3.2528
G1 X147.484 Y195.601 E3.27508
G1 X147.072 Y195.693 E3.29102
G1 X143.463 Y195.693 E3.42734
G1 X143.463 Y205.496 E3.79761
G1 X143.271 Y206.112 E3.82198
G1 X143.09 Y206.392 E3.83457
G1 X141.686 Y207.8 E3.90967
G1 X141.345 Y208.02 E3.925
G1 X140.897 Y208.17 E3.94284
G1 X134.955 Y208.193 E4.16728
G1 X134.292 Y207.979 E4.19359
G1 X134.031 Y207.799 E4.20557
G1 X132.649 Y206.416 E4.27942
G1 X132.422 Y206.059 E4.2954
G1 X132.264 Y205.549 E4.31557
G1 X132.256 Y195.693 E4.68784
G1 X128.657 Y195.693 E4.82378
G1 X128.296 Y195.62 E4.83769
G1 X127.725 Y195.32 E4.86205
G1 X126.303 Y193.898 E4.93801
G1 X126.003 Y193.33 E4.96227
G1 X125.929 Y192.968 E4.97623
G1 X125.929 Y185.272 E5.26691
G1 X126.143 Y184.61 E5.29319
G1 X126.323 Y184.349 E5.30517
G1 X127.706 Y182.967 E5.37902
G1 X128.062 Y182.741 E5.39495
G1 X128.57 Y182.591 E5.41496
G1 X128.657 Y182.952 F4200
G1 F720
G1 X147.09 Y182.956 E6.11119
G1 X147.332 Y183.013 E6.12058
G1 X147.755 Y183.237 E6.13866
G1 X149.123 Y184.605 E6.21173
G1 X149.277 Y184.842 E6.22241
G1 X149.396 Y185.175 E6.23577
G1 X149.41 Y193.027 E6.53235
G1 X149.359 Y193.226 E6.54011
G1 X149.134 Y193.651 E6.55827
G1 X147.755 Y195.03 E6.63193
G1 X147.332 Y195.254 E6.65001
G1 X147.053 Y195.314 E6.66079
G1 X143.084 Y195.314 E6.8107
G1 X143.084 Y205.464 E7.19407
G1 X142.921 Y205.967 E7.21404
G1 X142.788 Y206.163 E7.22299
G1 X141.432 Y207.519 E7.29542
G1 X141.195 Y207.672 E7.30607
G1 X140.861 Y207.792 E7.31947
G1 X134.984 Y207.814 E7.54145
G1 X134.482 Y207.651 E7.56139
G1 X134.286 Y207.518 E7.57034
G1 X132.93 Y206.162 E7.64277
G1 X132.776 Y205.922 E7.65354
G1 X132.634 Y205.465 E7.67162
G1 X132.634 Y195.314 E8.05503
G1 X128.674 Y195.314 E8.2046
G1 X128.442 Y195.27 E8.21352
G1 X127.971 Y195.03 E8.23349
G1 X126.593 Y193.652 E8.3071
G1 X126.353 Y193.184 E8.32697
G1 X126.307 Y192.95 E8.33598
G1 X126.307 Y185.302 E8.62485
G1 X126.471 Y184.8 E8.6448
G1 X126.604 Y184.604 E8.65375
G1 X127.959 Y183.248 E8.72616
G1 X128.2 Y183.094 E8.73696
G1 X128.6 Y182.97 E8.75278
G1 X128.689 Y183.331 F4200
G1 F720
G1 X147.068 Y183.335 E9.44697
G1 X147.183 Y183.362 E9.45143
G1 X147.51 Y183.527 E9.46526
G1 X148.842 Y184.859 E9.53641
G1 X148.928 Y184.991 E9.54236
G1 X149.029 Y185.272 E9.55364
G1 X149.037 Y192.964 E9.84417
G1 X149.009 Y193.079 E9.84864
G1 X148.844 Y193.406 E9.86247
G1 X147.51 Y194.74 E9.93373
G1 X147.186 Y194.904 E9.94745
G1 X147.034 Y194.936 E9.95332
G1 X142.706 Y194.936 E10.11679
G1 X142.706 Y205.431 E10.5132
G1 X142.573 Y205.816 E10.52859
G1 X142.51 Y205.906 E10.53274
G1 X141.178 Y207.237 E10.60386
G1 X141.046 Y207.324 E10.60983
G1 X140.764 Y207.425 E10.62114
G1 X135.017 Y207.436 E10.83821
G1 X134.633 Y207.303 E10.85356
G1 X134.543 Y207.24 E10.85771
G1 X133.211 Y205.908 E10.92886
G1 X133.127 Y205.778 E10.93471
G1 X133.013 Y205.433 E10.94843
G1 X133.013 Y194.936 E11.34491
G1 X128.689 Y194.936 E11.50823
G1 X128.58 Y194.917 E11.51241
G1 X128.215 Y194.739 E11.52775
G1 X126.882 Y193.406 E11.59895
G1 X126.718 Y193.081 E11.6127
G1 X126.686 Y192.929 E11.61857
G1 X126.686 Y185.335 E11.9054
G1 X126.819 Y184.951 E11.92075
G1 X126.882 Y184.861 E11.9249
G1 X128.214 Y183.529 E11.99605
G1 X128.343 Y183.445 E12.00186
G1 X128.632 Y183.35 E12.01335
G1 X128.724 Y183.71 F4200
G1 F720
G1 X147.016 Y183.71 E12.70425
G1 X147.267 Y183.82 E12.7146
G1 X148.58 Y185.141 E12.78495
G1 X148.662 Y185.369 E12.7941
G1 X148.662 Y192.912 E13.07901
G1 X148.552 Y193.163 E13.08936
G1 X147.267 Y194.447 E13.15797
G1 X147.048 Y194.551 E13.16713
G1 X142.327 Y194.557 E13.34545
G1 X142.327 Y205.397 E13.75489
G1 X142.227 Y205.653 E13.76527
G1 X140.896 Y206.975 E13.83613
G1 X140.667 Y207.057 E13.84532
G1 X135.051 Y207.057 E14.05744
G1 X134.796 Y206.957 E14.06779
G1 X133.473 Y205.626 E14.13867
G1 X133.392 Y205.397 E14.14784
G1 X133.392 Y194.557 E14.55728
G1 X128.678 Y194.551 E14.73533
G1 X128.459 Y194.447 E14.74449
G1 X127.174 Y193.163 E14.8131
G1 X127.071 Y192.944 E14.82224
G1 X127.065 Y185.369 E15.10835
G1 X127.164 Y185.114 E15.11868
G1 X128.469 Y183.809 E15.18839
G1 X128.668 Y183.73 E15.19648
G1 X128.766 Y184.088 F4200
G1 F720
G1 X146.96 Y184.088 E15.88368
G1 X147.029 Y184.117 E15.88651
G1 X148.254 Y185.342 E15.95194
G1 X148.283 Y185.411 E15.95477
G1 X148.283 Y192.855 E16.23594
G1 X148.254 Y192.925 E16.2388
G1 X147.029 Y194.15 E16.30423
G1 X146.96 Y194.179 E16.30706
G1 X141.949 Y194.179 E16.49633
G1 X141.949 Y205.355 E16.91846
G1 X141.92 Y205.425 E16.92132
G1 X140.695 Y206.65 E16.98675
G1 X140.625 Y206.679 E16.98961
G1 X135.093 Y206.679 E17.19856
G1 X135.024 Y206.65 E17.20139
G1 X133.799 Y205.425 E17.26682
G1 X133.77 Y205.355 E17.26968
G1 X133.77 Y194.179 E17.69181
G1 X128.766 Y194.179 E17.88082
G1 X128.697 Y194.15 E17.88365
G1 X127.472 Y192.925 E17.94908
G1 X127.443 Y192.855 E17.95194
G1 X127.443 Y185.411 E18.23311
G1 X127.472 Y185.342 E18.23594
G1 X128.711 Y184.111 E18.30191
G1 E16.30191 F1800
G92 E0
G1 X131.759 Y204.501 F4200
G1 E2 F1800
;TYPE:Support material
G1 F720
G1 X131.867 Y205.443 E2.03581
G1 X132.675 Y207.115 E2.10595
G1 X133.644 Y207.887 E2.15275
G1 X128.238 Y207.887 E2.35694
G1 X128.238 Y197.273 E2.75784
G1 X131.759 Y197.273 E2.89083
G1 X131.759 Y204.444 E3.16168
G1 X132.185 Y207.716 F4200
G1 F720
G1 X132.185 Y206.885 E3.19307
G1 X131.535 Y205.54 E3.24949
G1 X131.419 Y204.52 E3.28826
G1 X131.419 Y197.613 E3.54914
G1 X130.292 Y197.613 E3.59171
G1 X130.292 Y207.716 E3.97331
G1 E1.97331 F1800
G92 E0
G1 X147.488 Y207.887 F4200
G1 E2 F1800
G1 F720
G1 X142.152 Y207.887 E2.20155
G1 X142.385 Y207.774 E2.21133
G1 X143.549 Y206.311 E2.28194
G1 X143.959 Y204.512 E2.35163
G1 X143.959 Y197.273 E2.62505
G1 X147.488 Y197.273 E2.75834
G1 X147.488 Y207.83 E3.15709
G1 X145.434 Y207.716 F4200
G1 F720
G1 X145.434 Y197.613 E3.53869
G1 X144.3 Y197.613 E3.58152
G1 X144.3 Y204.55 E3.84354
G1 X143.864 Y206.463 E3.91765
G1 X143.541 Y206.869 E3.93725
G1 X143.541 Y207.716 E3.96924
G1 E1.96924 F1800
G92 E0
G1 X144.986 Y186.61 F4200
G1 E2 F1800
;TYPE:Solid infill
;WIDTH:0.404602
G1 F432
G1 X145.591 Y187.214 E2.03268
G1 X145.591 Y187.756 E2.0534
G1 X144.615 Y186.78 E2.10617
G1 X144.073 Y186.78 E2.12689
G1 X145.591 Y188.298 E2.20896
G1 X145.591 Y188.84 E2.22968
G1 X143.531 Y186.78 E2.34105
G1 X142.989 Y186.78 E2.36177
G1 X145.591 Y189.382 E2.50245
G1 X145.591 Y189.924 E2.52317
G1 X142.447 Y186.78 E2.69315
G1 X141.906 Y186.78 E2.71383
G1 X145.591 Y190.466 E2.91309
G1 X145.591 Y191.007 E2.93377
G1 X141.364 Y186.78 E3.1623
G1 X140.822 Y186.78 E3.18302
G1 X145.528 Y191.487 E3.43748
G1 X144.986 Y191.487 E3.4582
G1 X142.716 Y189.216 E3.58096
G1 X142.727 Y189.133 E3.58416
G1 X142.693 Y188.873 E3.59418
G1 X142.592 Y188.63 E3.60424
G1 X142.432 Y188.421 E3.6143
G1 X142.223 Y188.261 E3.62436
G1 X141.979 Y188.16 E3.63446
G1 X141.715 Y188.127 E3.64463
G1 X141.637 Y188.137 E3.64764
G1 X140.28 Y186.78 E3.72101
G1 X139.738 Y186.78 E3.74173
G1 X141.218 Y188.26 E3.82175
G1 X141.006 Y188.422 E3.83195
G1 X140.934 Y188.518 E3.83654
G1 X139.196 Y186.78 E3.93051
G1 X138.655 Y186.78 E3.95119
G1 X140.899 Y189.024 E4.07251
G1 E2.07251 F1800
G92 E0
G1 X142.463 Y189.504 F4200
G1 E2 F1800
G1 F432
G1 X144.445 Y191.487 E2.10718
G1 X143.903 Y191.487 E2.1279
G1 X142.336 Y189.919 E2.21265
G1 X142.223 Y190.006 E2.2181
G1 X141.981 Y190.106 E2.22811
G1 X143.361 Y191.487 E2.30275
G1 X142.819 Y191.487 E2.32347
G1 X138.113 Y186.78 E2.57793
G1 X137.571 Y186.78 E2.59865
G1 X142.277 Y191.487 E2.85311
G1 X141.735 Y191.487 E2.87383
G1 X137.029 Y186.78 E3.12829
G1 X136.487 Y186.78 E3.14901
G1 X141.194 Y191.487 E3.4035
G1 X140.652 Y191.487 E3.42422
G1 X135.945 Y186.78 E3.67871
G1 X135.403 Y186.78 E3.69943
G1 X140.11 Y191.487 E3.95392
G1 X139.568 Y191.487 E3.97464
G1 X134.862 Y186.78 E4.2291
G1 X134.32 Y186.78 E4.24982
G1 X139.257 Y191.717 E4.51674
G1 X139.257 Y192.259 E4.53746
G1 X133.778 Y186.78 E4.83368
G1 X133.236 Y186.78 E4.8544
G1 X139.257 Y192.801 E5.17993
G1 X139.257 Y193.342 E5.20061
G1 X135.008 Y189.094 E5.43031
G1 X134.979 Y188.873 E5.43883
G1 X134.879 Y188.63 E5.44888
G1 X134.719 Y188.421 E5.45894
G1 X134.51 Y188.261 E5.469
G1 X134.266 Y188.16 E5.4791
G1 X134.047 Y188.132 E5.48754
G1 X132.694 Y186.78 E5.56066
G1 X132.152 Y186.78 E5.58138
G1 X133.595 Y188.223 E5.6594
G1 X133.503 Y188.261 E5.66321
G1 X133.276 Y188.445 E5.67438
G1 X131.611 Y186.78 E5.7644
G1 X131.069 Y186.78 E5.78512
G1 X133.201 Y188.913 E5.90041
G1 E3.90041 F1800
G92 E0
G1 X134.786 Y189.414 F4200
G1 E2 F1800
G1 F432
G1 X139.257 Y193.884 E2.2417
G1 X139.257 Y194.426 E2.26242
G1 X134.694 Y189.864 E2.50909
G1 X134.51 Y190.006 E2.51798
G1 X134.357 Y190.069 E2.52431
G1 X135.775 Y191.487 E2.60097
G1 X135.233 Y191.487 E2.62169
G1 X133.869 Y190.122 E2.69546
G1 X133.746 Y190.106 E2.7002
G1 X133.507 Y190.007 E2.71009
G1 X133.295 Y189.847 E2.72024
G1 X133.134 Y189.637 E2.73036
G1 X133.035 Y189.399 E2.74021
G1 X133.018 Y189.271 E2.74515
G1 X130.527 Y186.78 E2.87983
G1 X130.135 Y186.78 E2.89482
G1 X130.135 Y186.93 E2.90055
G1 X134.691 Y191.487 E3.1469
G1 X134.15 Y191.487 E3.16758
G1 X130.135 Y187.472 E3.38465
G1 X130.135 Y188.014 E3.40537
G1 X133.608 Y191.487 E3.59314
G1 X133.066 Y191.487 E3.61386
G1 X130.135 Y188.556 E3.77233
G1 X130.135 Y189.098 E3.79305
G1 X132.524 Y191.487 E3.92221
G1 X131.982 Y191.487 E3.94293
G1 X130.135 Y189.64 E4.04279
G1 X130.135 Y190.181 E4.06347
G1 X131.44 Y191.487 E4.13405
G1 X130.898 Y191.487 E4.15477
G1 X130.135 Y190.723 E4.19605
G1 X130.135 Y191.265 E4.21677
G1 X130.527 Y191.657 E4.23796
G1 E2.23796 F1800
G92 E0
G1 X136.292 Y192.003 F4200
G1 E2 F1800
G1 F432
G1 X139.257 Y194.968 E2.1603
G1 X139.257 Y195.51 E2.18102
G1 X136.462 Y192.715 E2.33213
G1 X136.462 Y193.257 E2.35285
G1 X139.257 Y196.052 E2.50396
G1 X139.257 Y196.594 E2.52468
G1 X136.462 Y193.799 E2.67579
G1 X136.462 Y194.341 E2.69651
G1 X139.257 Y197.135 E2.8476
G1 X139.257 Y197.677 E2.86832
