; generated by CreatWare 7.0.0 on 2022-07-16 at 05:05:07 UTC

; 

; external perimeters extrusion width = 0.40mm
; perimeters extrusion width = 0.40mm
; infill extrusion width = 0.40mm
; solid infill extrusion width = 0.40mm
; top infill extrusion width = 0.40mm
; support material extrusion width = 0.40mm

; external perimeters extrusion width = 0.40mm
; perimeters extrusion width = 0.40mm
; infill extrusion width = 0.40mm
; solid infill extrusion width = 0.40mm
; top infill extrusion width = 0.40mm
; support material extrusion width = 0.40mm

; external perimeters extrusion width = 0.40mm
; perimeters extrusion width = 0.40mm
; infill extrusion width = 0.40mm
; solid infill extrusion width = 0.40mm
; top infill extrusion width = 0.40mm
; support material extrusion width = 0.40mm

; external perimeters extrusion width = 0.40mm
; perimeters extrusion width = 0.40mm
; infill extrusion width = 0.40mm
; solid infill extrusion width = 0.40mm
; top infill extrusion width = 0.40mm
; support material extrusion width = 0.40mm

; external perimeters extrusion width = 0.40mm
; perimeters extrusion width = 0.40mm
; infill extrusion width = 0.40mm
; solid infill extrusion width = 0.40mm
; top infill extrusion width = 0.40mm
; support material extrusion width = 0.40mm

; external perimeters extrusion width = 0.40mm
; perimeters extrusion width = 0.40mm
; infill extrusion width = 0.40mm
; solid infill extrusion width = 0.40mm
; top infill extrusion width = 0.40mm
; support material extrusion width = 0.40mm

; external perimeters extrusion width = 0.40mm
; perimeters extrusion width = 0.40mm
; infill extrusion width = 0.40mm
; solid infill extrusion width = 0.40mm
; top infill extrusion width = 0.40mm
; support material extrusion width = 0.40mm

; external perimeters extrusion width = 0.40mm
; perimeters extrusion width = 0.40mm
; infill extrusion width = 0.40mm
; solid infill extrusion width = 0.40mm
; top infill extrusion width = 0.40mm
; support material extrusion width = 0.40mm

G21 ; set units to millimeters
G90 ; use absolute coordinates
M82 ; use absolute distances for extrusion
G92 E0
M107
M190 S45 ; set bed temperature and wait for it to be reached
M104 S210 ; set temperature
;TYPE:Custom
M109 S210 ; set temperature and wait for it to be reached
M6013 S0 ; set chamber temp

G28 X0 Y0  ;move X/Y to min endstops
G28 Z0     ;move Z to min endstops

;Add Clear Nozzle
G92 E0                   ;zero the extruded length again
G0 F4200 X0 Y0
G0 F400 X10 Z0.4         ;move a bit while down the Z
M221 T0 S300             ;set flow is 300%
G1 F200 X30 E8          ;extrude amont filament to clean the hotend
M221 T0 S100             ;reset flow is 100%
G92 E0                   ;zero the extruded length again
;Add End

G0 Z15.0 F4200 ;move the platform down 15mm

;Put printing message on LCD screen
M117 Printing...
; Filament gcode
M107
;LAYER_CHANGE
;Layer 1
;Z:0.1
;HEIGHT:0.1
;BEFORE_LAYER_CHANGE
;0.1


G1 Z.1 F4200
;AFTER_LAYER_CHANGE
;G92 E0   ;zero the extruded length again
;0.1
G1 E-2 F1800
G92 E0
G1 X112.569 Y57.326 F4200
G1 E2 F1800
;TYPE:Skirt/Brim
;WIDTH:0.4
G1 F720
G1 X113.89 Y55.402 E2.04408
G1 X116.233 Y53.059 E2.10666
G1 X118.079 Y51.774 E2.14914
G1 X120.743 Y51.191 E2.20064
G1 X136.539 Y51.193 E2.49895
G1 X314.696 Y55.523 E5.86451
G1 X316.9 Y55.974 E5.907
G1 X319.051 Y57.39 E5.95563
G1 X321.394 Y59.733 E6.01821
G1 X322.68 Y61.58 E6.06071
G1 X323.213 Y63.45 E6.09743
G1 X334.177 Y150.947 E7.76277
G1 X334.227 Y163.054 E7.99142
G1 X333.83 Y165.269 E8.03392
G1 X332.359 Y167.564 E8.0854
G1 X330.015 Y169.907 E8.14799
G1 X329.269 Y170.546 E8.16654
G1 X220.591 Y249.995 E10.70893
G1 X218.569 Y250.982 E10.75142
G1 X217.063 Y251.22 E10.78021
G1 X131.901 Y254.381 E12.38964
G1 X112.258 Y254.385 E12.76061
G1 X110.043 Y253.989 E12.8031
G1 X107.637 Y252.406 E12.85749
G1 X106.351 Y250.56 E12.89998
G1 X105.77 Y248.056 E12.94853
G1 X105.417 Y234.026 E13.21358
G1 X105.415 Y224.551 E13.39252
G1 X106.062 Y154.42 E14.71703
G1 X112.034 Y59.512 E16.51295
G1 X112.555 Y57.384 E16.55433
G1 E14.55433 F1800
G92 E0
G1 X114.789 Y222.505 F4200
G1 E2 F1800
G1 F720
G1 X129.139 Y222.508 E2.27101
G1 X129.513 Y222.598 E2.27827
G1 X130.029 Y222.879 E2.28937
G1 X131.431 Y224.281 E2.32681
G1 X131.658 Y224.638 E2.3348
G1 X131.824 Y225.204 E2.34594
G1 X131.805 Y233.331 E2.49942
G1 X131.657 Y233.781 E2.50837
G1 X131.432 Y234.135 E2.51629
G1 X130.049 Y235.518 E2.55323
G1 X129.84 Y235.671 E2.55812
G1 X129.126 Y235.912 E2.57235
G1 X114.789 Y235.912 E2.84311
G1 X114.222 Y235.745 E2.85427
G1 X113.898 Y235.544 E2.86147
G1 X112.484 Y234.136 E2.89916
G1 X112.331 Y233.928 E2.90404
G1 X112.09 Y233.213 E2.91829
G1 X112.099 Y225.149 E3.07058
G1 X112.256 Y224.639 E3.08066
G1 X112.483 Y224.281 E3.08867
G1 X113.866 Y222.899 E3.12559
G1 X114.074 Y222.746 E3.13047
G1 X114.732 Y222.524 E3.14358
G1 X114.82 Y222.883 F4200
G1 F720
G1 X129.117 Y222.887 E3.41358
G1 X129.359 Y222.944 E3.41828
G1 X129.782 Y223.168 E3.42732
G1 X131.15 Y224.535 E3.46384
G1 X131.304 Y224.776 E3.46924
G1 X131.446 Y225.233 E3.47828
G1 X131.436 Y233.241 E3.62951
G1 X131.305 Y233.64 E3.63744
G1 X131.15 Y233.881 E3.64285
G1 X129.792 Y235.239 E3.67912
G1 X129.642 Y235.347 E3.68261
G1 X129.095 Y235.533 E3.69352
G1 X114.819 Y235.533 E3.96313
G1 X114.361 Y235.392 E3.97218
G1 X114.121 Y235.237 E3.97758
G1 X112.763 Y233.88 E4.01384
G1 X112.655 Y233.73 E4.01733
G1 X112.469 Y233.182 E4.02826
G1 X112.469 Y225.233 E4.17838
G1 X112.61 Y224.776 E4.18741
G1 X112.765 Y224.535 E4.19282
G1 X114.122 Y223.178 E4.22906
G1 X114.272 Y223.069 E4.23256
G1 X114.763 Y222.903 E4.24235
G1 X114.852 Y223.262 F4200
G1 F720
G1 X129.095 Y223.266 E4.51134
G1 X129.21 Y223.293 E4.51357
G1 X129.537 Y223.458 E4.52049
G1 X130.869 Y224.79 E4.55607
G1 X130.954 Y224.919 E4.55899
G1 X131.067 Y225.265 E4.56586
G1 X131.067 Y233.152 E4.71481
G1 X130.954 Y233.497 E4.72167
G1 X130.869 Y233.627 E4.7246
G1 X129.537 Y234.959 E4.76018
G1 X129.447 Y235.022 E4.76225
G1 X129.063 Y235.155 E4.76992
G1 X114.85 Y235.155 E5.03834
G1 X114.505 Y235.041 E5.0452
G1 X114.375 Y234.956 E5.04813
G1 X113.043 Y233.625 E5.08369
G1 X112.98 Y233.534 E5.08578
G1 X112.847 Y233.15 E5.09345
G1 X112.847 Y225.265 E5.24236
G1 X112.961 Y224.919 E5.24924
G1 X113.046 Y224.79 E5.25216
G1 X114.377 Y223.458 E5.28772
G1 X114.468 Y223.394 E5.28982
G1 X114.795 Y223.281 E5.29635
G1 X114.886 Y223.64 F4200
G1 F720
G1 X129.043 Y223.64 E5.56371
G1 X129.294 Y223.75 E5.56889
G1 X130.589 Y225.045 E5.60348
G1 X130.689 Y225.3 E5.60865
G1 X130.689 Y233.116 E5.75626
G1 X130.607 Y233.345 E5.76085
G1 X129.284 Y234.676 E5.79629
G1 X129.029 Y234.776 E5.80146
G1 X114.886 Y234.776 E6.06856
G1 X114.657 Y234.694 E6.07315
G1 X113.326 Y233.372 E6.10858
G1 X113.226 Y233.116 E6.11377
G1 X113.226 Y225.3 E6.26138
G1 X113.326 Y225.045 E6.26655
G1 X114.63 Y223.74 E6.30139
G1 X114.829 Y223.661 E6.30543
G1 X114.928 Y224.019 F4200
G1 F720
G1 X128.987 Y224.019 E6.57094
G1 X129.056 Y224.048 E6.57235
G1 X130.281 Y225.273 E6.60507
G1 X130.31 Y225.342 E6.60648
G1 X130.31 Y233.074 E6.7525
G1 X130.281 Y233.144 E6.75393
G1 X129.056 Y234.369 E6.78665
G1 X128.987 Y234.398 E6.78806
G1 X114.928 Y234.398 E7.05357
G1 X114.858 Y234.369 E7.055
G1 X113.633 Y233.144 E7.08772
G1 X113.605 Y233.074 E7.08914
G1 X113.605 Y225.342 E7.23516
G1 X113.633 Y225.273 E7.23657
G1 X114.872 Y224.042 E7.26955
G1 E5.26955 F1800
G92 E0
G1 X192.961 Y232.796 F4200
G1 E2 F1800
G1 F720
G1 X193.127 Y232.231 E2.01112
G1 X193.272 Y231.976 E2.01666
G1 X194.768 Y230.465 E2.05682
G1 X195.09 Y230.264 E2.06399
G1 X195.542 Y230.116 E2.07297
G1 X203.888 Y230.106 E2.23059
G1 X204.219 Y230.19 E2.23704
G1 X204.736 Y230.472 E2.24816
G1 X206.166 Y231.907 E2.28642
G1 X206.381 Y232.234 E2.29381
G1 X207.143 Y231.485 E2.31399
G1 X207.435 Y231.309 E2.32043
G1 X208.001 Y231.142 E2.33157
G1 X216.148 Y231.142 E2.48543
G1 X216.56 Y231.234 E2.4934
G1 X217.078 Y231.517 E2.50455
G1 X218.531 Y232.982 E2.54352
G1 X218.706 Y233.274 E2.54995
G1 X218.873 Y233.841 E2.56111
G1 X218.873 Y241.851 E2.71238
G1 X218.707 Y242.417 E2.72352
G1 X218.48 Y242.773 E2.73149
G1 X217.033 Y244.207 E2.76996
G1 X216.741 Y244.382 E2.77639
G1 X216.174 Y244.549 E2.78755
G1 X207.807 Y244.516 E2.94557
G1 X207.422 Y244.378 E2.95329
G1 X207.079 Y244.156 E2.96101
G1 X205.667 Y242.739 E2.99879
G1 X205.453 Y242.413 E3.00615
G1 X204.691 Y243.162 E3.02633
G1 X204.399 Y243.337 E3.03276
G1 X203.832 Y243.504 E3.04392
G1 X195.659 Y243.504 E3.19827
G1 X195.093 Y243.337 E3.20941
G1 X194.737 Y243.111 E3.21737
G1 X193.303 Y241.664 E3.25584
G1 X193.127 Y241.372 E3.26228
G1 X192.961 Y240.805 E3.27344
G1 X192.961 Y232.856 E3.42356
G1 X193.339 Y232.856 F4200
G1 F720
G1 X193.481 Y232.367 E3.43318
G1 X193.585 Y232.19 E3.43706
G1 X194.991 Y230.772 E3.47477
G1 X195.233 Y230.616 E3.48021
G1 X195.631 Y230.485 E3.48812
G1 X203.824 Y230.479 E3.64285
G1 X204.066 Y230.537 E3.64755
G1 X204.489 Y230.76 E3.65658
G1 X205.881 Y232.157 E3.69382
G1 X206.012 Y232.37 E3.69854
G1 X206.202 Y232.947 E3.71001
G1 X207.362 Y231.793 E3.74091
G1 X207.572 Y231.663 E3.74557
G1 X208.031 Y231.521 E3.75464
G1 X216.129 Y231.521 E3.90757
G1 X216.408 Y231.582 E3.91296
G1 X216.831 Y231.805 E3.92199
G1 X218.222 Y233.202 E3.95922
G1 X218.353 Y233.412 E3.96389
G1 X218.495 Y233.871 E3.97296
G1 X218.495 Y241.821 E4.1231
G1 X218.353 Y242.279 E4.13216
G1 X218.199 Y242.519 E4.13755
G1 X216.813 Y243.899 E4.17449
G1 X216.604 Y244.029 E4.17914
G1 X216.145 Y244.171 E4.18821
G1 X207.904 Y244.148 E4.34385
G1 X207.57 Y244.029 E4.35055
G1 X207.333 Y243.875 E4.35589
G1 X205.953 Y242.49 E4.39281
G1 X205.821 Y242.277 E4.39754
G1 X205.632 Y241.7 E4.40901
G1 X204.471 Y242.853 E4.43991
G1 X204.262 Y242.984 E4.44457
G1 X203.803 Y243.125 E4.45364
G1 X195.689 Y243.125 E4.60688
G1 X195.231 Y242.984 E4.61593
G1 X194.991 Y242.83 E4.62132
G1 X193.611 Y241.444 E4.65826
G1 X193.481 Y241.235 E4.66291
G1 X193.339 Y240.776 E4.67198
G1 X193.339 Y232.916 E4.82042
G1 X193.718 Y232.916 F4200
G1 F720
G1 X193.718 Y232.857 E4.82153
G1 X193.832 Y232.509 E4.82845
G1 X193.894 Y232.409 E4.83067
G1 X195.245 Y231.052 E4.86683
G1 X195.375 Y230.968 E4.86975
G1 X195.721 Y230.854 E4.87663
G1 X203.802 Y230.858 E5.02924
G1 X203.917 Y230.885 E5.03147
G1 X204.244 Y231.05 E5.03839
G1 X205.597 Y232.409 E5.07461
G1 X205.66 Y232.509 E5.07684
G1 X205.774 Y232.857 E5.08376
G1 X205.774 Y233.737 E5.10038
G1 X206.081 Y233.796 E5.10628
G1 X206.19 Y233.523 E5.11183
G1 X206.256 Y233.429 E5.114
G1 X207.587 Y232.098 E5.14955
G1 X207.717 Y232.013 E5.15248
G1 X208.063 Y231.9 E5.15935
G1 X216.11 Y231.9 E5.31132
G1 X216.261 Y231.931 E5.31423
G1 X216.586 Y232.095 E5.3211
G1 X217.918 Y233.427 E5.35668
G1 X218.003 Y233.557 E5.35961
G1 X218.116 Y233.903 E5.36648
G1 X218.116 Y241.789 E5.51541
G1 X218.003 Y242.135 E5.52228
G1 X217.918 Y242.265 E5.52521
G1 X216.588 Y243.594 E5.56072
G1 X216.459 Y243.679 E5.56364
G1 X216.113 Y243.792 E5.57051
G1 X208.001 Y243.781 E5.72371
G1 X207.719 Y243.68 E5.72937
G1 X207.588 Y243.594 E5.73233
G1 X206.236 Y242.238 E5.76849
G1 X206.174 Y242.137 E5.77073
G1 X206.06 Y241.789 E5.77765
G1 X206.06 Y240.91 E5.79425
G1 X205.753 Y240.851 E5.80015
G1 X205.644 Y241.123 E5.80568
G1 X205.578 Y241.217 E5.80785
G1 X204.246 Y242.549 E5.84343
G1 X204.117 Y242.633 E5.84634
G1 X203.771 Y242.747 E5.85322
G1 X195.721 Y242.747 E6.00525
G1 X195.375 Y242.633 E6.01213
G1 X195.245 Y242.549 E6.01505
G1 X193.916 Y241.219 E6.05056
G1 X193.831 Y241.09 E6.05348
G1 X193.718 Y240.744 E6.06035
G1 X193.718 Y232.976 E6.20705
G1 X194.096 Y232.976 F4200
G1 F720
G1 X194.096 Y232.892 E6.20864
G1 X194.196 Y232.637 E6.21381
G1 X195.501 Y231.333 E6.24865
G1 X195.756 Y231.233 E6.25382
G1 X203.75 Y231.233 E6.40479
G1 X204.001 Y231.343 E6.40997
G1 X205.295 Y232.637 E6.44453
G1 X205.395 Y232.892 E6.4497
G1 X205.395 Y240.709 E6.59733
G1 X205.295 Y240.964 E6.6025
G1 X203.991 Y242.269 E6.63734
G1 X203.736 Y242.368 E6.64251
G1 X195.756 Y242.368 E6.79322
G1 X195.501 Y242.269 E6.79839
G1 X194.196 Y240.964 E6.83324
G1 X194.096 Y240.709 E6.83841
G1 X194.096 Y233.036 E6.98332
G1 X194.475 Y233.036 F4200
G1 F720
G1 X194.475 Y232.935 E6.98523
G1 X194.504 Y232.865 E6.98666
G1 X195.728 Y231.64 E7.01936
G1 X195.798 Y231.611 E7.02079
G1 X203.694 Y231.611 E7.16991
G1 X203.763 Y231.64 E7.17132
G1 X204.988 Y232.865 E7.20404
G1 X205.017 Y232.935 E7.20547
G1 X205.017 Y240.667 E7.35149
G1 X204.988 Y240.736 E7.3529
G1 X203.763 Y241.961 E7.38562
G1 X203.694 Y241.99 E7.38703
G1 X195.798 Y241.99 E7.53615
G1 X195.728 Y241.961 E7.53758
G1 X194.504 Y240.736 E7.57028
G1 X194.475 Y240.667 E7.57169
G1 X194.475 Y233.096 E7.71467
G1 E5.71467 F1800
G92 E0
G1 X206.438 Y233.938 F4200
G1 E2 F1800
G1 F720
G1 X206.538 Y233.682 E2.00519
G1 X207.843 Y232.378 E2.04003
G1 X208.098 Y232.278 E2.0452
G1 X216.092 Y232.278 E2.19617
G1 X216.343 Y232.388 E2.20135
G1 X217.638 Y233.682 E2.23592
G1 X217.737 Y233.938 E2.2411
G1 X217.737 Y241.754 E2.38871
G1 X217.638 Y242.009 E2.39388
G1 X216.333 Y243.314 E2.42873
G1 X216.078 Y243.414 E2.4339
G1 X208.098 Y243.414 E2.58461
G1 X207.843 Y243.314 E2.58978
G1 X206.538 Y242.009 E2.62463
G1 X206.438 Y241.754 E2.6298
G1 X206.438 Y233.998 E2.77628
G1 X206.817 Y233.998 F4200
G1 F720
G1 X206.846 Y233.91 E2.77803
G1 X208.071 Y232.685 E2.81075
G1 X208.14 Y232.657 E2.81216
G1 X216.036 Y232.657 E2.96128
G1 X216.105 Y232.685 E2.96269
G1 X217.33 Y233.91 E2.99541
G1 X217.359 Y233.98 E2.99684
G1 X217.359 Y241.712 E3.14286
G1 X217.33 Y241.782 E3.14429
G1 X216.105 Y243.006 E3.17699
G1 X216.036 Y243.035 E3.1784
G1 X208.14 Y243.035 E3.32752
G1 X208.071 Y243.006 E3.32893
G1 X206.846 Y241.782 E3.36163
G1 X206.817 Y241.712 E3.36306
G1 X206.817 Y234.058 E3.50761
G1 E1.50761 F1800
G92 E0
G1 X210.045 Y159.971 F4200
G1 E2 F1800
G1 F720
G1 X209.66 Y159.833 E2.00772
G1 X209.317 Y159.611 E2.01544
G1 X207.905 Y158.194 E2.05322
G1 X207.691 Y157.868 E2.06058
G1 X206.929 Y158.617 E2.08076
G1 X206.637 Y158.792 E2.08719
G1 X206.07 Y158.959 E2.09835
G1 X197.897 Y158.959 E2.2527
G1 X197.331 Y158.792 E2.26384
G1 X196.975 Y158.566 E2.2718
G1 X195.54 Y157.119 E2.31029
G1 X195.365 Y156.827 E2.31672
G1 X195.198 Y156.26 E2.32788
G1 X195.198 Y148.251 E2.47913
G1 X195.365 Y147.686 E2.49026
G1 X195.51 Y147.431 E2.4958
G1 X197.006 Y145.92 E2.53596
G1 X197.328 Y145.719 E2.54313
G1 X197.78 Y145.571 E2.55211
G1 X206.126 Y145.561 E2.70973
G1 X206.457 Y145.645 E2.71618
G1 X206.974 Y145.927 E2.7273
G1 X208.404 Y147.362 E2.76556
G1 X208.618 Y147.689 E2.77294
G1 X209.38 Y146.94 E2.79312
G1 X209.672 Y146.764 E2.79956
G1 X210.239 Y146.597 E2.81072
G1 X218.386 Y146.597 E2.96458
G1 X218.798 Y146.689 E2.97255
G1 X219.316 Y146.972 E2.9837
G1 X220.769 Y148.437 E3.02267
G1 X220.944 Y148.729 E3.0291
G1 X221.111 Y149.296 E3.04026
G1 X221.111 Y157.306 E3.19153
G1 X220.944 Y157.871 E3.20266
G1 X220.718 Y158.228 E3.21064
G1 X219.271 Y159.662 E3.24911
G1 X218.979 Y159.837 E3.25554
G1 X218.412 Y160.004 E3.2667
G1 X210.105 Y159.971 E3.42358
G1 X210.142 Y159.603 F4200
G1 F720
G1 X209.808 Y159.484 E3.43028
G1 X209.571 Y159.33 E3.43562
G1 X208.191 Y157.945 E3.47254
G1 X208.059 Y157.732 E3.47727
G1 X207.87 Y157.155 E3.48874
G1 X206.709 Y158.308 E3.51964
G1 X206.499 Y158.439 E3.52431
G1 X206.041 Y158.58 E3.53336
G1 X197.927 Y158.58 E3.6866
G1 X197.469 Y158.439 E3.69565
G1 X197.229 Y158.285 E3.70104
G1 X195.849 Y156.899 E3.73798
G1 X195.719 Y156.69 E3.74263
G1 X195.577 Y156.231 E3.7517
G1 X195.577 Y148.28 E3.90186
G1 X195.719 Y147.822 E3.91092
G1 X195.823 Y147.644 E3.91481
G1 X197.229 Y146.227 E3.95251
G1 X197.471 Y146.071 E3.95795
G1 X197.869 Y145.94 E3.96586
G1 X206.062 Y145.934 E4.12059
G1 X206.304 Y145.992 E4.12529
G1 X206.727 Y146.215 E4.13432
G1 X208.119 Y147.612 E4.17156
G1 X208.25 Y147.825 E4.17628
G1 X208.44 Y148.402 E4.18775
G1 X209.6 Y147.248 E4.21865
G1 X209.81 Y147.118 E4.22331
G1 X210.269 Y146.976 E4.23238
G1 X218.366 Y146.976 E4.3853
G1 X218.646 Y147.037 E4.39071
G1 X219.069 Y147.26 E4.39974
G1 X220.46 Y148.657 E4.43697
G1 X220.591 Y148.867 E4.44164
G1 X220.732 Y149.326 E4.45071
G1 X220.732 Y157.276 E4.60085
G1 X220.591 Y157.734 E4.6099
G1 X220.437 Y157.974 E4.61529
G1 X219.051 Y159.353 E4.65221
