; generated by CreatWare 7.0.0 on 2022-07-05 at 18:46:51 UTC

; 

; external perimeters extrusion width = 0.60mm
; perimeters extrusion width = 0.60mm
; infill extrusion width = 0.60mm
; solid infill extrusion width = 0.60mm
; top infill extrusion width = 0.60mm
; support material extrusion width = 0.60mm

; external perimeters extrusion width = 0.60mm
; perimeters extrusion width = 0.60mm
; infill extrusion width = 0.60mm
; solid infill extrusion width = 0.60mm
; top infill extrusion width = 0.60mm
; support material extrusion width = 0.60mm

G21 ; set units to millimeters
G90 ; use absolute coordinates
M82 ; use absolute distances for extrusion
G92 E0
M107
M190 S45 ; set bed temperature and wait for it to be reached
M104 S220 T0 ; set temperature
M104 S220 T1 ; set temperature
;TYPE:Custom
M109 S220 T0 ; set temperature and wait for it to be reached
M109 S220 T1 ; set temperature and wait for it to be reached
M6013 S0 ; set chamber temp

G28 X0 Y0  ;move X/Y to min endstops
G28 Z0     ;move Z to min endstops

;Add Clear Nozzle
G92 E0                   ;zero the extruded length again
G0 F4200 X0 Y0
G0 F400 X10 Z0.4         ;move a bit while down the Z
M221 T0 S300             ;set flow is 300%
G1 F200 X30 E8          ;extrude amont filament to clean the hotend
M221 T0 S100             ;reset flow is 100%
G92 E0                   ;zero the extruded length again
;Add End

G0 Z15.0 F4200 ;move the platform down 15mm

;Put printing message on LCD screen
M117 Printing...
T1
G92 E0
; Filament gcode
M107
;LAYER_CHANGE
;Layer 1
;Z:0.1
;HEIGHT:0.1
;BEFORE_LAYER_CHANGE
;0.1


G1 Z.1 F4200
;AFTER_LAYER_CHANGE
;G92 E0   ;zero the extruded length again
;0.1
G1 E-2 F1800
G92 E0
G1 X103.462 Y61.079 F4200
G1 E2 F1800
;TYPE:Skirt/Brim
;WIDTH:0.6
G1 F720
G1 X104.929 Y58.845 E2.07714
G1 X107.272 Y56.502 E2.17278
G1 X109.144 Y55.192 E2.23873
G1 X111.923 Y54.576 E2.32089
G1 X127.564 Y54.576 E2.77234
G1 X129.815 Y54.972 E2.83831
G1 X132.216 Y56.502 E2.92049
G1 X134.559 Y58.845 E3.01613
G1 X135.87 Y60.718 E3.08212
G1 X136.396 Y62.416 E3.13343
G1 X156.583 Y183.539 E6.67768
G1 X156.672 Y184.621 E6.70902
G1 X156.672 Y193.646 E6.96951
G1 X156.605 Y194.587 E6.99674
G1 X154.888 Y206.463 E7.34309
G1 X153.591 Y209.533 E7.43928
G1 X153.302 Y209.909 E7.45297
G1 X151.615 Y211.451 E7.51894
G1 X150.47 Y212.03 E7.55597
G1 X143.798 Y214.621 E7.76256
G1 X141.416 Y215.068 E7.83251
G1 X134.302 Y215.068 E8.03784
G1 X131.955 Y214.635 E8.10673
G1 X125.171 Y212.043 E8.31635
G1 X122.697 Y210.38 E8.40239
G1 X121.386 Y208.508 E8.46835
G1 X120.843 Y206.701 E8.52281
G1 X102.727 Y85.578 E12.05773
G1 X102.655 Y84.605 E12.08589
G1 X102.657 Y76.05 E12.33282
G1 X103.004 Y63.318 E12.70045
G1 X103.444 Y61.167 E12.76382
G1 E10.76382 F1800
G92 E0
G1 X110.177 Y63.934 F4200
G1 E2 F1800
G1 F720
G1 X110.311 Y63.61 E2.01012
G1 X110.402 Y63.466 E2.01504
G1 X111.892 Y61.976 E2.07586
G1 X112.036 Y61.885 E2.08078
G1 X112.357 Y61.752 E2.09081
G1 X112.58 Y61.708 E2.09737
G1 X126.961 Y61.713 E2.51246
G1 X127.127 Y61.751 E2.51738
G1 X127.451 Y61.885 E2.5275
G1 X127.596 Y61.976 E2.53244
G1 X129.052 Y63.425 E2.59173
G1 X129.178 Y63.613 E2.59826
G1 X129.309 Y63.931 E2.60819
G1 X129.354 Y64.154 E2.61476
G1 X129.348 Y72.207 E2.8472
G1 X129.311 Y72.374 E2.85214
G1 X129.176 Y72.698 E2.86227
G1 X129.085 Y72.842 E2.86719
G1 X127.595 Y74.332 E2.92801
G1 X127.451 Y74.423 E2.93293
G1 X127.13 Y74.556 E2.94296
G1 X126.908 Y74.6 E2.94949
G1 X112.58 Y74.6 E3.36305
G1 X112.357 Y74.556 E3.36961
G1 X112.036 Y74.423 E3.37964
G1 X111.892 Y74.332 E3.38456
G1 X110.402 Y72.842 E3.44538
G1 X110.311 Y72.698 E3.4503
G1 X110.178 Y72.377 E3.46033
G1 X110.134 Y72.155 E3.46686
G1 X110.139 Y64.101 E3.69933
G1 X110.157 Y64.022 E3.70167
G1 X110.722 Y64.135 F4200
G1 F720
G1 X110.865 Y63.814 E3.71181
G1 X112.24 Y62.439 E3.76794
G1 X112.608 Y62.286 E3.77944
G1 X126.879 Y62.286 E4.19135
G1 X127.2 Y62.407 E4.20125
G1 X128.622 Y63.814 E4.25899
G1 X128.775 Y64.182 E4.27049
G1 X128.775 Y72.126 E4.49978
G1 X128.654 Y72.447 E4.50968
G1 X127.248 Y73.869 E4.5674
G1 X126.879 Y74.022 E4.57893
G1 X112.608 Y74.022 E4.99084
G1 X112.287 Y73.901 E5.00074
G1 X110.865 Y72.495 E5.05846
G1 X110.712 Y72.126 E5.06999
G1 X110.712 Y64.224 E5.29807
G1 X111.291 Y64.268 F4200
G1 F720
G1 X111.335 Y64.162 E5.30138
G1 X112.588 Y62.909 E5.35253
G1 X112.694 Y62.865 E5.35584
G1 X126.793 Y62.865 E5.76279
G1 X126.9 Y62.909 E5.76613
G1 X128.153 Y64.162 E5.81728
G1 X128.197 Y64.268 E5.82059
G1 X128.197 Y72.04 E6.04492
G1 X128.153 Y72.146 E6.04823
G1 X126.9 Y73.399 E6.09938
G1 X126.793 Y73.443 E6.10272
G1 X112.694 Y73.443 E6.50967
G1 X112.588 Y73.399 E6.51298
G1 X111.335 Y72.146 E6.56413
G1 X111.291 Y72.04 E6.56744
G1 X111.291 Y64.358 E6.78917
G1 E4.78917 F1800
G92 E0
G1 X128.632 Y182.831 F4200
G1 E2 F1800
G1 F720
G1 X147.147 Y182.837 E2.53441
G1 X147.314 Y182.874 E2.53935
G1 X147.635 Y183.007 E2.54938
G1 X147.823 Y183.133 E2.55591
G1 X149.238 Y184.548 E2.61367
G1 X149.363 Y184.735 E2.62016
G1 X149.511 Y185.104 E2.63164
G1 X149.54 Y185.273 E2.63659
G1 X149.54 Y192.99 E2.85933
G1 X149.496 Y193.212 E2.86586
G1 X149.364 Y193.53 E2.8758
G1 X149.238 Y193.719 E2.88236
G1 X147.823 Y195.134 E2.94012
G1 X147.635 Y195.26 E2.94665
G1 X147.317 Y195.391 E2.95658
G1 X147.094 Y195.436 E2.96315
G1 X143.206 Y195.436 E3.07537
G1 X143.2 Y205.543 E3.36709
G1 X143.163 Y205.709 E3.372
G1 X143.028 Y206.033 E3.38213
G1 X142.937 Y206.178 E3.38707
G1 X141.489 Y207.634 E3.44634
G1 X141.3 Y207.76 E3.4529
G1 X140.982 Y207.891 E3.46283
G1 X140.76 Y207.936 E3.46937
G1 X134.959 Y207.936 E3.63681
G1 X134.736 Y207.891 E3.64338
G1 X134.419 Y207.76 E3.65328
G1 X134.23 Y207.634 E3.65984
G1 X132.815 Y206.219 E3.7176
G1 X132.689 Y206.03 E3.72416
G1 X132.556 Y205.709 E3.73419
G1 X132.519 Y205.543 E3.7391
G1 X132.513 Y195.436 E4.03082
G1 X128.632 Y195.436 E4.14284
G1 X128.409 Y195.391 E4.14941
G1 X128.092 Y195.26 E4.15931
G1 X127.903 Y195.134 E4.16587
G1 X126.488 Y193.719 E4.22363
G1 X126.362 Y193.53 E4.23019
G1 X126.23 Y193.212 E4.24013
G1 X126.186 Y192.99 E4.24666
G1 X126.186 Y185.277 E4.46928
G1 X126.23 Y185.054 E4.47584
G1 X126.362 Y184.737 E4.48575
G1 X126.488 Y184.548 E4.49231
G1 X127.903 Y183.133 E4.55007
G1 X128.092 Y183.007 E4.55663
G1 X128.409 Y182.875 E4.56654
G1 X128.544 Y182.849 E4.57051
G1 X128.655 Y183.411 F4200
G1 F720
G1 X147.066 Y183.41 E5.10192
G1 X147.434 Y183.562 E5.11341
G1 X148.841 Y184.984 E5.17115
G1 X148.962 Y185.305 E5.18105
G1 X148.951 Y193.017 E5.40365
G1 X148.809 Y193.33 E5.41357
G1 X147.434 Y194.704 E5.46968
G1 X147.122 Y194.846 E5.47957
G1 X142.627 Y194.857 E5.60931
G1 X142.627 Y205.461 E5.91538
G1 X142.474 Y205.83 E5.92691
G1 X141.053 Y207.236 E5.98461
G1 X140.731 Y207.357 E5.99454
G1 X134.987 Y207.357 E6.16033
G1 X134.619 Y207.204 E6.17183
G1 X133.213 Y205.783 E6.22953
G1 X133.092 Y205.461 E6.23946
G1 X133.092 Y194.857 E6.54553
G1 X128.604 Y194.846 E6.67507
G1 X128.292 Y194.704 E6.68496
G1 X126.917 Y193.33 E6.74107
G1 X126.776 Y193.017 E6.75098
G1 X126.765 Y185.305 E6.97358
G1 X126.917 Y184.937 E6.98507
G1 X128.292 Y183.562 E7.0412
G1 X128.569 Y183.435 E7.05
G1 X128.746 Y183.988 F4200
G1 F720
G1 X146.98 Y183.988 E7.5763
G1 X147.086 Y184.032 E7.57961
G1 X148.339 Y185.285 E7.63076
G1 X148.383 Y185.391 E7.63407
G1 X148.383 Y192.875 E7.85008
G1 X148.339 Y192.982 E7.85342
G1 X147.086 Y194.235 E7.90457
G1 X146.98 Y194.279 E7.90788
G1 X142.049 Y194.279 E8.05021
G1 X142.049 Y205.375 E8.37048
G1 X142.005 Y205.482 E8.37382
G1 X140.752 Y206.735 E8.42497
G1 X140.645 Y206.779 E8.42831
G1 X135.073 Y206.779 E8.58914
G1 X134.967 Y206.735 E8.59245
G1 X133.714 Y205.482 E8.6436
G1 X133.67 Y205.375 E8.64694
G1 X133.67 Y194.279 E8.96721
G1 X128.746 Y194.279 E9.10933
G1 X128.64 Y194.235 E9.11264
G1 X127.387 Y192.982 E9.16379
G1 X127.343 Y192.875 E9.16713
G1 X127.343 Y185.391 E9.38314
G1 X127.387 Y185.285 E9.38645
G1 X128.663 Y184.023 E9.43825
G1 E7.43825 F1800
G92 E0
G1 X131.659 Y204.506 F4200
G1 E2 F1800
;TYPE:Support material
G1 F720
G1 X131.769 Y205.472 E2.02806
G1 X131.835 Y205.608 E2.03242
G1 X127.638 Y205.608 E2.15356
G1 X127.638 Y197.473 E2.38836
G1 X131.659 Y197.473 E2.50442
G1 X131.659 Y204.42 E2.70493
G1 X129.185 Y205.348 F4200
G1 F720
G1 X129.185 Y197.733 E2.92473
G1 E.92473 F1800
G92 E0
G1 X148.088 Y205.608 F4200
G1 E2 F1800
G1 F720
G1 X143.812 Y205.608 E2.12342
G1 X144.059 Y204.523 E2.15554
G1 X144.059 Y197.473 E2.35903
G1 X148.088 Y197.473 E2.47532
G1 X148.088 Y205.521 E2.70761
G1 X146.541 Y205.348 F4200
G1 F720
G1 X146.541 Y197.733 E2.92741
G1 E.92741 F1800
G92 E0
G1 X145.591 Y187.962 F4200
G1 E2 F1800
;TYPE:Solid infill
;WIDTH:0.605977
G1 F432
G1 X144.67 Y187.04 E2.038
G1 X143.843 Y187.04 E2.06212
G1 X145.331 Y188.528 E2.12349
G1 X145.331 Y189.355 E2.14761
G1 X143.016 Y187.04 E2.24308
G1 X142.19 Y187.04 E2.26717
G1 X145.331 Y190.182 E2.39673
G1 X145.331 Y191.008 E2.42082
G1 X141.363 Y187.04 E2.58446
G1 X140.536 Y187.04 E2.60858
G1 X141.402 Y187.906 E2.64429
G1 X141.085 Y188.034 E2.65426
G1 X140.869 Y188.2 E2.6622
G1 X139.71 Y187.04 E2.71002
G1 X138.883 Y187.04 E2.73414
G1 X140.744 Y188.901 E2.81089
G1 E.81089 F1800
G92 E0
G1 X142.715 Y189.219 F4200
G1 E2 F1800
G1 F432
G1 X144.723 Y191.227 E2.08281
G1 X143.896 Y191.227 E2.10693
G1 X142.654 Y189.984 E2.15817
G1 X142.617 Y190.031 E2.15991
G1 X142.355 Y190.233 E2.16956
G1 X142.157 Y190.314 E2.1758
G1 X143.069 Y191.227 E2.21343
G1 X142.243 Y191.227 E2.23752
G1 X138.056 Y187.04 E2.4102
G1 X137.23 Y187.04 E2.43429
G1 X141.416 Y191.227 E2.60694
G1 X140.59 Y191.227 E2.63103
G1 X136.403 Y187.04 E2.80371
G1 X135.577 Y187.04 E2.8278
G1 X139.763 Y191.227 E3.00045
G1 X138.997 Y191.227 E3.02279
G1 X138.997 Y191.287 E3.02454
G1 X134.75 Y187.04 E3.19969
G1 X133.923 Y187.04 E3.22381
G1 X138.997 Y192.113 E3.43305
G1 X138.997 Y192.94 E3.45717
G1 X135.266 Y189.209 E3.61104
G1 X135.276 Y189.133 E3.61328
G1 X135.232 Y188.805 E3.62293
G1 X135.106 Y188.499 E3.63258
G1 X134.904 Y188.236 E3.64225
G1 X134.641 Y188.034 E3.65192
G1 X134.333 Y187.906 E3.66165
G1 X134.001 Y187.865 E3.67141
G1 X133.93 Y187.874 E3.6735
G1 X132.836 Y186.78 E3.71862
G1 E1.71862 F1800
G92 E0
G1 X133.496 Y188.266 F4200
G1 E2 F1800
G1 F432
G1 X132.27 Y187.04 E2.05056
G1 X131.443 Y187.04 E2.07468
G1 X133.105 Y188.702 E2.14322
G1 E.14322 F1800
G92 E0
G1 X134.872 Y189.643 F4200
G1 E2 F1800
G1 F432
G1 X138.997 Y193.767 E2.1701
G1 X138.997 Y194.593 E2.19419
G1 X136.722 Y192.319 E2.28799
G1 X136.722 Y193.146 E2.31211
G1 X138.997 Y195.42 E2.40591
G1 X138.997 Y196.247 E2.43003
G1 X136.722 Y193.972 E2.52385
G1 X136.722 Y194.799 E2.54797
G1 X138.997 Y197.073 E2.64177
G1 X138.997 Y197.9 E2.66589
G1 X136.722 Y195.625 E2.75971
G1 X136.722 Y196.452 E2.78383
G1 X138.997 Y198.726 E2.87763
G1 X138.997 Y199.553 E2.90175
G1 X136.722 Y197.279 E2.99555
G1 X136.722 Y198.105 E3.01964
G1 X138.997 Y200.38 E3.11346
G1 X138.997 Y201.206 E3.13755
G1 X136.722 Y198.932 E3.23135
G1 X136.722 Y199.759 E3.25547
G1 X138.997 Y202.033 E3.34927
G1 X138.997 Y202.86 E3.37339
G1 X136.722 Y200.585 E3.46721
G1 X136.722 Y201.412 E3.49133
G1 X138.997 Y203.686 E3.58513
G1 X138.997 Y203.727 E3.58633
G1 X138.21 Y203.727 E3.60928
G1 X136.722 Y202.239 E3.67065
G1 X136.722 Y203.065 E3.69474
G1 X137.644 Y203.987 E3.73276
G1 E1.73276 F1800
G92 E0
G1 X135.89 Y191.487 F4200
G1 E2 F1800
G1 F432
G1 X134.438 Y190.035 E2.05988
G1 E.05988 F1800
G92 E0
G1 X135.063 Y191.487 F4200
G1 E2 F1800
G1 F432
G1 X133.975 Y190.399 E2.04487
G1 X133.678 Y190.36 E2.05361
G1 X133.377 Y190.235 E2.06311
G1 X133.11 Y190.033 E2.07287
G1 X132.907 Y189.768 E2.0826
G1 X132.782 Y189.467 E2.0921
G1 X132.74 Y189.164 E2.10102
G1 X130.617 Y187.04 E2.18859
G1 X130.395 Y187.04 E2.19506
G1 X130.395 Y187.645 E2.2127
G1 X133.976 Y191.227 E2.3604
G1 X133.15 Y191.227 E2.38449
G1 X130.395 Y188.472 E2.49811
G1 X130.395 Y189.298 E2.5222
G1 X132.323 Y191.227 E2.60173
G1 X131.497 Y191.227 E2.62582
G1 X130.395 Y190.125 E2.67127
G1 X130.395 Y190.952 E2.69539
G1 X130.93 Y191.487 E2.71745
G1 E.71745 F1800
G92 E0
G1 X139.459 Y191.689 F4200
G1 E2 F1800
;TYPE:External perimeter
;WIDTH:0.6
G1 F378
G1 X139.459 Y204.189 E2.36079
G1 X136.259 Y204.189 E2.45315
G1 X136.259 Y191.689 E2.81394
G1 X129.932 Y191.689 E2.99656
G1 X129.932 Y186.577 E3.14411
G1 X145.794 Y186.577 E3.60194
G1 X145.794 Y191.689 E3.74949
G1 X139.549 Y191.689 E3.92974
G1 E1.92974 F1800
G92 E0
G1 X134.703 Y189.531 F4200
G1 E2 F1800
G1 F270
G1 X134.575 Y189.7 E2.00612
G1 X134.408 Y189.828 E2.01219
G1 X134.214 Y189.909 E2.01826
G1 X134.006 Y189.936 E2.02431
G1 X133.799 Y189.909 E2.03034
G1 X133.609 Y189.83 E2.03628
G1 X133.439 Y189.702 E2.04242
G1 X133.311 Y189.535 E2.04849
G1 X133.233 Y189.345 E2.05442
G1 X133.204 Y189.134 E2.06057
G1 X133.231 Y188.926 E2.06662
G1 X133.31 Y188.736 E2.07256
G1 X133.438 Y188.566 E2.0787
G1 X133.605 Y188.438 E2.08477
G1 X133.799 Y188.358 E2.09083
G1 X134.002 Y188.331 E2.09674
G1 X134.213 Y188.358 E2.10288
G1 X134.408 Y188.438 E2.10896
G1 X134.574 Y188.566 E2.11501
G1 X134.701 Y188.732 E2.12104
G1 X134.782 Y188.926 E2.12711
G1 X134.809 Y189.133 E2.13314
G1 X134.782 Y189.341 E2.13919
G1 X134.737 Y189.448 E2.14254
G1 E.14254 F1800
G92 E0
G1 X140.917 Y189.133 F4200
G1 E2 F1800
G1 F270
G1 X140.945 Y188.926 E2.00603
G1 X141.023 Y188.736 E2.01196
G1 X141.152 Y188.566 E2.01812
G1 X141.319 Y188.438 E2.02419
G1 X141.512 Y188.358 E2.03022
G1 X141.716 Y188.331 E2.03616
G1 X141.927 Y188.358 E2.0423
G1 X142.121 Y188.438 E2.04836
G1 X142.287 Y188.566 E2.05441
G1 X142.415 Y188.732 E2.06046
G1 X142.495 Y188.926 E2.06652
G1 X142.522 Y189.133 E2.07255
G1 X142.495 Y189.341 E2.0786
G1 X142.415 Y189.535 E2.08466
G1 X142.287 Y189.701 E2.09071
G1 X142.121 Y189.828 E2.09674
G1 X141.928 Y189.909 E2.10278
G1 X141.72 Y189.936 E2.10883
G1 X141.512 Y189.909 E2.11488
G1 X141.319 Y189.828 E2.12092
G1 X141.152 Y189.701 E2.12698
G1 X141.025 Y189.535 E2.13301
G1 X140.945 Y189.341 E2.13907
G1 X140.929 Y189.223 E2.14251
M106 S84.15
;LAYER_CHANGE
;Layer 2
;Z:0.2
;HEIGHT:0.1
;BEFORE_LAYER_CHANGE
;0.2


G1 Z.2 F4200
;AFTER_LAYER_CHANGE
;G92 E0   ;zero the extruded length again
;0.2
G1 E.14251 F1800
G92 E0
G1 X139.257 Y202.805 F4200
G1 E2 F1800
;TYPE:Solid infill
;WIDTH:0.605812
G1 F1440
G1 X138.335 Y203.727 E2.03168
G1 X137.509 Y203.727 E2.05175
G1 X138.997 Y202.239 E2.10287
G1 X138.997 Y201.413 E2.12294
G1 X136.722 Y203.687 E2.20109
G1 X136.722 Y202.861 E2.22116
G1 X138.997 Y200.586 E2.29932
G1 X138.997 Y199.76 E2.31939
G1 X136.722 Y202.034 E2.39754
G1 X136.722 Y201.208 E2.41761
G1 X138.997 Y198.933 E2.49577
G1 X138.997 Y198.107 E2.51584
G1 X136.722 Y200.381 E2.59399
G1 X136.722 Y199.555 E2.61406
G1 X138.997 Y197.281 E2.69221
G1 X138.997 Y196.454 E2.7123
G1 X136.722 Y198.729 E2.79046
G1 X136.722 Y197.902 E2.81055
G1 X138.997 Y195.628 E2.8887
G1 X138.997 Y194.801 E2.90879
G1 X136.722 Y197.076 E2.98695
G1 X136.722 Y196.249 E3.00704
G1 X138.997 Y193.975 E3.08519
G1 X138.997 Y193.149 E3.10526
G1 X136.722 Y195.423 E3.18341
G1 X136.722 Y194.597 E3.20348
G1 X139.257 Y192.062 E3.29058
G1 E1.29058 F1800
G92 E0
G1 X144.79 Y191.487 F4200
G1 E2 F1800
G1 F1440
G1 X145.331 Y190.946 E2.01859
G1 X145.331 Y190.12 E2.03866
G1 X144.224 Y191.227 E2.07669
G1 X143.398 Y191.227 E2.09676
G1 X145.331 Y189.293 E2.16319
G1 X145.331 Y188.467 E2.18326
G1 X142.571 Y191.227 E2.27809
G1 X141.745 Y191.227 E2.29816
G1 X145.331 Y187.641 E2.42137
G1 X145.331 Y187.04 E2.43597
G1 X145.105 Y187.04 E2.44146
G1 X142.986 Y189.159 E2.51426
G1 X142.946 Y189.462 E2.52169
G1 X142.819 Y189.768 E2.52974
G1 X142.617 Y190.031 E2.5378
G1 X142.355 Y190.233 E2.54584
G1 X142.048 Y190.36 E2.55391
G1 X141.746 Y190.399 E2.56131
G1 X140.919 Y191.227 E2.58974
G1 X140.092 Y191.227 E2.60983
G1 X141.089 Y190.23 E2.64408
G1 X140.827 Y190.037 E2.65199
G1 X140.666 Y189.827 E2.65842
G1 X136.462 Y194.031 E2.80286
G1 E.80286 F1800
G92 E0
G1 X142.62 Y188.699 F4200
G1 E2 F1800
G1 F1440
G1 X144.279 Y187.04 E2.057
G1 X143.452 Y187.04 E2.07709
G1 X142.228 Y188.265 E2.11916
G1 E.11916 F1800
G92 E0
G1 X142.886 Y186.78 F4200
G1 E2 F1800
G1 F1440
G1 X141.79 Y187.876 E2.03766
G1 X141.703 Y187.866 E2.03979
G1 X141.391 Y187.907 E2.04744
G1 X141.085 Y188.034 E2.05549
