; generated by CreatWare 7.0.0 on 2022-07-01 at 22:43:23 UTC

; 

; external perimeters extrusion width = 0.40mm
; perimeters extrusion width = 0.40mm
; infill extrusion width = 0.40mm
; solid infill extrusion width = 0.40mm
; top infill extrusion width = 0.40mm
; support material extrusion width = 0.40mm

; external perimeters extrusion width = 0.40mm
; perimeters extrusion width = 0.40mm
; infill extrusion width = 0.40mm
; solid infill extrusion width = 0.40mm
; top infill extrusion width = 0.40mm
; support material extrusion width = 0.40mm

; external perimeters extrusion width = 0.40mm
; perimeters extrusion width = 0.40mm
; infill extrusion width = 0.40mm
; solid infill extrusion width = 0.40mm
; top infill extrusion width = 0.40mm
; support material extrusion width = 0.40mm

; external perimeters extrusion width = 0.40mm
; perimeters extrusion width = 0.40mm
; infill extrusion width = 0.40mm
; solid infill extrusion width = 0.40mm
; top infill extrusion width = 0.40mm
; support material extrusion width = 0.40mm

; external perimeters extrusion width = 0.40mm
; perimeters extrusion width = 0.40mm
; infill extrusion width = 0.40mm
; solid infill extrusion width = 0.40mm
; top infill extrusion width = 0.40mm
; support material extrusion width = 0.40mm

; external perimeters extrusion width = 0.40mm
; perimeters extrusion width = 0.40mm
; infill extrusion width = 0.40mm
; solid infill extrusion width = 0.40mm
; top infill extrusion width = 0.40mm
; support material extrusion width = 0.40mm

; external perimeters extrusion width = 0.40mm
; perimeters extrusion width = 0.40mm
; infill extrusion width = 0.40mm
; solid infill extrusion width = 0.40mm
; top infill extrusion width = 0.40mm
; support material extrusion width = 0.40mm

G21 ; set units to millimeters
G90 ; use absolute coordinates
M82 ; use absolute distances for extrusion
G92 E0
M107
M190 S130 ; set bed temperature and wait for it to be reached
M104 S440 ; set temperature
;TYPE:Custom
M109 S440 ; set temperature and wait for it to be reached
M6013 S0 ; set chamber temp

G28 X0 Y0  ;move X/Y to min endstops
G28 Z0     ;move Z to min endstops

;Add Clear Nozzle
G92 E0                   ;zero the extruded length again
G0 F4200 X0 Y0
G0 F400 X10 Z0.4         ;move a bit while down the Z
M221 T0 S300             ;set flow is 300%
G1 F200 X30 E8          ;extrude amont filament to clean the hotend
M221 T0 S100             ;reset flow is 100%
G92 E0                   ;zero the extruded length again
;Add End

G0 Z15.0 F4200 ;move the platform down 15mm

;Put printing message on LCD screen
M117 Printing...
; Filament gcode
M107
;LAYER_CHANGE
;Layer 1
;Z:0.1
;HEIGHT:0.1
;BEFORE_LAYER_CHANGE
;0.1


G1 Z.1 F4200
;AFTER_LAYER_CHANGE
;G92 E0   ;zero the extruded length again
;0.1
G1 E-2 F1800
G92 E0
G1 X177.633 Y58.788 F4200
G1 E2 F1800
;TYPE:Skirt/Brim
;WIDTH:0.4
G1 F720
G1 X179.077 Y56.565 E2.10012
G1 X181.42 Y54.222 E2.22527
G1 X183.267 Y52.937 E2.31026
G1 X185.125 Y52.405 E2.38326
G1 X240.389 Y45.372 E4.48746
G1 X248.308 Y45.321 E4.78657
G1 X249.256 Y45.392 E4.82248
G1 X254.521 Y46.183 E5.02358
G1 X256.652 Y46.905 E5.10856
G1 X258.193 Y48.091 E5.18201
G1 X259.478 Y49.938 E5.267
G1 X259.864 Y51.028 E5.31068
G1 X263.159 Y63.968 E5.81503
G1 X263.349 Y65.23 E5.86323
G1 X264.939 Y97.677 E7.09025
G1 X264.946 Y109.746 E7.54611
G1 X263.679 Y157.973 E9.36831
G1 X263.224 Y160.177 E9.45331
G1 X261.813 Y162.316 E9.5501
G1 X259.855 Y163.712 E9.64093
G1 X257.192 Y164.295 E9.7439
G1 X233.469 Y164.287 E10.63994
G1 X186.327 Y161.947 E12.42273
G1 X184.135 Y161.441 E12.5077
G1 X182.133 Y160.087 E12.59899
G1 X179.79 Y157.744 E12.72414
G1 X178.505 Y155.897 E12.80913
G1 X177.93 Y153.549 E12.90044
G1 X176.52 Y124.971 E13.98117
G1 X176.521 Y117.58 E14.26033
G1 X177.209 Y60.998 E16.39764
G1 X177.622 Y58.847 E16.48037
G1 E14.48037 F1800
G92 E0
G1 X232.813 Y66.194 F4200
G1 E2 F1800
G1 F720
G1 X233.054 Y65.48 E2.02846
G1 X233.207 Y65.271 E2.03824
G1 X234.609 Y63.869 E2.11313
G1 X235.233 Y63.551 E2.13958
G1 X235.542 Y63.496 E2.15143
G1 X239.147 Y63.496 E2.28759
G1 X239.156 Y54.639 E2.62213
G1 X239.314 Y54.129 E2.6423
G1 X239.489 Y53.836 E2.65519
G1 X240.924 Y52.389 E2.73216
G1 X241.28 Y52.162 E2.74811
G1 X241.846 Y51.996 E2.77039
G1 X247.669 Y51.999 E2.99033
G1 X248.044 Y52.089 E3.0049
G1 X248.559 Y52.37 E3.02706
G1 X249.962 Y53.773 E3.102
G1 X250.183 Y54.115 E3.11738
G1 X250.321 Y54.5 E3.13283
G1 X250.354 Y63.496 E3.47262
G1 X253.953 Y63.496 E3.60856
G1 X254.314 Y63.569 E3.62247
G1 X254.885 Y63.869 E3.64683
G1 X256.307 Y65.291 E3.72279
G1 X256.589 Y65.809 E3.74507
G1 X256.681 Y66.221 E3.76101
G1 X256.681 Y73.916 E4.05166
G1 X256.44 Y74.631 E4.08016
G1 X256.287 Y74.839 E4.08991
G1 X254.874 Y76.246 E4.16523
G1 X254.549 Y76.448 E4.17968
G1 X253.983 Y76.614 E4.20196
G1 X235.511 Y76.614 E4.89966
G1 X234.797 Y76.374 E4.92811
G1 X234.588 Y76.22 E4.93792
G1 X233.206 Y74.838 E5.01174
G1 X232.979 Y74.481 E5.02772
G1 X232.821 Y73.971 E5.04789
G1 X232.813 Y66.254 E5.33937
G1 X233.191 Y66.254 F4200
G1 F720
G1 X233.377 Y65.678 E5.36223
G1 X233.486 Y65.527 E5.36926
G1 X234.854 Y64.159 E5.44233
G1 X235.373 Y63.904 E5.46417
G1 X235.556 Y63.874 E5.47117
G1 X239.526 Y63.874 E5.62112
G1 X239.526 Y54.724 E5.96672
G1 X239.668 Y54.265 E5.98487
G1 X239.798 Y54.055 E5.9942
G1 X241.178 Y52.67 E6.06805
G1 X241.418 Y52.515 E6.07884
G1 X241.876 Y52.374 E6.09694
G1 X247.647 Y52.378 E6.31492
G1 X247.889 Y52.435 E6.32431
G1 X248.312 Y52.658 E6.34237
G1 X249.68 Y54.026 E6.41544
G1 X249.834 Y54.263 E6.42612
G1 X249.953 Y54.597 E6.43951
G1 X249.976 Y63.874 E6.78991
G1 X253.936 Y63.874 E6.93948
G1 X254.169 Y63.919 E6.94844
G1 X254.639 Y64.159 E6.96837
G1 X256.018 Y65.538 E7.04203
G1 X256.242 Y65.961 E7.06011
G1 X256.303 Y66.24 E7.0709
G1 X256.303 Y73.885 E7.35966
G1 X256.117 Y74.432 E7.38148
G1 X256.008 Y74.583 E7.38851
G1 X254.651 Y75.94 E7.461
G1 X254.411 Y76.095 E7.47179
G1 X253.953 Y76.236 E7.48989
G1 X235.543 Y76.236 E8.18525
G1 X234.995 Y76.05 E8.20711
G1 X234.845 Y75.941 E8.21411
G1 X233.487 Y74.584 E8.28662
G1 X233.333 Y74.344 E8.29739
G1 X233.191 Y73.886 E8.3155
G1 X233.191 Y66.314 E8.6015
G1 X233.57 Y66.314 F4200
G1 F720
G1 X233.57 Y66.257 E8.60365
G1 X233.703 Y65.873 E8.619
G1 X233.766 Y65.783 E8.62315
G1 X235.099 Y64.45 E8.69435
G1 X235.464 Y64.272 E8.70969
G1 X235.573 Y64.253 E8.71387
G1 X239.905 Y64.253 E8.87749
G1 X239.905 Y54.756 E9.2362
G1 X240.018 Y54.41 E9.24995
G1 X240.103 Y54.28 E9.25582
G1 X241.432 Y52.951 E9.32681
G1 X241.562 Y52.866 E9.33268
G1 X241.907 Y52.753 E9.34639
G1 X247.625 Y52.756 E9.56236
G1 X247.74 Y52.783 E9.56682
G1 X248.067 Y52.949 E9.58067
G1 X249.399 Y54.28 E9.65179
G1 X249.485 Y54.412 E9.65774
G1 X249.586 Y54.694 E9.66905
G1 X249.597 Y64.253 E10.0301
G1 X253.921 Y64.253 E10.19342
G1 X254.03 Y64.272 E10.1976
G1 X254.395 Y64.45 E10.21294
G1 X255.728 Y65.783 E10.28414
G1 X255.892 Y66.107 E10.29786
G1 X255.924 Y66.259 E10.30373
G1 X255.924 Y73.853 E10.59056
G1 X255.792 Y74.237 E10.6059
G1 X255.728 Y74.327 E10.61007
G1 X254.397 Y75.659 E10.68119
G1 X254.267 Y75.744 E10.68706
G1 X253.921 Y75.857 E10.70081
G1 X235.574 Y75.857 E11.39379
G1 X235.19 Y75.725 E11.40913
G1 X235.1 Y75.661 E11.4133
G1 X233.768 Y74.33 E11.48442
G1 X233.684 Y74.2 E11.49027
G1 X233.57 Y73.854 E11.50403
G1 X233.57 Y66.374 E11.78656
G1 X233.949 Y66.374 F4200
G1 F720
G1 X233.949 Y66.291 E11.78969
G1 X234.048 Y66.036 E11.80002
G1 X235.343 Y64.741 E11.86919
G1 X235.562 Y64.638 E11.87833
G1 X240.283 Y64.631 E12.05665
G1 X240.283 Y54.791 E12.42832
G1 X240.383 Y54.536 E12.43867
G1 X241.687 Y53.231 E12.50835
G1 X241.943 Y53.131 E12.51873
G1 X247.605 Y53.138 E12.73259
G1 X247.824 Y53.241 E12.74173
G1 X249.119 Y54.536 E12.8109
G1 X249.219 Y54.791 E12.82125
G1 X249.219 Y64.631 E13.19292
G1 X253.932 Y64.638 E13.37093
G1 X254.151 Y64.741 E13.38007
G1 X255.436 Y66.026 E13.44871
G1 X255.539 Y66.245 E13.45785
G1 X255.546 Y73.819 E13.74393
G1 X255.446 Y74.075 E13.75431
G1 X254.141 Y75.379 E13.82399
G1 X253.886 Y75.479 E13.83434
G1 X235.608 Y75.479 E14.52472
G1 X235.353 Y75.379 E14.53507
G1 X234.048 Y74.075 E14.60475
G1 X233.949 Y73.819 E14.61512
G1 X233.949 Y66.434 E14.89406
G1 X234.327 Y66.434 F4200
G1 F720
G1 X234.327 Y66.333 E14.89787
G1 X234.356 Y66.263 E14.90073
G1 X235.581 Y65.039 E14.96614
G1 X235.65 Y65.01 E14.96897
G1 X240.662 Y65.01 E15.15828
G1 X240.662 Y54.833 E15.54267
G1 X240.69 Y54.763 E15.54552
G1 X241.915 Y53.539 E15.61093
G1 X241.985 Y53.51 E15.61379
G1 X247.517 Y53.51 E15.82274
G1 X247.586 Y53.539 E15.82557
G1 X248.811 Y54.763 E15.89098
G1 X248.84 Y54.833 E15.89384
G1 X248.84 Y65.01 E16.27823
G1 X253.844 Y65.01 E16.46724
G1 X253.913 Y65.039 E16.47007
G1 X255.138 Y66.263 E16.53548
G1 X255.167 Y66.333 E16.53834
G1 X255.167 Y73.777 E16.81951
G1 X255.138 Y73.847 E16.82237
G1 X253.913 Y75.072 E16.8878
G1 X253.844 Y75.1 E16.89061
G1 X235.65 Y75.1 E17.57781
G1 X235.581 Y75.072 E17.58062
G1 X234.356 Y73.847 E17.64605
G1 X234.327 Y73.777 E17.64891
G1 X234.327 Y66.494 E17.924
G1 E15.924 F1800
G92 E0
G1 X205.295 Y66.454 F4200
G1 E2 F1800
G1 F720
G1 X205.293 Y67.792 E2.05054
G1 X205.136 Y68.302 E2.0707
G1 X204.934 Y68.628 E2.08519
G1 X203.524 Y70.044 E2.16067
G1 X203.213 Y70.248 E2.17472
G1 X202.602 Y70.436 E2.19887
G1 X194.929 Y70.436 E2.48869
G1 X194.593 Y70.345 E2.50184
G1 X194.256 Y70.436 E2.51502
G1 X186.582 Y70.436 E2.80487
G1 X186.017 Y70.269 E2.82712
G1 X185.691 Y70.068 E2.84159
G1 X184.276 Y68.658 E2.91704
G1 X184.071 Y68.347 E2.93111
G1 X183.884 Y67.736 E2.95524
G1 X183.892 Y61.673 E3.18424
G1 X184.049 Y61.165 E3.20432
G1 X184.25 Y60.837 E3.21885
G1 X185.661 Y59.421 E3.29435
G1 X185.972 Y59.216 E3.30842
G1 X186.584 Y59.029 E3.33259
G1 X194.268 Y59.033 E3.62282
G1 X194.632 Y59.108 E3.63686
G1 X194.929 Y59.029 E3.64847
G1 X202.663 Y59.038 E3.94059
G1 X203.173 Y59.197 E3.96077
G1 X203.461 Y59.371 E3.97348
G1 X204.909 Y60.806 E4.05048
G1 X205.135 Y61.162 E4.06641
G1 X205.301 Y61.727 E4.08865
G1 X205.295 Y66.394 E4.26493
G1 X204.923 Y66.394 F4200
G1 F720
G1 X204.923 Y67.708 E4.31456
G1 X204.781 Y68.166 E4.33267
G1 X204.651 Y68.376 E4.342
G1 X203.271 Y69.762 E4.41587
G1 X203.031 Y69.916 E4.42664
G1 X202.573 Y70.057 E4.44474
G1 X194.959 Y70.057 E4.73233
G1 X194.593 Y69.949 E4.74674
G1 X194.227 Y70.057 E4.76115
G1 X186.612 Y70.057 E5.04878
G1 X186.153 Y69.916 E5.06692
G1 X185.943 Y69.785 E5.07627
G1 X184.558 Y68.405 E5.15012
G1 X184.404 Y68.165 E5.16089
G1 X184.262 Y67.708 E5.17897
G1 X184.262 Y61.757 E5.40374
G1 X184.403 Y61.3 E5.4218
G1 X184.534 Y61.089 E5.43118
G1 X185.914 Y59.704 E5.50503
G1 X186.154 Y59.549 E5.51582
G1 X186.612 Y59.407 E5.53393
G1 X194.249 Y59.411 E5.82239
G1 X194.438 Y59.449 E5.82967
G1 X194.601 Y59.513 E5.83628
G1 X194.958 Y59.408 E5.85034
G1 X202.631 Y59.417 E6.14016
G1 X203.031 Y59.548 E6.15606
G1 X203.242 Y59.68 E6.16546
G1 X204.627 Y61.059 E6.23928
G1 X204.782 Y61.3 E6.2501
G1 X204.923 Y61.757 E6.26816
G1 X204.923 Y66.334 E6.44104
G1 X204.544 Y66.334 F4200
G1 F720
G1 X204.544 Y67.676 E6.49173
G1 X204.431 Y68.021 E6.50544
G1 X204.346 Y68.151 E6.51131
G1 X203.017 Y69.48 E6.5823
G1 X202.887 Y69.565 E6.58817
G1 X202.541 Y69.679 E6.60193
G1 X194.991 Y69.679 E6.8871
G1 X194.593 Y69.549 E6.90291
G1 X194.194 Y69.679 E6.91876
G1 X186.644 Y69.679 E7.20393
G1 X186.298 Y69.565 E7.21769
G1 X186.168 Y69.48 E7.22356
G1 X184.839 Y68.151 E7.29455
G1 X184.754 Y68.021 E7.30042
G1 X184.641 Y67.676 E7.31413
G1 X184.641 Y61.789 E7.53649
G1 X184.755 Y61.441 E7.55032
G1 X184.817 Y61.341 E7.55476
G1 X186.169 Y59.984 E7.62711
G1 X186.298 Y59.9 E7.63292
G1 X186.644 Y59.786 E7.64668
G1 X194.226 Y59.79 E7.93306
G1 X194.335 Y59.814 E7.93728
G1 X194.586 Y59.918 E7.94754
G1 X194.991 Y59.786 E7.96363
G1 X202.541 Y59.786 E8.2488
G1 X202.887 Y59.9 E8.26256
G1 X203.017 Y59.984 E8.26841
G1 X204.346 Y61.314 E8.33943
G1 X204.431 Y61.443 E8.34527
G1 X204.544 Y61.789 E8.35902
G1 X204.544 Y66.274 E8.52842
G1 X204.166 Y66.274 F4200
G1 F720
G1 X204.166 Y67.64 E8.58001
G1 X204.084 Y67.869 E8.5892
G1 X202.762 Y69.2 E8.66006
G1 X202.506 Y69.3 E8.67044
G1 X195.026 Y69.3 E8.95297
G1 X194.808 Y69.222 E8.96172
G1 X194.593 Y69.044 E8.97226
G1 X194.378 Y69.222 E8.9828
G1 X194.159 Y69.3 E8.99158
G1 X186.679 Y69.3 E9.27411
G1 X186.424 Y69.2 E9.28446
G1 X185.119 Y67.896 E9.35414
G1 X185.019 Y67.64 E9.36452
G1 X185.019 Y61.824 E9.5842
G1 X185.119 Y61.569 E9.59455
G1 X186.424 Y60.264 E9.66426
G1 X186.679 Y60.165 E9.67459
G1 X194.173 Y60.165 E9.95764
G1 X194.374 Y60.24 E9.96574
G1 X194.593 Y60.421 E9.97647
G1 X194.808 Y60.243 E9.98701
G1 X195.026 Y60.165 E9.99576
G1 X202.506 Y60.165 E10.27829
G1 X202.762 Y60.264 E10.28866
G1 X204.066 Y61.569 E10.35834
G1 X204.166 Y61.824 E10.36869
G1 X204.166 Y66.214 E10.5345
G1 X203.787 Y66.214 F4200
G1 F720
G1 X203.787 Y67.598 E10.58677
G1 X203.759 Y67.668 E10.58962
G1 X202.534 Y68.893 E10.65505
G1 X202.464 Y68.922 E10.65791
G1 X195.068 Y68.922 E10.93726
G1 X194.999 Y68.893 E10.94009
G1 X194.593 Y68.487 E10.96178
G1 X194.186 Y68.893 E10.98349
G1 X194.117 Y68.922 E10.98632
G1 X186.721 Y68.922 E11.26567
G1 X186.652 Y68.893 E11.2685
G1 X185.427 Y67.668 E11.33393
G1 X185.398 Y67.598 E11.33679
G1 X185.398 Y61.866 E11.55329
G1 X185.427 Y61.797 E11.55612
G1 X186.652 Y60.572 E11.62155
G1 X186.721 Y60.543 E11.62438
G1 X194.117 Y60.543 E11.90373
G1 X194.186 Y60.572 E11.90656
G1 X194.593 Y60.978 E11.92827
G1 X194.999 Y60.572 E11.94996
G1 X195.068 Y60.543 E11.95279
G1 X202.464 Y60.543 E12.23214
G1 X202.534 Y60.572 E12.235
G1 X203.759 Y61.797 E12.30043
G1 X203.787 Y61.866 E12.30324
G1 X203.787 Y66.154 E12.4652
G1 E10.4652 F1800
G92 E0
G1 X202.349 Y88.248 F4200
G1 E2 F1800
G1 F720
G1 X202.859 Y88.406 E2.02017
G1 X203.147 Y88.58 E2.03288
G1 X204.595 Y90.015 E2.10988
G1 X204.821 Y90.371 E2.12581
G1 X204.988 Y90.937 E2.1481
G1 X204.979 Y97.001 E2.37714
G1 X204.822 Y97.511 E2.3973
G1 X204.62 Y97.838 E2.41182
G1 X203.21 Y99.253 E2.48727
G1 X202.899 Y99.458 E2.50134
G1 X202.288 Y99.645 E2.52547
G1 X194.615 Y99.645 E2.81529
G1 X194.279 Y99.554 E2.82844
G1 X193.943 Y99.645 E2.84159
G1 X186.268 Y99.645 E3.13148
G1 X185.703 Y99.479 E3.15372
G1 X185.377 Y99.277 E3.16821
G1 X183.962 Y97.868 E3.24363
G1 X183.757 Y97.557 E3.2577
G1 X183.57 Y96.946 E3.28183
G1 X183.578 Y90.882 E3.51087
G1 X183.735 Y90.375 E3.53092
G1 X183.937 Y90.046 E3.5455
G1 X185.347 Y88.63 E3.62098
G1 X185.658 Y88.426 E3.63503
G1 X186.27 Y88.238 E3.65921
G1 X193.954 Y88.242 E3.94944
G1 X194.318 Y88.317 E3.96348
G1 X194.615 Y88.238 E3.97509
G1 X202.289 Y88.248 E4.26494
G1 X202.288 Y88.626 F4200
G1 F720
G1 X202.717 Y88.758 E4.28189
G1 X202.928 Y88.889 E4.29127
G1 X204.313 Y90.269 E4.36512
G1 X204.468 Y90.509 E4.37591
G1 X204.609 Y90.966 E4.39397
G1 X204.609 Y96.917 E4.61874
G1 X204.467 Y97.376 E4.63689
G1 X204.337 Y97.585 E4.64619
G1 X202.957 Y98.971 E4.72006
G1 X202.717 Y99.125 E4.73083
G1 X202.259 Y99.267 E4.74894
G1 X194.645 Y99.267 E5.03653
G1 X194.279 Y99.158 E5.05095
G1 X193.913 Y99.267 E5.06537
G1 X186.298 Y99.267 E5.353
G1 X185.839 Y99.125 E5.37115
G1 X185.629 Y98.994 E5.3805
G1 X184.244 Y97.615 E5.45432
G1 X184.09 Y97.374 E5.46512
G1 X183.948 Y96.917 E5.4832
G1 X183.948 Y90.966 E5.70797
G1 X184.09 Y90.509 E5.72605
G1 X184.22 Y90.298 E5.73541
G1 X185.6 Y88.913 E5.80926
G1 X185.841 Y88.758 E5.82008
G1 X186.298 Y88.617 E5.83814
G1 X193.935 Y88.62 E6.1266
G1 X194.124 Y88.659 E6.13389
G1 X194.287 Y88.722 E6.14049
G1 X194.644 Y88.617 E6.15455
G1 X202.228 Y88.626 E6.441
G1 X202.228 Y88.995 F4200
G1 F720
G1 X202.573 Y89.109 E6.45472
G1 X202.703 Y89.194 E6.46059
G1 X204.032 Y90.523 E6.53158
G1 X204.117 Y90.653 E6.53745
G1 X204.231 Y90.998 E6.55117
G1 X204.231 Y96.885 E6.77353
G1 X204.117 Y97.231 E6.78729
G1 X204.032 Y97.36 E6.79313
G1 X202.703 Y98.69 E6.86415
G1 X202.573 Y98.774 E6.87
G1 X202.228 Y98.888 E6.88372
G1 X194.677 Y98.888 E7.16893
G1 X194.279 Y98.758 E7.18474
G1 X193.88 Y98.888 E7.20059
G1 X186.33 Y98.888 E7.48576
G1 X185.984 Y98.774 E7.49952
G1 X185.855 Y98.69 E7.50533
G1 X184.525 Y97.36 E7.57637
G1 X184.44 Y97.231 E7.58221
G1 X184.327 Y96.885 E7.59596
G1 X184.327 Y90.998 E7.81832
G1 X184.441 Y90.65 E7.83215
G1 X184.503 Y90.55 E7.83659
