; generated by CreatWare 7.0.0 on 2022-07-05 at 18:05:18 UTC

; 

; external perimeters extrusion width = 0.40mm
; perimeters extrusion width = 0.40mm
; infill extrusion width = 0.40mm
; solid infill extrusion width = 0.40mm
; top infill extrusion width = 0.40mm
; support material extrusion width = 0.40mm

G21 ; set units to millimeters
G90 ; use absolute coordinates
M82 ; use absolute distances for extrusion
G92 E0
M107
M190 S45 ; set bed temperature and wait for it to be reached
M104 S220 ; set temperature
;TYPE:Custom
M109 S220 ; set temperature and wait for it to be reached
M6013 S0 ; set chamber temp

G28 X0 Y0  ;move X/Y to min endstops
G28 Z0     ;move Z to min endstops

;Add Clear Nozzle
G92 E0                   ;zero the extruded length again
G0 F4200 X0 Y0
G0 F400 X10 Z0.4         ;move a bit while down the Z
M221 T0 S300             ;set flow is 300%
G1 F200 X30 E8          ;extrude amont filament to clean the hotend
M221 T0 S100             ;reset flow is 100%
G92 E0                   ;zero the extruded length again
;Add End

G0 Z15.0 F4200 ;move the platform down 15mm

;Put printing message on LCD screen
M117 Printing...
; Filament gcode
M107
;LAYER_CHANGE
;Layer 1
;Z:0.1
;HEIGHT:0.1
;BEFORE_LAYER_CHANGE
;0.1


G1 Z.1 F4200
;AFTER_LAYER_CHANGE
;G92 E0   ;zero the extruded length again
;0.1
G1 E-2 F1800
G92 E0
G1 X183.259 Y134.727 F4200
G1 E2 F1800
;TYPE:Skirt/Brim
;WIDTH:0.4
G1 F720
G1 X185.602 Y132.384 E2.06258
G1 X187.449 Y131.098 E2.10508
G1 X190.112 Y130.515 E2.15656
G1 X209.888 Y130.515 E2.53004
G1 X212.102 Y130.912 E2.57252
G1 X214.398 Y132.384 E2.62403
G1 X216.741 Y134.727 E2.68661
G1 X218.027 Y136.574 E2.72911
G1 X218.609 Y139.237 E2.78059
G1 X218.609 Y148.263 E2.95105
G1 X218.519 Y149.334 E2.97135
G1 X216.102 Y163.518 E3.24308
G1 X214.87 Y166.336 E3.30116
G1 X213.015 Y168.095 E3.34944
G1 X210.058 Y169.057 E3.40817
G1 X203.553 Y169.485 E3.53129
G1 X196.439 Y169.485 E3.66564
G1 X189.869 Y169.057 E3.78998
G1 X187.685 Y168.512 E3.83249
G1 X185.787 Y167.203 E3.87603
G1 X184.39 Y165.245 E3.92145
G1 X183.896 Y163.643 E3.95311
G1 X181.48 Y149.324 E4.22735
G1 X181.391 Y148.263 E4.24746
G1 X181.391 Y139.237 E4.41792
G1 X181.788 Y137.022 E4.46042
G1 X183.227 Y134.777 E4.51078
G1 E2.51078 F1800
G92 E0
G1 X188.46 Y138.966 F4200
G1 E2 F1800
G1 F720
G1 X189.842 Y137.583 E2.03692
G1 X190.199 Y137.357 E2.0449
G1 X190.765 Y137.191 E2.05604
G1 X209.249 Y137.194 E2.40512
G1 X209.623 Y137.284 E2.41238
G1 X210.139 Y137.565 E2.42348
G1 X211.542 Y138.967 E2.46094
G1 X211.763 Y139.31 E2.46865
G1 X211.901 Y139.695 E2.47637
G1 X211.925 Y147.668 E2.62694
G1 X211.841 Y147.999 E2.63339
G1 X211.56 Y148.514 E2.64447
G1 X210.139 Y149.935 E2.68242
G1 X209.621 Y150.218 E2.69357
G1 X209.209 Y150.309 E2.70154
G1 X205.6 Y150.309 E2.7697
G1 X205.6 Y160.112 E2.95483
G1 X205.408 Y160.729 E2.96703
G1 X205.226 Y161.009 E2.97334
G1 X203.823 Y162.417 E3.01088
G1 X203.482 Y162.637 E3.01854
G1 X203.034 Y162.787 E3.02746
G1 X197.092 Y162.809 E3.13968
G1 X196.429 Y162.596 E3.15283
G1 X196.168 Y162.415 E3.15883
G1 X194.786 Y161.033 E3.19574
G1 X194.559 Y160.676 E3.20373
G1 X194.401 Y160.166 E3.21381
G1 X194.393 Y150.309 E3.39996
G1 X190.794 Y150.309 E3.46793
G1 X190.433 Y150.237 E3.47488
G1 X189.862 Y149.936 E3.48707
G1 X188.44 Y148.514 E3.52505
G1 X188.14 Y147.947 E3.53716
G1 X188.066 Y147.584 E3.54416
G1 X188.066 Y139.889 E3.68948
G1 X188.279 Y139.227 E3.70261
G1 X188.426 Y139.015 E3.70748
G1 X188.737 Y139.226 F4200
G1 F720
G1 X190.096 Y137.865 E3.7438
G1 X190.337 Y137.71 E3.74921
G1 X190.794 Y137.569 E3.75824
G1 X209.227 Y137.573 E4.10636
G1 X209.469 Y137.63 E4.11106
G1 X209.892 Y137.853 E4.12009
G1 X211.26 Y139.221 E4.15663
G1 X211.414 Y139.458 E4.16197
G1 X211.533 Y139.792 E4.16867
G1 X211.547 Y147.644 E4.31696
G1 X211.496 Y147.843 E4.32084
G1 X211.271 Y148.267 E4.32991
G1 X209.892 Y149.647 E4.36675
G1 X209.469 Y149.87 E4.37578
G1 X209.19 Y149.931 E4.38117
G1 X205.221 Y149.931 E4.45613
G1 X205.221 Y160.081 E4.64782
G1 X205.058 Y160.584 E4.65781
G1 X204.925 Y160.78 E4.66228
G1 X203.569 Y162.135 E4.69848
G1 X203.332 Y162.289 E4.70382
G1 X202.998 Y162.409 E4.71052
G1 X197.121 Y162.431 E4.82151
G1 X196.619 Y162.267 E4.83148
G1 X196.423 Y162.134 E4.83595
G1 X195.067 Y160.779 E4.87215
G1 X194.913 Y160.539 E4.87754
G1 X194.771 Y160.081 E4.8866
G1 X194.771 Y149.931 E5.07829
G1 X190.811 Y149.931 E5.15308
G1 X190.579 Y149.886 E5.15754
G1 X190.108 Y149.647 E5.16751
G1 X188.73 Y148.268 E5.20433
G1 X188.49 Y147.8 E5.21426
G1 X188.444 Y147.567 E5.21875
G1 X188.444 Y139.919 E5.36319
G1 X188.608 Y139.416 E5.37318
G1 X188.703 Y139.276 E5.37638
G1 X189.009 Y139.491 F4200
G1 F720
G1 X190.351 Y138.146 E5.41226
G1 X190.48 Y138.061 E5.41518
G1 X190.826 Y137.948 E5.42205
G1 X209.205 Y137.951 E5.76915
G1 X209.32 Y137.978 E5.77138
G1 X209.647 Y138.144 E5.77831
G1 X210.979 Y139.475 E5.81387
G1 X211.065 Y139.607 E5.81685
G1 X211.166 Y139.889 E5.82251
G1 X211.173 Y147.581 E5.96778
G1 X211.146 Y147.696 E5.97001
G1 X210.981 Y148.022 E5.97691
G1 X209.647 Y149.356 E6.01254
G1 X209.322 Y149.521 E6.01942
G1 X209.171 Y149.552 E6.02233
G1 X204.843 Y149.552 E6.10407
G1 X204.843 Y160.048 E6.30229
G1 X204.71 Y160.432 E6.30996
G1 X204.647 Y160.522 E6.31203
G1 X203.315 Y161.854 E6.34761
G1 X203.183 Y161.94 E6.35059
G1 X202.901 Y162.041 E6.35625
G1 X197.154 Y162.052 E6.46478
G1 X196.77 Y161.92 E6.47245
G1 X196.68 Y161.856 E6.47454
G1 X195.348 Y160.525 E6.5101
G1 X195.263 Y160.395 E6.51303
G1 X195.15 Y160.049 E6.5199
G1 X195.15 Y149.552 E6.71814
G1 X190.826 Y149.552 E6.7998
G1 X190.717 Y149.533 E6.80189
G1 X190.352 Y149.355 E6.80956
G1 X189.019 Y148.022 E6.84516
G1 X188.855 Y147.698 E6.85202
G1 X188.823 Y147.546 E6.85495
G1 X188.823 Y139.952 E6.99837
G1 X188.975 Y139.54 E7.00666
G1 X189.288 Y139.75 F4200
G1 F720
G1 X190.606 Y138.426 E7.04194
G1 X190.861 Y138.326 E7.04711
G1 X209.153 Y138.326 E7.39256
G1 X209.404 Y138.436 E7.39774
G1 X210.717 Y139.758 E7.43293
G1 X210.799 Y139.986 E7.43751
G1 X210.799 Y147.528 E7.57994
G1 X210.689 Y147.78 E7.58513
G1 X209.404 Y149.064 E7.61944
G1 X209.185 Y149.167 E7.62401
G1 X204.464 Y149.174 E7.71317
G1 X204.464 Y160.014 E7.91789
G1 X204.364 Y160.269 E7.92306
G1 X203.033 Y161.592 E7.9585
G1 X202.804 Y161.674 E7.96309
G1 X197.188 Y161.674 E8.06915
G1 X196.933 Y161.574 E8.07432
G1 X195.61 Y160.242 E8.10978
G1 X195.528 Y160.014 E8.11436
G1 X195.528 Y149.174 E8.31908
G1 X190.815 Y149.167 E8.40809
G1 X190.596 Y149.064 E8.41266
G1 X189.311 Y147.78 E8.44697
G1 X189.201 Y147.528 E8.45216
G1 X189.201 Y139.986 E8.59459
G1 X189.266 Y139.806 E8.5982
G1 X189.609 Y139.958 F4200
G1 F720
G1 X190.834 Y138.734 E8.6309
G1 X190.903 Y138.705 E8.63231
G1 X209.097 Y138.705 E8.97591
G1 X209.166 Y138.734 E8.97732
G1 X210.391 Y139.958 E9.01002
G1 X210.42 Y140.028 E9.01145
G1 X210.42 Y147.472 E9.15203
G1 X210.391 Y147.542 E9.15346
G1 X209.166 Y148.766 E9.18616
G1 X209.097 Y148.795 E9.18757
G1 X204.086 Y148.795 E9.2822
G1 X204.086 Y159.972 E9.49328
G1 X204.057 Y160.042 E9.49471
G1 X202.832 Y161.266 E9.52741
G1 X202.762 Y161.295 E9.52884
G1 X197.23 Y161.295 E9.63331
G1 X197.161 Y161.266 E9.63472
G1 X195.936 Y160.042 E9.66742
G1 X195.907 Y159.972 E9.66885
G1 X195.907 Y148.795 E9.87993
G1 X190.903 Y148.795 E9.97443
G1 X190.834 Y148.766 E9.97584
G1 X189.609 Y147.542 E10.00854
G1 X189.58 Y147.472 E10.00997
G1 X189.586 Y140.014 E10.15082
G1 E8.15082 F1800
G92 E0
G1 X193.896 Y159.117 F4200
G1 E2 F1800
;TYPE:Support material
G1 F720
G1 X194.003 Y160.06 E2.01792
G1 X194.812 Y161.732 E2.053
G1 X195.781 Y162.503 E2.07639
G1 X190.375 Y162.503 E2.17848
G1 X190.375 Y151.889 E2.37893
G1 X193.896 Y151.889 E2.44543
G1 X193.896 Y159.061 E2.58088
G1 X194.322 Y162.333 F4200
G1 F720
G1 X194.322 Y161.501 E2.59659
G1 X193.671 Y160.156 E2.62481
G1 X193.556 Y159.137 E2.64418
G1 X193.556 Y152.23 E2.77462
G1 X192.429 Y152.23 E2.7959
G1 X192.429 Y162.333 E2.9867
G1 E.9867 F1800
G92 E0
G1 X209.625 Y162.503 F4200
G1 E2 F1800
G1 F720
G1 X204.289 Y162.503 E2.10077
G1 X204.522 Y162.39 E2.10566
G1 X205.686 Y160.928 E2.14095
G1 X206.096 Y159.128 E2.17581
G1 X206.096 Y151.889 E2.31252
G1 X209.625 Y151.889 E2.37917
G1 X209.625 Y162.447 E2.57856
G1 X207.571 Y162.333 F4200
G1 F720
G1 X207.571 Y152.23 E2.76936
G1 X206.437 Y152.23 E2.79078
G1 X206.437 Y159.167 E2.92179
G1 X206.001 Y161.079 E2.95883
G1 X205.678 Y161.485 E2.96863
G1 X205.678 Y162.333 E2.98464
G1 E.98464 F1800
G92 E0
G1 X207.123 Y141.226 F4200
G1 E2 F1800
;TYPE:Solid infill
;WIDTH:0.404602
G1 F432
G1 X207.728 Y141.831 E2.01635
G1 X207.728 Y142.373 E2.02671
G1 X206.752 Y141.397 E2.05309
G1 X206.21 Y141.397 E2.06345
G1 X207.728 Y142.915 E2.10449
G1 X207.728 Y143.457 E2.11485
G1 X205.668 Y141.397 E2.17054
G1 X205.126 Y141.397 E2.1809
G1 X207.728 Y143.999 E2.25124
G1 X207.728 Y144.54 E2.26158
G1 X204.584 Y141.397 E2.34656
G1 X204.043 Y141.397 E2.3569
G1 X207.728 Y145.082 E2.45652
G1 X207.728 Y145.624 E2.46688
G1 X203.501 Y141.397 E2.58115
G1 X202.959 Y141.397 E2.59151
G1 X207.665 Y146.103 E2.71873
G1 X207.123 Y146.103 E2.72909
G1 X204.853 Y143.833 E2.79045
G1 X204.864 Y143.75 E2.79205
G1 X204.83 Y143.489 E2.79708
G1 X204.729 Y143.246 E2.80211
G1 X204.569 Y143.038 E2.80713
G1 X204.36 Y142.878 E2.81216
G1 X204.116 Y142.777 E2.81721
G1 X203.852 Y142.743 E2.8223
G1 X203.774 Y142.754 E2.82381
G1 X202.417 Y141.397 E2.86049
G1 X201.875 Y141.397 E2.87085
G1 X203.355 Y142.877 E2.91086
G1 X203.143 Y143.039 E2.91596
G1 X203.071 Y143.134 E2.91824
G1 X201.333 Y141.397 E2.96521
G1 X200.791 Y141.397 E2.97557
G1 X203.036 Y143.641 E3.03624
G1 E1.03624 F1800
G92 E0
G1 X204.599 Y144.121 F4200
G1 E2 F1800
G1 F432
G1 X206.582 Y146.103 E2.05359
G1 X206.04 Y146.103 E2.06395
G1 X204.473 Y144.536 E2.10631
G1 X204.36 Y144.622 E2.10902
G1 X204.117 Y144.723 E2.11405
G1 X205.498 Y146.103 E2.15137
G1 X204.956 Y146.103 E2.16173
G1 X200.25 Y141.397 E2.28895
G1 X199.708 Y141.397 E2.29931
G1 X204.414 Y146.103 E2.42653
G1 X203.872 Y146.103 E2.43689
G1 X199.166 Y141.397 E2.56411
G1 X198.624 Y141.397 E2.57447
G1 X203.33 Y146.103 E2.70169
G1 X202.789 Y146.103 E2.71203
G1 X198.082 Y141.397 E2.83926
G1 X197.54 Y141.397 E2.84962
G1 X202.247 Y146.103 E2.97685
G1 X201.705 Y146.103 E2.98721
G1 X196.999 Y141.397 E3.11443
G1 X196.457 Y141.397 E3.12479
G1 X201.393 Y146.334 E3.25824
G1 X201.393 Y146.875 E3.26858
G1 X195.915 Y141.397 E3.41667
G1 X195.373 Y141.397 E3.42703
G1 X201.393 Y147.417 E3.58977
G1 X201.393 Y147.959 E3.60013
G1 X197.145 Y143.711 E3.71497
G1 X197.116 Y143.489 E3.71925
G1 X197.015 Y143.246 E3.72428
G1 X196.855 Y143.038 E3.7293
G1 X196.647 Y142.878 E3.73432
G1 X196.402 Y142.777 E3.73939
G1 X196.183 Y142.749 E3.74361
G1 X194.831 Y141.397 E3.78016
G1 X194.289 Y141.397 E3.79052
G1 X195.732 Y142.84 E3.82953
G1 X195.64 Y142.878 E3.83143
G1 X195.412 Y143.062 E3.83703
G1 X193.748 Y141.397 E3.88203
G1 X193.206 Y141.397 E3.89239
G1 X195.338 Y143.529 E3.95002
G1 E1.95002 F1800
G92 E0
G1 X196.923 Y144.031 F4200
G1 E2 F1800
G1 F432
G1 X201.393 Y148.501 E2.12084
G1 X201.393 Y149.043 E2.1312
G1 X196.831 Y144.481 E2.25452
G1 X196.647 Y144.622 E2.25895
G1 X196.494 Y144.685 E2.26211
G1 X197.912 Y146.103 E2.30044
G1 X197.37 Y146.103 E2.3108
G1 X196.006 Y144.739 E2.34767
G1 X195.883 Y144.723 E2.35004
G1 X195.644 Y144.624 E2.35498
G1 X195.432 Y144.463 E2.36007
G1 X195.271 Y144.254 E2.36511
G1 X195.172 Y144.015 E2.37005
G1 X195.155 Y143.888 E2.3725
G1 X192.664 Y141.397 E2.43984
G1 X192.272 Y141.397 E2.44733
G1 X192.272 Y141.547 E2.4502
G1 X196.828 Y146.103 E2.57336
G1 X196.286 Y146.103 E2.58372
G1 X192.272 Y142.089 E2.69223
G1 X192.272 Y142.631 E2.70259
G1 X195.745 Y146.103 E2.79646
G1 X195.203 Y146.103 E2.80682
G1 X192.272 Y143.172 E2.88605
G1 X192.272 Y143.714 E2.89641
G1 X194.661 Y146.103 E2.96099
G1 X194.119 Y146.103 E2.97135
G1 X192.272 Y144.256 E3.02128
G1 X192.272 Y144.798 E3.03164
G1 X193.577 Y146.103 E3.06692
G1 X193.035 Y146.103 E3.07728
G1 X192.272 Y145.34 E3.09791
G1 X192.272 Y145.882 E3.10827
G1 X192.664 Y146.274 E3.11887
G1 E1.11887 F1800
G92 E0
G1 X198.429 Y146.62 F4200
G1 E2 F1800
G1 F432
G1 X201.393 Y149.585 E2.08014
G1 X201.393 Y150.126 E2.09048
G1 X198.599 Y147.332 E2.16601
G1 X198.599 Y147.874 E2.17637
G1 X201.393 Y150.668 E2.2519
G1 X201.393 Y151.21 E2.26226
G1 X198.599 Y148.416 E2.33779
G1 X198.599 Y148.958 E2.34815
G1 X201.393 Y151.752 E2.42368
G1 X201.393 Y152.294 E2.43404
G1 X198.599 Y149.499 E2.50958
G1 X198.599 Y150.041 E2.51994
G1 X201.393 Y152.836 E2.59548
G1 X201.393 Y153.378 E2.60584
G1 X198.599 Y150.583 E2.68138
G1 X198.599 Y151.125 E2.69174
G1 X201.393 Y153.919 E2.76727
G1 X201.393 Y154.461 E2.77763
G1 X198.599 Y151.667 E2.85316
G1 X198.599 Y152.209 E2.86352
G1 X201.393 Y155.003 E2.93905
G1 X201.393 Y155.545 E2.94941
G1 X198.599 Y152.751 E3.02494
G1 X198.599 Y153.292 E3.03528
G1 X201.393 Y156.087 E3.11082
G1 X201.393 Y156.629 E3.12118
G1 X198.599 Y153.834 E3.19672
G1 X198.599 Y154.376 E3.20708
G1 X201.393 Y157.17 E3.28261
G1 X201.393 Y157.712 E3.29297
G1 X198.599 Y154.918 E3.3685
G1 X198.599 Y155.46 E3.37886
G1 X201.393 Y158.254 E3.45439
G1 X201.393 Y158.603 E3.46106
G1 X201.201 Y158.603 E3.46473
G1 X198.599 Y156.002 E3.53506
G1 X198.599 Y156.543 E3.5454
G1 X200.659 Y158.603 E3.60109
G1 X200.117 Y158.603 E3.61145
G1 X198.599 Y157.085 E3.65249
G1 X198.599 Y157.627 E3.66285
G1 X199.575 Y158.603 E3.68923
G1 X199.033 Y158.603 E3.69959
G1 X198.429 Y157.999 E3.71592
G1 E1.71592 F1800
G92 E0
G1 X201.696 Y146.406 F4200
G1 E2 F1800
;TYPE:External perimeter
;WIDTH:0.4
G1 F378
G1 X201.696 Y158.906 E2.23607
G1 X198.296 Y158.906 E2.30028
G1 X198.296 Y146.406 E2.53635
G1 X191.969 Y146.406 E2.65584
G1 X191.969 Y141.094 E2.75616
G1 X208.031 Y141.094 E3.0595
G1 X208.031 Y146.406 E3.15982
G1 X201.756 Y146.406 E3.27833
G1 E1.27833 F1800
G92 E0
G1 X196.752 Y144.097 F4200
G1 E2 F1800
G1 F270
G1 X196.64 Y144.246 E2.00352
G1 X196.494 Y144.358 E2.007
G1 X196.325 Y144.428 E2.01045
G1 X196.143 Y144.452 E2.01392
G1 X195.962 Y144.428 E2.01737
G1 X195.796 Y144.359 E2.02077
G1 X195.647 Y144.247 E2.02429
G1 X195.536 Y144.101 E2.02775
G1 X195.467 Y143.935 E2.03115
G1 X195.441 Y143.751 E2.03466
G1 X195.465 Y143.568 E2.03815
G1 X195.534 Y143.403 E2.04153
G1 X195.647 Y143.254 E2.04506
G1 X195.792 Y143.142 E2.04852
G1 X195.962 Y143.072 E2.05199
G1 X196.139 Y143.049 E2.05536
G1 X196.324 Y143.072 E2.05888
G1 X196.494 Y143.142 E2.06235
G1 X196.639 Y143.254 E2.06581
G1 X196.751 Y143.399 E2.06927
G1 X196.821 Y143.568 E2.07272
G1 X196.845 Y143.75 E2.07619
G1 X196.821 Y143.932 E2.07966
G1 X196.775 Y144.042 E2.08191
G1 E.08191 F1800
G92 E0
G1 X203.155 Y143.75 F4200
G1 E2 F1800
G1 F270
G1 X203.179 Y143.568 E2.00347
G1 X203.248 Y143.403 E2.00685
G1 X203.36 Y143.254 E2.01037
G1 X203.506 Y143.142 E2.01385
G1 X203.675 Y143.072 E2.0173
G1 X203.853 Y143.049 E2.02069
G1 X204.038 Y143.072 E2.02421
G1 X204.208 Y143.142 E2.02768
G1 X204.353 Y143.254 E2.03114
G1 X204.464 Y143.399 E2.03459
G1 X204.535 Y143.568 E2.03805
G1 X204.558 Y143.75 E2.04151
G1 X204.535 Y143.932 E2.04497
G1 X204.464 Y144.101 E2.04843
G1 X204.353 Y144.246 E2.05188
G1 X204.208 Y144.358 E2.05534
G1 X204.038 Y144.428 E2.05881
G1 X203.857 Y144.452 E2.06226
G1 X203.675 Y144.428 E2.06573
G1 X203.506 Y144.358 E2.06918
G1 X203.361 Y144.246 E2.07264
G1 X203.249 Y144.101 E2.0761
G1 X203.179 Y143.932 E2.07955
G1 X203.163 Y143.809 E2.08189
M106 S84.15
;LAYER_CHANGE
;Layer 2
;Z:0.2
;HEIGHT:0.1
;BEFORE_LAYER_CHANGE
;0.2


G1 Z.2 F4200
;AFTER_LAYER_CHANGE
;G92 E0   ;zero the extruded length again
;0.2
G1 E.08189 F1800
G92 E0
G1 X201.564 Y157.999 F4200
G1 E2 F1800
;TYPE:Solid infill
;WIDTH:0.404496
G1 F1440
G1 X200.959 Y158.603 E2.01361
G1 X200.418 Y158.603 E2.02223
G1 X201.393 Y157.627 E2.0442
G1 X201.393 Y157.086 E2.05282
G1 X199.876 Y158.603 E2.08698
G1 X199.334 Y158.603 E2.09561
G1 X201.393 Y156.544 E2.14198
G1 X201.393 Y156.002 E2.15061
G1 X198.793 Y158.603 E2.20918
G1 X198.599 Y158.603 E2.21227
G1 X198.599 Y158.255 E2.21781
G1 X201.393 Y155.461 E2.28073
G1 X201.393 Y154.919 E2.28936
G1 X198.599 Y157.713 E2.35228
G1 X198.599 Y157.172 E2.3609
G1 X201.393 Y154.377 E2.42384
G1 X201.393 Y153.836 E2.43246
G1 X198.599 Y156.63 E2.49538
