; generated by CreatWare 7.0.0 on 2022-07-01 at 22:56:50 UTC

; 

; external perimeters extrusion width = 0.40mm
; perimeters extrusion width = 0.40mm
; infill extrusion width = 0.40mm
; solid infill extrusion width = 0.40mm
; top infill extrusion width = 0.40mm
; support material extrusion width = 0.40mm

; external perimeters extrusion width = 0.40mm
; perimeters extrusion width = 0.40mm
; infill extrusion width = 0.40mm
; solid infill extrusion width = 0.40mm
; top infill extrusion width = 0.40mm
; support material extrusion width = 0.40mm

; external perimeters extrusion width = 0.40mm
; perimeters extrusion width = 0.40mm
; infill extrusion width = 0.40mm
; solid infill extrusion width = 0.40mm
; top infill extrusion width = 0.40mm
; support material extrusion width = 0.40mm

; external perimeters extrusion width = 0.40mm
; perimeters extrusion width = 0.40mm
; infill extrusion width = 0.40mm
; solid infill extrusion width = 0.40mm
; top infill extrusion width = 0.40mm
; support material extrusion width = 0.40mm

; external perimeters extrusion width = 0.40mm
; perimeters extrusion width = 0.40mm
; infill extrusion width = 0.40mm
; solid infill extrusion width = 0.40mm
; top infill extrusion width = 0.40mm
; support material extrusion width = 0.40mm

; external perimeters extrusion width = 0.40mm
; perimeters extrusion width = 0.40mm
; infill extrusion width = 0.40mm
; solid infill extrusion width = 0.40mm
; top infill extrusion width = 0.40mm
; support material extrusion width = 0.40mm

; external perimeters extrusion width = 0.40mm
; perimeters extrusion width = 0.40mm
; infill extrusion width = 0.40mm
; solid infill extrusion width = 0.40mm
; top infill extrusion width = 0.40mm
; support material extrusion width = 0.40mm

G21 ; set units to millimeters
G90 ; use absolute coordinates
M82 ; use absolute distances for extrusion
G92 E0
M107
M190 S45 ; set bed temperature and wait for it to be reached
M104 S220 ; set temperature
;TYPE:Custom
M109 S220 ; set temperature and wait for it to be reached
M6013 S0 ; set chamber temp

G28 X0 Y0  ;move X/Y to min endstops
G28 Z0     ;move Z to min endstops

;Add Clear Nozzle
G92 E0                   ;zero the extruded length again
G0 F4200 X0 Y0
G0 F400 X10 Z0.4         ;move a bit while down the Z
M221 T0 S300             ;set flow is 300%
G1 F200 X30 E8          ;extrude amont filament to clean the hotend
M221 T0 S100             ;reset flow is 100%
G92 E0                   ;zero the extruded length again
;Add End

G0 Z15.0 F4200 ;move the platform down 15mm

;Put printing message on LCD screen
M117 Printing...
; Filament gcode
M107
;LAYER_CHANGE
;Layer 1
;Z:0.1
;HEIGHT:0.1
;BEFORE_LAYER_CHANGE
;0.1


G1 Z.1 F4200
;AFTER_LAYER_CHANGE
;G92 E0   ;zero the extruded length again
;0.1
G1 E-2 F1800
G92 E0
G1 X177.633 Y58.788 F4200
G1 E2 F1800
;TYPE:Skirt/Brim
;WIDTH:0.4
G1 F720
G1 X179.077 Y56.565 E2.05006
G1 X181.42 Y54.222 E2.11264
G1 X183.267 Y52.937 E2.15513
G1 X185.125 Y52.405 E2.19163
G1 X240.389 Y45.372 E3.24373
G1 X248.308 Y45.321 E3.39329
G1 X249.256 Y45.392 E3.41124
G1 X254.521 Y46.183 E3.51179
G1 X256.652 Y46.905 E3.55428
G1 X258.193 Y48.091 E3.591
G1 X259.478 Y49.938 E3.63349
G1 X259.864 Y51.028 E3.65533
G1 X263.159 Y63.968 E3.90751
G1 X263.349 Y65.23 E3.93161
G1 X264.939 Y97.677 E4.54512
G1 X264.946 Y109.746 E4.77305
G1 X263.679 Y157.973 E5.68415
G1 X263.224 Y160.177 E5.72665
G1 X261.813 Y162.316 E5.77504
G1 X259.855 Y163.712 E5.82045
G1 X257.192 Y164.295 E5.87193
G1 X233.469 Y164.287 E6.31995
G1 X186.327 Y161.947 E7.21134
G1 X184.135 Y161.441 E7.25383
G1 X182.133 Y160.087 E7.29947
G1 X179.79 Y157.744 E7.36205
G1 X178.505 Y155.897 E7.40454
G1 X177.93 Y153.549 E7.45019
G1 X176.52 Y124.971 E7.99055
G1 X176.521 Y117.58 E8.13013
G1 X177.209 Y60.998 E9.19878
G1 X177.622 Y58.847 E9.24014
G1 E7.24014 F1800
G92 E0
G1 X232.813 Y66.194 F4200
G1 E2 F1800
G1 F720
G1 X233.054 Y65.48 E2.01423
G1 X233.207 Y65.271 E2.01912
G1 X234.609 Y63.869 E2.05656
G1 X235.233 Y63.551 E2.06979
G1 X235.542 Y63.496 E2.07572
G1 X239.147 Y63.496 E2.1438
G1 X239.156 Y54.639 E2.31107
G1 X239.314 Y54.129 E2.32115
G1 X239.489 Y53.836 E2.3276
G1 X240.924 Y52.389 E2.36609
G1 X241.28 Y52.162 E2.37406
G1 X241.846 Y51.996 E2.3852
G1 X247.669 Y51.999 E2.49517
G1 X248.044 Y52.089 E2.50245
G1 X248.559 Y52.37 E2.51353
G1 X249.962 Y53.773 E2.551
G1 X250.183 Y54.115 E2.55869
G1 X250.321 Y54.5 E2.56641
G1 X250.354 Y63.496 E2.7363
G1 X253.953 Y63.496 E2.80427
G1 X254.314 Y63.569 E2.81123
G1 X254.885 Y63.869 E2.82341
G1 X256.307 Y65.291 E2.86139
G1 X256.589 Y65.809 E2.87253
G1 X256.681 Y66.221 E2.8805
G1 X256.681 Y73.916 E3.02582
G1 X256.44 Y74.631 E3.04007
G1 X256.287 Y74.839 E3.04495
G1 X254.874 Y76.246 E3.08261
G1 X254.549 Y76.448 E3.08984
G1 X253.983 Y76.614 E3.10098
G1 X235.511 Y76.614 E3.44983
G1 X234.797 Y76.374 E3.46406
G1 X234.588 Y76.22 E3.46896
G1 X233.206 Y74.838 E3.50587
G1 X232.979 Y74.481 E3.51386
G1 X232.821 Y73.971 E3.52394
G1 X232.813 Y66.254 E3.66968
G1 X233.191 Y66.254 F4200
G1 F720
G1 X233.377 Y65.678 E3.68111
G1 X233.486 Y65.527 E3.68463
G1 X234.854 Y64.159 E3.72117
G1 X235.373 Y63.904 E3.73209
G1 X235.556 Y63.874 E3.73559
G1 X239.526 Y63.874 E3.81057
G1 X239.526 Y54.724 E3.98337
G1 X239.668 Y54.265 E3.99244
G1 X239.798 Y54.055 E3.9971
G1 X241.178 Y52.67 E4.03402
G1 X241.418 Y52.515 E4.03942
G1 X241.876 Y52.374 E4.04847
G1 X247.647 Y52.378 E4.15746
G1 X247.889 Y52.435 E4.16216
G1 X248.312 Y52.658 E4.17119
G1 X249.68 Y54.026 E4.20773
G1 X249.834 Y54.263 E4.21307
G1 X249.953 Y54.597 E4.21977
G1 X249.976 Y63.874 E4.39497
G1 X253.936 Y63.874 E4.46976
G1 X254.169 Y63.919 E4.47424
G1 X254.639 Y64.159 E4.48421
G1 X256.018 Y65.538 E4.52104
G1 X256.242 Y65.961 E4.53008
G1 X256.303 Y66.24 E4.53547
G1 X256.303 Y73.885 E4.67985
G1 X256.117 Y74.432 E4.69076
G1 X256.008 Y74.583 E4.69428
G1 X254.651 Y75.94 E4.73052
G1 X254.411 Y76.095 E4.73592
G1 X253.953 Y76.236 E4.74497
G1 X235.543 Y76.236 E5.09265
G1 X234.995 Y76.05 E5.10358
G1 X234.845 Y75.941 E5.10708
G1 X233.487 Y74.584 E5.14334
G1 X233.333 Y74.344 E5.14873
G1 X233.191 Y73.886 E5.15779
G1 X233.191 Y66.314 E5.30079
G1 X233.57 Y66.314 F4200
G1 F720
G1 X233.57 Y66.257 E5.30187
G1 X233.703 Y65.873 E5.30954
G1 X233.766 Y65.783 E5.31161
G1 X235.099 Y64.45 E5.34721
G1 X235.464 Y64.272 E5.35488
G1 X235.573 Y64.253 E5.35697
G1 X239.905 Y64.253 E5.43878
G1 X239.905 Y54.756 E5.61813
G1 X240.018 Y54.41 E5.625
G1 X240.103 Y54.28 E5.62793
G1 X241.432 Y52.951 E5.66342
G1 X241.562 Y52.866 E5.66635
G1 X241.907 Y52.753 E5.67321
G1 X247.625 Y52.756 E5.7812
G1 X247.74 Y52.783 E5.78343
G1 X248.067 Y52.949 E5.79036
G1 X249.399 Y54.28 E5.82592
G1 X249.485 Y54.412 E5.8289
G1 X249.586 Y54.694 E5.83456
G1 X249.597 Y64.253 E6.01509
G1 X253.921 Y64.253 E6.09675
G1 X254.03 Y64.272 E6.09884
G1 X254.395 Y64.45 E6.10651
G1 X255.728 Y65.783 E6.14211
G1 X255.892 Y66.107 E6.14897
G1 X255.924 Y66.259 E6.1519
G1 X255.924 Y73.853 E6.29532
G1 X255.792 Y74.237 E6.30299
G1 X255.728 Y74.327 E6.30508
G1 X254.397 Y75.659 E6.34064
G1 X254.267 Y75.744 E6.34357
G1 X253.921 Y75.857 E6.35044
G1 X235.574 Y75.857 E6.69693
G1 X235.19 Y75.725 E6.7046
G1 X235.1 Y75.661 E6.70669
G1 X233.768 Y74.33 E6.74225
G1 X233.684 Y74.2 E6.74517
G1 X233.57 Y73.854 E6.75205
G1 X233.57 Y66.374 E6.89331
G1 X233.949 Y66.374 F4200
G1 F720
G1 X233.949 Y66.291 E6.89488
G1 X234.048 Y66.036 E6.90005
G1 X235.343 Y64.741 E6.93464
G1 X235.562 Y64.638 E6.93921
G1 X240.283 Y64.631 E7.02837
G1 X240.283 Y54.791 E7.2142
G1 X240.383 Y54.536 E7.21937
G1 X241.687 Y53.231 E7.25421
G1 X241.943 Y53.131 E7.2594
G1 X247.605 Y53.138 E7.36633
G1 X247.824 Y53.241 E7.3709
G1 X249.119 Y54.536 E7.40549
G1 X249.219 Y54.791 E7.41066
G1 X249.219 Y64.631 E7.59649
G1 X253.932 Y64.638 E7.6855
G1 X254.151 Y64.741 E7.69007
G1 X255.436 Y66.026 E7.72439
G1 X255.539 Y66.245 E7.72896
G1 X255.546 Y73.819 E7.872
G1 X255.446 Y74.075 E7.87719
G1 X254.141 Y75.379 E7.91203
G1 X253.886 Y75.479 E7.9172
G1 X235.608 Y75.479 E8.26239
G1 X235.353 Y75.379 E8.26756
G1 X234.048 Y74.075 E8.3024
G1 X233.949 Y73.819 E8.30758
G1 X233.949 Y66.434 E8.44705
G1 X234.327 Y66.434 F4200
G1 F720
G1 X234.327 Y66.333 E8.44896
G1 X234.356 Y66.263 E8.45039
G1 X235.581 Y65.039 E8.48309
G1 X235.65 Y65.01 E8.4845
G1 X240.662 Y65.01 E8.57915
G1 X240.662 Y54.833 E8.77135
G1 X240.69 Y54.763 E8.77277
G1 X241.915 Y53.539 E8.80547
G1 X241.985 Y53.51 E8.8069
G1 X247.517 Y53.51 E8.91137
G1 X247.586 Y53.539 E8.91278
G1 X248.811 Y54.763 E8.94548
G1 X248.84 Y54.833 E8.94691
G1 X248.84 Y65.01 E9.13911
G1 X253.844 Y65.01 E9.23361
G1 X253.913 Y65.039 E9.23502
G1 X255.138 Y66.263 E9.26772
G1 X255.167 Y66.333 E9.26915
G1 X255.167 Y73.777 E9.40973
G1 X255.138 Y73.847 E9.41116
G1 X253.913 Y75.072 E9.44388
G1 X253.844 Y75.1 E9.44529
G1 X235.65 Y75.1 E9.78889
G1 X235.581 Y75.072 E9.7903
G1 X234.356 Y73.847 E9.82302
G1 X234.327 Y73.777 E9.82445
G1 X234.327 Y66.494 E9.96199
G1 E7.96199 F1800
G92 E0
G1 X205.295 Y66.454 F4200
G1 E2 F1800
G1 F720
G1 X205.293 Y67.792 E2.02527
G1 X205.136 Y68.302 E2.03535
G1 X204.934 Y68.628 E2.04259
G1 X203.524 Y70.044 E2.08033
G1 X203.213 Y70.248 E2.08735
G1 X202.602 Y70.436 E2.09942
G1 X194.929 Y70.436 E2.24433
G1 X194.593 Y70.345 E2.2509
G1 X194.256 Y70.436 E2.25749
G1 X186.582 Y70.436 E2.40242
G1 X186.017 Y70.269 E2.41355
G1 X185.691 Y70.068 E2.42078
G1 X184.276 Y68.658 E2.45851
G1 X184.071 Y68.347 E2.46554
G1 X183.884 Y67.736 E2.47761
G1 X183.892 Y61.673 E2.59211
G1 X184.049 Y61.165 E2.60215
G1 X184.25 Y60.837 E2.60942
G1 X185.661 Y59.421 E2.64717
G1 X185.972 Y59.216 E2.6542
G1 X186.584 Y59.029 E2.66629
G1 X194.268 Y59.033 E2.81141
G1 X194.632 Y59.108 E2.81843
G1 X194.929 Y59.029 E2.82423
G1 X202.663 Y59.038 E2.97029
G1 X203.173 Y59.197 E2.98038
G1 X203.461 Y59.371 E2.98673
G1 X204.909 Y60.806 E3.02523
G1 X205.135 Y61.162 E3.03319
G1 X205.301 Y61.727 E3.04431
G1 X205.295 Y66.394 E3.13245
G1 X204.923 Y66.394 F4200
G1 F720
G1 X204.923 Y67.708 E3.15727
G1 X204.781 Y68.166 E3.16633
G1 X204.651 Y68.376 E3.17099
G1 X203.271 Y69.762 E3.20793
G1 X203.031 Y69.916 E3.21332
G1 X202.573 Y70.057 E3.22237
G1 X194.959 Y70.057 E3.36616
G1 X194.593 Y69.949 E3.37337
G1 X194.227 Y70.057 E3.38058
G1 X186.612 Y70.057 E3.52439
G1 X186.153 Y69.916 E3.53346
G1 X185.943 Y69.785 E3.53813
G1 X184.558 Y68.405 E3.57505
G1 X184.404 Y68.165 E3.58044
G1 X184.262 Y67.708 E3.58948
G1 X184.262 Y61.757 E3.70187
G1 X184.403 Y61.3 E3.7109
G1 X184.534 Y61.089 E3.71559
G1 X185.914 Y59.704 E3.75251
G1 X186.154 Y59.549 E3.75791
G1 X186.612 Y59.407 E3.76697
G1 X194.249 Y59.411 E3.9112
G1 X194.438 Y59.449 E3.91484
G1 X194.601 Y59.513 E3.91815
G1 X194.958 Y59.408 E3.92518
G1 X202.631 Y59.417 E4.07009
G1 X203.031 Y59.548 E4.07804
G1 X203.242 Y59.68 E4.08274
G1 X204.627 Y61.059 E4.11965
G1 X204.782 Y61.3 E4.12506
G1 X204.923 Y61.757 E4.13409
G1 X204.923 Y66.334 E4.22053
G1 X204.544 Y66.334 F4200
G1 F720
G1 X204.544 Y67.676 E4.24587
G1 X204.431 Y68.021 E4.25273
G1 X204.346 Y68.151 E4.25566
G1 X203.017 Y69.48 E4.29115
G1 X202.887 Y69.565 E4.29408
G1 X202.541 Y69.679 E4.30096
G1 X194.991 Y69.679 E4.44354
G1 X194.593 Y69.549 E4.45145
G1 X194.194 Y69.679 E4.45938
G1 X186.644 Y69.679 E4.60196
G1 X186.298 Y69.565 E4.60884
G1 X186.168 Y69.48 E4.61177
G1 X184.839 Y68.151 E4.64726
G1 X184.754 Y68.021 E4.65019
G1 X184.641 Y67.676 E4.65705
G1 X184.641 Y61.789 E4.76823
G1 X184.755 Y61.441 E4.77515
G1 X184.817 Y61.341 E4.77737
G1 X186.169 Y59.984 E4.81355
G1 X186.298 Y59.9 E4.81646
G1 X186.644 Y59.786 E4.82334
G1 X194.226 Y59.79 E4.96653
G1 X194.335 Y59.814 E4.96864
G1 X194.586 Y59.918 E4.97377
G1 X194.991 Y59.786 E4.98181
G1 X202.541 Y59.786 E5.12439
G1 X202.887 Y59.9 E5.13127
G1 X203.017 Y59.984 E5.13419
G1 X204.346 Y61.314 E5.1697
G1 X204.431 Y61.443 E5.17262
G1 X204.544 Y61.789 E5.17949
G1 X204.544 Y66.274 E5.26419
G1 X204.166 Y66.274 F4200
G1 F720
G1 X204.166 Y67.64 E5.28999
G1 X204.084 Y67.869 E5.29458
G1 X202.762 Y69.2 E5.33001
G1 X202.506 Y69.3 E5.3352
G1 X195.026 Y69.3 E5.47646
G1 X194.808 Y69.222 E5.48083
G1 X194.593 Y69.044 E5.4861
G1 X194.378 Y69.222 E5.49137
G1 X194.159 Y69.3 E5.49576
G1 X186.679 Y69.3 E5.63702
G1 X186.424 Y69.2 E5.64219
G1 X185.119 Y67.896 E5.67703
G1 X185.019 Y67.64 E5.68222
G1 X185.019 Y61.824 E5.79206
G1 X185.119 Y61.569 E5.79723
G1 X186.424 Y60.264 E5.83208
G1 X186.679 Y60.165 E5.83725
G1 X194.173 Y60.165 E5.97878
G1 X194.374 Y60.24 E5.98283
G1 X194.593 Y60.421 E5.9882
G1 X194.808 Y60.243 E5.99347
G1 X195.026 Y60.165 E5.99784
G1 X202.506 Y60.165 E6.1391
G1 X202.762 Y60.264 E6.14428
G1 X204.066 Y61.569 E6.17912
G1 X204.166 Y61.824 E6.18429
G1 X204.166 Y66.214 E6.2672
G1 X203.787 Y66.214 F4200
G1 F720
G1 X203.787 Y67.598 E6.29334
G1 X203.759 Y67.668 E6.29476
G1 X202.534 Y68.893 E6.32748
G1 X202.464 Y68.922 E6.32891
G1 X195.068 Y68.922 E6.46859
G1 X194.999 Y68.893 E6.47
G1 X194.593 Y68.487 E6.48084
G1 X194.186 Y68.893 E6.4917
G1 X194.117 Y68.922 E6.49311
G1 X186.721 Y68.922 E6.63279
G1 X186.652 Y68.893 E6.6342
G1 X185.427 Y67.668 E6.66692
G1 X185.398 Y67.598 E6.66835
G1 X185.398 Y61.866 E6.7766
G1 X185.427 Y61.797 E6.77801
G1 X186.652 Y60.572 E6.81073
G1 X186.721 Y60.543 E6.81214
G1 X194.117 Y60.543 E6.95182
G1 X194.186 Y60.572 E6.95323
G1 X194.593 Y60.978 E6.96409
G1 X194.999 Y60.572 E6.97493
G1 X195.068 Y60.543 E6.97634
G1 X202.464 Y60.543 E7.11602
G1 X202.534 Y60.572 E7.11745
G1 X203.759 Y61.797 E7.15017
G1 X203.787 Y61.866 E7.15158
G1 X203.787 Y66.154 E7.23256
G1 E5.23256 F1800
G92 E0
G1 X202.349 Y88.248 F4200
G1 E2 F1800
G1 F720
G1 X202.859 Y88.406 E2.01008
G1 X203.147 Y88.58 E2.01643
G1 X204.595 Y90.015 E2.05493
G1 X204.821 Y90.371 E2.06289
G1 X204.988 Y90.937 E2.07403
G1 X204.979 Y97.001 E2.18855
G1 X204.822 Y97.511 E2.19863
G1 X204.62 Y97.838 E2.20589
G1 X203.21 Y99.253 E2.24362
G1 X202.899 Y99.458 E2.25065
G1 X202.288 Y99.645 E2.26272
G1 X194.615 Y99.645 E2.40763
G1 X194.279 Y99.554 E2.4142
G1 X193.943 Y99.645 E2.42077
G1 X186.268 Y99.645 E2.56572
G1 X185.703 Y99.479 E2.57684
G1 X185.377 Y99.277 E2.58408
G1 X183.962 Y97.868 E2.62179
G1 X183.757 Y97.557 E2.62882
G1 X183.57 Y96.946 E2.64089
G1 X183.578 Y90.882 E2.75541
G1 X183.735 Y90.375 E2.76543
G1 X183.937 Y90.046 E2.77272
G1 X185.347 Y88.63 E2.81046
G1 X185.658 Y88.426 E2.81748
G1 X186.27 Y88.238 E2.82957
G1 X193.954 Y88.242 E2.97469
G1 X194.318 Y88.317 E2.98171
G1 X194.615 Y88.238 E2.98751
G1 X202.289 Y88.248 E3.13244
G1 X202.288 Y88.626 F4200
G1 F720
G1 X202.717 Y88.758 E3.14092
G1 X202.928 Y88.889 E3.14561
G1 X204.313 Y90.269 E3.18253
G1 X204.468 Y90.509 E3.18793
G1 X204.609 Y90.966 E3.19696
G1 X204.609 Y96.917 E3.30935
G1 X204.467 Y97.376 E3.31842
G1 X204.337 Y97.585 E3.32307
G1 X202.957 Y98.971 E3.36001
G1 X202.717 Y99.125 E3.3654
G1 X202.259 Y99.267 E3.37446
G1 X194.645 Y99.267 E3.51825
G1 X194.279 Y99.158 E3.52546
G1 X193.913 Y99.267 E3.53267
G1 X186.298 Y99.267 E3.67648
G1 X185.839 Y99.125 E3.68555
G1 X185.629 Y98.994 E3.69022
G1 X184.244 Y97.615 E3.72713
G1 X184.09 Y97.374 E3.73253
G1 X183.948 Y96.917 E3.74157
G1 X183.948 Y90.966 E3.85396
G1 X184.09 Y90.509 E3.863
G1 X184.22 Y90.298 E3.86768
G1 X185.6 Y88.913 E3.9046
G1 X185.841 Y88.758 E3.91001
G1 X186.298 Y88.617 E3.91904
G1 X193.935 Y88.62 E4.06327
G1 X194.124 Y88.659 E4.06691
G1 X194.287 Y88.722 E4.07021
G1 X194.644 Y88.617 E4.07724
G1 X202.228 Y88.626 E4.22047
G1 X202.228 Y88.995 F4200
G1 F720
G1 X202.573 Y89.109 E4.22733
G1 X202.703 Y89.194 E4.23026
G1 X204.032 Y90.523 E4.26575
G1 X204.117 Y90.653 E4.26868
G1 X204.231 Y90.998 E4.27554
G1 X204.231 Y96.885 E4.38672
G1 X204.117 Y97.231 E4.3936
G1 X204.032 Y97.36 E4.39652
G1 X202.703 Y98.69 E4.43203
G1 X202.573 Y98.774 E4.43495
G1 X202.228 Y98.888 E4.44181
G1 X194.677 Y98.888 E4.58441
G1 X194.279 Y98.758 E4.59232
G1 X193.88 Y98.888 E4.60025
G1 X186.33 Y98.888 E4.74283
G1 X185.984 Y98.774 E4.74971
G1 X185.855 Y98.69 E4.75262
G1 X184.525 Y97.36 E4.78814
G1 X184.44 Y97.231 E4.79106
G1 X184.327 Y96.885 E4.79793
G1 X184.327 Y90.998 E4.90911
G1 X184.441 Y90.65 E4.91603
G1 X184.503 Y90.55 E4.91825
G1 X185.855 Y89.193 E4.95443
G1 X185.984 Y89.109 E4.95734
G1 X186.33 Y88.995 E4.96422
G1 X193.912 Y88.999 E5.10741
