; generated by CreatWare 7.0.0 on 2022-08-04 at 20:41:13 UTC

; 

; external perimeters extrusion width = 0.40mm
; perimeters extrusion width = 0.40mm
; infill extrusion width = 0.40mm
; solid infill extrusion width = 0.40mm
; top infill extrusion width = 0.40mm
; support material extrusion width = 0.40mm

; external perimeters extrusion width = 0.40mm
; perimeters extrusion width = 0.40mm
; infill extrusion width = 0.40mm
; solid infill extrusion width = 0.40mm
; top infill extrusion width = 0.40mm
; support material extrusion width = 0.40mm

; external perimeters extrusion width = 0.40mm
; perimeters extrusion width = 0.40mm
; infill extrusion width = 0.40mm
; solid infill extrusion width = 0.40mm
; top infill extrusion width = 0.40mm
; support material extrusion width = 0.40mm

; external perimeters extrusion width = 0.40mm
; perimeters extrusion width = 0.40mm
; infill extrusion width = 0.40mm
; solid infill extrusion width = 0.40mm
; top infill extrusion width = 0.40mm
; support material extrusion width = 0.40mm

; external perimeters extrusion width = 0.40mm
; perimeters extrusion width = 0.40mm
; infill extrusion width = 0.40mm
; solid infill extrusion width = 0.40mm
; top infill extrusion width = 0.40mm
; support material extrusion width = 0.40mm

G21 ; set units to millimeters
G90 ; use absolute coordinates
M82 ; use absolute distances for extrusion
G92 E0
M107
M190 S45 ; set bed temperature and wait for it to be reached
M104 S210 ; set temperature
;TYPE:Custom
M109 S210 ; set temperature and wait for it to be reached
M6013 S0 ; set chamber temp

G28 X0 Y0  ;move X/Y to min endstops
G28 Z0     ;move Z to min endstops

;Add Clear Nozzle
G92 E0                   ;zero the extruded length again
G0 F4200 X0 Y0
G0 F400 X10 Z0.4         ;move a bit while down the Z
M221 T0 S300             ;set flow is 300%
G1 F200 X30 E8          ;extrude amont filament to clean the hotend
M221 T0 S100             ;reset flow is 100%
G92 E0                   ;zero the extruded length again
;Add End

G0 Z15.0 F4200 ;move the platform down 15mm

;Put printing message on LCD screen
M117 Printing...
; Filament gcode
M107
;LAYER_CHANGE
;Layer 1
;Z:0.2
;HEIGHT:0.2
;BEFORE_LAYER_CHANGE
;0.2


G1 Z.2 F3000
;AFTER_LAYER_CHANGE
;G92 E0   ;zero the extruded length again
;0.2
G1 E-2 F1800
G92 E0
G1 X64.102 Y89.12 F3000
G1 E2 F1800
;TYPE:Skirt/Brim
;WIDTH:0.4
G1 F720
G1 X65.946 Y87.837 E2.08004
G1 X68.597 Y87.258 E2.17672
G1 X77.511 Y87.258 E2.49432
G1 X80.508 Y88.009 E2.6044
G1 X215.414 Y160.125 E8.05471
G1 X216.913 Y161.236 E8.12119
G1 X223.456 Y167.779 E8.45088
G1 X224.738 Y169.623 E8.5309
G1 X225.318 Y172.274 E8.62759
G1 X225.318 Y181.188 E8.94519
G1 X224.921 Y183.399 E9.02523
G1 X223.456 Y185.683 E9.12191
G1 X216.913 Y192.226 E9.4516
G1 X215.069 Y193.509 E9.53164
G1 X212.417 Y194.088 E9.62836
G1 X203.504 Y194.088 E9.94593
G1 X158.348 Y192.606 E11.55568
G1 X117.887 Y191.079 E12.99831
G1 X68.075 Y187.887 E14.77673
G1 X66.096 Y187.623 E14.84787
G1 X64.552 Y187.187 E14.90503
G1 X63.038 Y186.56 E14.96342
G1 X61.31 Y185.558 E15.03459
G1 X60.051 Y184.565 E15.09172
G1 X59.31 Y183.868 E15.12797
G1 X58.269 Y182.648 E15.18511
G1 X57.358 Y181.285 E15.24352
G1 X56.478 Y179.493 E15.31465
G1 X55.982 Y177.966 E15.37185
G1 X55.754 Y176.976 E15.40805
G1 X55.566 Y175.382 E15.46524
G1 X55.697 Y100.144 E18.14594
G1 X56.099 Y97.934 E18.22597
G1 X57.559 Y95.663 E18.32216
G1 X64.06 Y89.162 E18.64973
G1 E16.64973 F1800
G92 E0
G1 X68.39 Y94.378 F3000
G1 E2 F1800
G1 F720
G1 X68.725 Y94.165 E2.01414
G1 X69.259 Y94.008 E2.03397
G1 X76.862 Y94.012 E2.30486
G1 X77.215 Y94.096 E2.31779
G1 X77.703 Y94.363 E2.33761
G1 X79.215 Y95.92 E2.41494
G1 X79.38 Y96.27 E2.42873
G1 X79.457 Y96.608 E2.44108
G1 X79.461 Y98.208 E2.49809
G1 X81.061 Y98.212 E2.5551
G1 X81.413 Y98.295 E2.56799
G1 X81.859 Y98.53 E2.58595
G1 X83.29 Y99.951 E2.6578
G1 X83.504 Y100.286 E2.67196
G1 X83.661 Y100.82 E2.69179
G1 X83.661 Y108.385 E2.96133
G1 X83.574 Y108.773 E2.9755
G1 X83.307 Y109.262 E2.99535
G1 X81.81 Y110.734 E3.07015
G1 X81.41 Y110.937 E3.08613
G1 X81.1 Y111.013 E3.0975
G1 X79.461 Y111.022 E3.1559
G1 X79.457 Y112.622 E3.21291
G1 X79.374 Y112.974 E3.2258
G1 X79.139 Y113.42 E3.24376
G1 X77.718 Y114.851 E3.31561
G1 X77.383 Y115.065 E3.32977
G1 X76.849 Y115.222 E3.3496
G1 X69.284 Y115.222 E3.61914
G1 X68.896 Y115.135 E3.63331
G1 X68.407 Y114.868 E3.65316
G1 X66.934 Y113.371 E3.72799
G1 X66.732 Y112.971 E3.74396
G1 X66.655 Y112.661 E3.75534
G1 X66.647 Y111.022 E3.81374
G1 X65.047 Y111.018 E3.87075
G1 X64.695 Y110.935 E3.88364
G1 X64.249 Y110.7 E3.9016
G1 X62.817 Y109.279 E3.97348
G1 X62.604 Y108.943 E3.98765
G1 X62.447 Y108.41 E4.00745
G1 X62.447 Y100.845 E4.27699
G1 X62.534 Y100.456 E4.29119
G1 X62.8 Y99.968 E4.31099
G1 X64.298 Y98.495 E4.38584
G1 X64.698 Y98.293 E4.40181
G1 X65.008 Y98.216 E4.41319
G1 X66.647 Y98.208 E4.47159
G1 X66.651 Y96.608 E4.5286
G1 X66.734 Y96.256 E4.54149
G1 X66.969 Y95.81 E4.55945
G1 X68.347 Y94.421 E4.62916
G1 X68.6 Y94.673 F3000
G1 F720
G1 X68.855 Y94.498 E4.64018
G1 X69.287 Y94.365 E4.65628
G1 X76.841 Y94.369 E4.92543
G1 X77.069 Y94.423 E4.93378
G1 X77.468 Y94.634 E4.94986
G1 X78.905 Y96.1 E5.023
G1 X79.048 Y96.403 E5.03494
G1 X79.104 Y96.663 E5.04442
G1 X79.104 Y98.565 E5.11219
G1 X81.005 Y98.565 E5.17992
G1 X81.269 Y98.622 E5.18954
G1 X81.668 Y98.833 E5.20562
G1 X83.025 Y100.19 E5.274
G1 X83.17 Y100.416 E5.28357
G1 X83.304 Y100.848 E5.29969
G1 X83.304 Y108.366 E5.56755
G1 X83.247 Y108.63 E5.57717
G1 X83.036 Y109.029 E5.59325
G1 X81.624 Y110.428 E5.66407
G1 X81.269 Y110.608 E5.67825
G1 X81.041 Y110.661 E5.68659
G1 X79.104 Y110.665 E5.7556
G1 X79.104 Y112.566 E5.82333
G1 X79.047 Y112.83 E5.83295
G1 X78.836 Y113.229 E5.84903
G1 X77.479 Y114.586 E5.91741
G1 X77.252 Y114.731 E5.92701
G1 X76.821 Y114.865 E5.94309
G1 X69.302 Y114.865 E6.21099
G1 X69.039 Y114.807 E6.22059
G1 X68.64 Y114.597 E6.23665
G1 X67.24 Y113.185 E6.3075
G1 X67.061 Y112.83 E6.32167
G1 X67.008 Y112.602 E6.33001
G1 X67.004 Y110.665 E6.39902
G1 X65.102 Y110.665 E6.46679
G1 X64.839 Y110.607 E6.47639
G1 X64.44 Y110.397 E6.49245
G1 X63.083 Y109.04 E6.56083
G1 X62.937 Y108.813 E6.57045
G1 X62.804 Y108.382 E6.58652
G1 X62.804 Y100.863 E6.85442
G1 X62.861 Y100.6 E6.86401
G1 X63.072 Y100.201 E6.88009
G1 X64.484 Y98.801 E6.95094
G1 X64.839 Y98.622 E6.96511
G1 X65.067 Y98.569 E6.97345
G1 X67.004 Y98.565 E7.04246
G1 X67.004 Y96.663 E7.11023
G1 X67.061 Y96.4 E7.11982
G1 X67.272 Y96.001 E7.1359
G1 X68.557 Y94.716 E7.20065
G1 X68.81 Y94.968 F3000
G1 F720
G1 X68.991 Y94.829 E7.20878
G1 X69.317 Y94.722 E7.221
G1 X76.82 Y94.726 E7.48833
G1 X76.929 Y94.751 E7.49231
G1 X77.236 Y94.907 E7.50458
G1 X78.595 Y96.28 E7.57341
G1 X78.716 Y96.536 E7.5835
G1 X78.747 Y96.681 E7.58878
G1 X78.747 Y98.922 E7.66863
G1 X80.988 Y98.922 E7.74848
G1 X81.131 Y98.952 E7.75369
G1 X81.437 Y99.107 E7.76591
G1 X82.76 Y100.43 E7.83257
G1 X82.84 Y100.552 E7.83777
G1 X82.947 Y100.878 E7.84999
G1 X82.947 Y108.349 E8.11618
G1 X82.917 Y108.492 E8.12139
G1 X82.762 Y108.798 E8.13361
G1 X81.437 Y110.123 E8.20037
G1 X81.131 Y110.278 E8.21259
G1 X80.988 Y110.308 E8.2178
G1 X78.747 Y110.308 E8.29765
G1 X78.747 Y112.549 E8.3775
G1 X78.717 Y112.692 E8.38271
G1 X78.562 Y112.998 E8.39493
G1 X77.239 Y114.321 E8.46159
G1 X77.117 Y114.401 E8.46679
G1 X76.791 Y114.508 E8.47901
G1 X69.32 Y114.508 E8.7452
G1 X69.177 Y114.478 E8.75041
G1 X68.871 Y114.323 E8.76263
G1 X67.546 Y112.998 E8.82939
G1 X67.391 Y112.692 E8.84161
G1 X67.361 Y112.549 E8.84682
G1 X67.361 Y110.308 E8.92667
G1 X65.12 Y110.308 E9.00652
G1 X64.977 Y110.278 E9.01173
G1 X64.671 Y110.123 E9.02395
G1 X63.348 Y108.8 E9.09061
G1 X63.268 Y108.678 E9.09581
G1 X63.161 Y108.352 E9.10803
G1 X63.161 Y100.881 E9.37422
G1 X63.191 Y100.738 E9.37943
G1 X63.346 Y100.432 E9.39165
G1 X64.671 Y99.107 E9.45841
G1 X64.977 Y98.952 E9.47063
G1 X65.12 Y98.922 E9.47584
G1 X67.361 Y98.922 E9.55569
G1 X67.361 Y96.681 E9.63554
G1 X67.391 Y96.538 E9.64075
G1 X67.546 Y96.232 E9.65297
G1 X68.767 Y95.011 E9.71449
G1 X69.02 Y95.263 F3000
G1 F720
G1 X69.135 Y95.156 E9.72009
G1 X69.35 Y95.079 E9.72823
G1 X76.801 Y95.085 E9.99371
G1 X77.008 Y95.183 E10.00187
G1 X78.286 Y96.461 E10.06627
G1 X78.384 Y96.668 E10.07443
G1 X78.39 Y99.279 E10.16746
G1 X81.001 Y99.285 E10.26049
G1 X81.208 Y99.383 E10.26865
G1 X82.512 Y100.696 E10.33458
G1 X82.59 Y100.911 E10.34273
G1 X82.584 Y108.362 E10.60821
G1 X82.486 Y108.569 E10.61637
G1 X81.208 Y109.847 E10.68077
G1 X81.001 Y109.945 E10.68893
G1 X78.39 Y109.951 E10.78196
G1 X78.384 Y112.562 E10.87499
G1 X78.286 Y112.769 E10.88315
G1 X76.973 Y114.073 E10.94908
G1 X76.758 Y114.151 E10.95723
G1 X69.307 Y114.145 E11.22271
G1 X69.1 Y114.047 E11.23087
G1 X67.822 Y112.769 E11.29527
G1 X67.724 Y112.562 E11.30343
G1 X67.718 Y109.951 E11.39646
G1 X65.107 Y109.945 E11.48949
G1 X64.9 Y109.847 E11.49765
G1 X63.595 Y108.534 E11.56361
G1 X63.518 Y108.319 E11.57175
G1 X63.524 Y100.868 E11.83723
G1 X63.622 Y100.661 E11.84539
G1 X64.9 Y99.383 E11.90979
G1 X65.107 Y99.285 E11.91795
G1 X67.718 Y99.279 E12.01098
G1 X67.724 Y96.668 E12.10401
G1 X67.822 Y96.461 E12.11217
G1 X68.977 Y95.305 E12.17039
G1 X69.23 Y95.558 F3000
G1 F720
G1 X69.324 Y95.464 E12.17513
G1 X69.39 Y95.436 E12.17768
G1 X76.718 Y95.436 E12.43877
G1 X76.783 Y95.464 E12.44129
G1 X78.005 Y96.685 E12.50284
G1 X78.032 Y96.751 E12.50538
G1 X78.032 Y99.636 E12.60817
G1 X80.918 Y99.636 E12.711
G1 X80.983 Y99.664 E12.71352
G1 X82.205 Y100.885 E12.77507
G1 X82.232 Y100.951 E12.77761
G1 X82.232 Y108.279 E13.0387
G1 X82.205 Y108.344 E13.04121
G1 X80.983 Y109.566 E13.10278
G1 X80.918 Y109.593 E13.10529
G1 X78.032 Y109.593 E13.20812
G1 X78.032 Y112.479 E13.31095
G1 X78.005 Y112.544 E13.31346
G1 X76.783 Y113.766 E13.37503
G1 X76.718 Y113.793 E13.37754
G1 X69.39 Y113.793 E13.63863
G1 X69.324 Y113.766 E13.64117
G1 X68.103 Y112.544 E13.70272
G1 X68.075 Y112.479 E13.70524
G1 X68.075 Y109.593 E13.80807
G1 X65.19 Y109.593 E13.91086
G1 X65.124 Y109.566 E13.9134
G1 X63.903 Y108.344 E13.97495
G1 X63.875 Y108.279 E13.97747
G1 X63.875 Y100.951 E14.23856
G1 X63.903 Y100.885 E14.24111
G1 X65.124 Y99.664 E14.30263
G1 X65.19 Y99.636 E14.30518
G1 X68.075 Y99.636 E14.40797
G1 X68.075 Y96.751 E14.51076
G1 X68.103 Y96.685 E14.51331
G1 X69.188 Y95.6 E14.56798
G1 E12.56798 F1800
G92 E0
G1 X69.099 Y167.957 F3000
G1 E2 F1800
G1 F720
G1 X69.96 Y168.041 E2.03082
G1 X70.303 Y168.104 E2.04325
G1 X71.21 Y168.374 E2.07697
G1 X71.535 Y168.504 E2.08944
G1 X72.372 Y168.945 E2.12315
G1 X72.666 Y169.136 E2.13564
G1 X73.401 Y169.732 E2.16936
G1 X73.652 Y169.976 E2.18183
G1 X74.256 Y170.704 E2.21553
G1 X74.455 Y170.993 E2.22803
G1 X74.905 Y171.825 E2.26173
G1 X75.044 Y172.146 E2.27419
G1 X75.323 Y173.05 E2.3079
G1 X75.396 Y173.393 E2.32039
G1 X75.494 Y174.334 E2.3541
G1 X75.499 Y174.684 E2.36657
G1 X75.412 Y175.626 E2.40028
G1 X75.348 Y175.971 E2.41278
G1 X75.078 Y176.878 E2.4465
G1 X74.949 Y177.203 E2.45896
G1 X74.507 Y178.04 E2.49268
G1 X74.317 Y178.334 E2.50515
G1 X73.721 Y179.069 E2.53887
G1 X73.476 Y179.32 E2.55137
G1 X72.748 Y179.924 E2.58507
G1 X72.46 Y180.123 E2.59754
G1 X71.628 Y180.573 E2.63124
G1 X71.306 Y180.712 E2.64374
G1 X70.402 Y180.991 E2.67745
G1 X70.059 Y181.064 E2.68994
G1 X69.118 Y181.162 E2.72365
G1 X68.768 Y181.167 E2.73612
G1 X67.826 Y181.079 E2.76983
G1 X67.481 Y181.016 E2.78233
G1 X66.575 Y180.746 E2.81601
G1 X66.249 Y180.617 E2.8285
G1 X65.412 Y180.175 E2.86222
G1 X65.118 Y179.985 E2.87469
G1 X64.384 Y179.388 E2.9084
G1 X64.132 Y179.144 E2.9209
G1 X63.528 Y178.416 E2.9546
G1 X63.33 Y178.127 E2.96708
G1 X62.879 Y177.296 E3.00077
G1 X62.741 Y176.974 E3.01325
G1 X62.461 Y176.07 E3.04697
G1 X62.388 Y175.727 E3.05946
G1 X62.29 Y174.786 E3.09317
G1 X62.285 Y174.436 E3.10564
G1 X62.373 Y173.494 E3.13935
G1 X62.436 Y173.149 E3.15185
G1 X62.706 Y172.242 E3.18557
G1 X62.836 Y171.917 E3.19804
G1 X63.277 Y171.08 E3.23175
G1 X63.468 Y170.786 E3.24424
G1 X64.064 Y170.052 E3.27793
G1 X64.308 Y169.8 E3.29043
G1 X65.036 Y169.196 E3.32413
G1 X65.325 Y168.997 E3.33663
G1 X66.157 Y168.547 E3.37033
G1 X66.479 Y168.408 E3.38283
G1 X67.383 Y168.129 E3.41654
G1 X67.728 Y168.055 E3.42911
G1 X68.675 Y167.958 E3.46303
G1 X69.039 Y167.957 E3.476
G1 X69.039 Y168.313 F3000
G1 F720
G1 X69.918 Y168.395 E3.50745
G1 X70.228 Y168.454 E3.51869
G1 X71.1 Y168.714 E3.55111
G1 X71.394 Y168.831 E3.56238
G1 X72.198 Y169.257 E3.5948
G1 X72.463 Y169.429 E3.60606
G1 X73.169 Y170.003 E3.63848
G1 X73.396 Y170.225 E3.64979
G1 X73.976 Y170.925 E3.68218
G1 X74.155 Y171.187 E3.69349
G1 X74.587 Y171.987 E3.72588
G1 X74.712 Y172.278 E3.73716
G1 X74.98 Y173.147 E3.76956
G1 X75.045 Y173.457 E3.78085
G1 X75.138 Y174.362 E3.81326
G1 X75.142 Y174.679 E3.82456
G1 X75.057 Y175.584 E3.85695
G1 X74.999 Y175.896 E3.86826
G1 X74.739 Y176.767 E3.90065
G1 X74.621 Y177.062 E3.91197
G1 X74.196 Y177.866 E3.94437
G1 X74.023 Y178.131 E3.95565
G1 X73.449 Y178.837 E3.98807
G1 X73.228 Y179.063 E3.99933
G1 X72.527 Y179.644 E4.03177
G1 X72.266 Y179.823 E4.04305
G1 X71.465 Y180.255 E4.07548
G1 X71.174 Y180.38 E4.08676
G1 X70.305 Y180.648 E4.11916
G1 X69.995 Y180.713 E4.13045
G1 X69.09 Y180.806 E4.16286
G1 X68.773 Y180.81 E4.17416
G1 X67.868 Y180.725 E4.20655
G1 X67.556 Y180.667 E4.21786
G1 X66.685 Y180.406 E4.25026
G1 X66.391 Y180.289 E4.26153
G1 X65.587 Y179.863 E4.29395
G1 X65.321 Y179.691 E4.30524
G1 X64.615 Y179.117 E4.33766
G1 X64.389 Y178.895 E4.34895
G1 X63.809 Y178.195 E4.38134
G1 X63.63 Y177.933 E4.39265
G1 X63.197 Y177.133 E4.42506
G1 X63.073 Y176.842 E4.43633
G1 X62.805 Y175.973 E4.46873
G1 X62.739 Y175.663 E4.48002
G1 X62.646 Y174.758 E4.51243
G1 X62.642 Y174.441 E4.52373
G1 X62.728 Y173.536 E4.55612
G1 X62.786 Y173.224 E4.56743
G1 X63.046 Y172.353 E4.59982
G1 X63.164 Y172.059 E4.61111
G1 X63.589 Y171.254 E4.64354
G1 X63.762 Y170.989 E4.65482
G1 X64.336 Y170.283 E4.68724
G1 X64.557 Y170.057 E4.6985
G1 X65.257 Y169.477 E4.73089
G1 X65.519 Y169.297 E4.74222
G1 X66.319 Y168.865 E4.77461
G1 X66.61 Y168.74 E4.78589
G1 X67.48 Y168.472 E4.81833
G1 X67.792 Y168.407 E4.82969
G1 X68.703 Y168.314 E4.86232
G1 X68.979 Y168.313 E4.87215
G1 X68.98 Y168.67 F3000
G1 F720
G1 X69.875 Y168.75 E4.90417
G1 X70.152 Y168.803 E4.91422
G1 X70.989 Y169.053 E4.94534
G1 X71.251 Y169.159 E4.95541
G1 X72.023 Y169.568 E4.98654
G1 X72.26 Y169.723 E4.99663
G1 X72.937 Y170.275 E5.02775
G1 X73.139 Y170.473 E5.03783
G1 X73.695 Y171.146 E5.06893
G1 X73.854 Y171.38 E5.07901
G1 X74.269 Y172.149 E5.11014
G1 X74.379 Y172.409 E5.1202
G1 X74.636 Y173.244 E5.15133
G1 X74.694 Y173.521 E5.16141
G1 X74.782 Y174.39 E5.19253
G1 X74.785 Y174.673 E5.20261
G1 X74.702 Y175.542 E5.23371
G1 X74.65 Y175.82 E5.24379
G1 X74.399 Y176.657 E5.27492
G1 X74.293 Y176.919 E5.28499
G1 X73.884 Y177.691 E5.31612
G1 X73.729 Y177.927 E5.32618
G1 X73.177 Y178.605 E5.35733
G1 X72.979 Y178.806 E5.36738
G1 X72.306 Y179.363 E5.39851
G1 X72.072 Y179.522 E5.40859
G1 X71.303 Y179.937 E5.43972
G1 X71.043 Y180.047 E5.44978
G1 X70.208 Y180.304 E5.48091
G1 X69.931 Y180.361 E5.49099
G1 X69.062 Y180.45 E5.52211
G1 X68.78 Y180.453 E5.53216
G1 X67.91 Y180.37 E5.5633
G1 X67.632 Y180.318 E5.57338
G1 X66.795 Y180.067 E5.60451
G1 X66.533 Y179.961 E5.61458
G1 X65.761 Y179.552 E5.64571
G1 X65.525 Y179.397 E5.65577
G1 X64.848 Y178.845 E5.68689
G1 X64.646 Y178.647 E5.69697
G1 X64.089 Y177.974 E5.7281
G1 X63.93 Y177.74 E5.73818
G1 X63.516 Y176.971 E5.7693
G1 X63.405 Y176.711 E5.77937
G1 X63.149 Y175.876 E5.81049
G1 X63.091 Y175.599 E5.82057
G1 X63.002 Y174.73 E5.85169
G1 X62.999 Y174.447 E5.86177
G1 X63.082 Y173.578 E5.89287
G1 X63.135 Y173.3 E5.90295
G1 X63.385 Y172.463 E5.93407
G1 X63.491 Y172.201 E5.94414
G1 X63.9 Y171.429 E5.97527
G1 X64.055 Y171.193 E5.98533
G1 X64.607 Y170.516 E6.01645
G1 X64.805 Y170.314 E6.02653
G1 X65.478 Y169.757 E6.05766
G1 X65.712 Y169.598 E6.06774
G1 X66.481 Y169.183 E6.09887
G1 X66.741 Y169.073 E6.10893
G1 X67.577 Y168.816 E6.14009
G1 X67.856 Y168.758 E6.15024
G1 X68.73 Y168.67 E6.18154
G1 X68.92 Y168.67 E6.18831
G1 X68.921 Y169.026 F3000
G1 F720
G1 X69.832 Y169.105 E6.22089
G1 X70.076 Y169.151 E6.22974
G1 X70.878 Y169.393 E6.25959
G1 X71.108 Y169.486 E6.26843
