; generated by CreatWare 7.0.0 on 2022-07-05 at 00:01:47 UTC

; 

; external perimeters extrusion width = 0.40mm
; perimeters extrusion width = 0.40mm
; infill extrusion width = 0.40mm
; solid infill extrusion width = 0.40mm
; top infill extrusion width = 0.40mm
; support material extrusion width = 0.40mm

; external perimeters extrusion width = 0.40mm
; perimeters extrusion width = 0.40mm
; infill extrusion width = 0.40mm
; solid infill extrusion width = 0.40mm
; top infill extrusion width = 0.40mm
; support material extrusion width = 0.40mm

; external perimeters extrusion width = 0.40mm
; perimeters extrusion width = 0.40mm
; infill extrusion width = 0.40mm
; solid infill extrusion width = 0.40mm
; top infill extrusion width = 0.40mm
; support material extrusion width = 0.40mm

; external perimeters extrusion width = 0.40mm
; perimeters extrusion width = 0.40mm
; infill extrusion width = 0.40mm
; solid infill extrusion width = 0.40mm
; top infill extrusion width = 0.40mm
; support material extrusion width = 0.40mm

G21 ; set units to millimeters
G90 ; use absolute coordinates
M82 ; use absolute distances for extrusion
G92 E0
M107
M190 S45 ; set bed temperature and wait for it to be reached
M104 S220 ; set temperature
;TYPE:Custom
M109 S220 ; set temperature and wait for it to be reached
M6013 S0 ; set chamber temp

G28 X0 Y0  ;move X/Y to min endstops
G28 Z0     ;move Z to min endstops

;Add Clear Nozzle
G92 E0                   ;zero the extruded length again
G0 F4200 X0 Y0
G0 F400 X10 Z0.4         ;move a bit while down the Z
M221 T0 S300             ;set flow is 300%
G1 F200 X30 E8          ;extrude amont filament to clean the hotend
M221 T0 S100             ;reset flow is 100%
G92 E0                   ;zero the extruded length again
;Add End

G0 Z15.0 F4200 ;move the platform down 15mm

;Put printing message on LCD screen
M117 Printing...
; Filament gcode
M107
;LAYER_CHANGE
;Layer 1
;Z:0.1
;HEIGHT:0.1
;BEFORE_LAYER_CHANGE
;0.1


G1 Z.1 F4200
;AFTER_LAYER_CHANGE
;G92 E0   ;zero the extruded length again
;0.1
G1 E-2 F1800
G92 E0
G1 X96.573 Y34.178 F4200
G1 E2 F1800
;TYPE:Skirt/Brim
;WIDTH:0.4
G1 F720
G1 X97.996 Y32.009 E2.04899
G1 X100.34 Y29.666 E2.11158
G1 X102.186 Y28.38 E2.15407
G1 X104.292 Y27.822 E2.19522
G1 X115.102 Y26.898 E2.40012
G1 X125.316 Y26.898 E2.59302
G1 X127.531 Y27.295 E2.63552
G1 X129.826 Y28.766 E2.687
G1 X132.17 Y31.109 E2.74959
G1 X133.455 Y32.956 E2.79208
G1 X134.036 Y35.474 E2.84088
G1 X135.562 Y102.49 E4.10683
G1 X136.147 Y235.922 E6.62677
G1 X136.147 Y252.971 E6.94875
G1 X135.75 Y255.186 E6.99125
G1 X134.279 Y257.481 E7.04273
G1 X131.936 Y259.824 E7.10531
G1 X130.089 Y261.11 E7.14781
G1 X127.425 Y261.693 E7.19931
G1 X116.654 Y261.668 E7.40273
G1 X106.401 Y260.768 E7.59711
G1 X104.23 Y260.179 E7.63959
G1 X102.449 Y258.924 E7.68074
G1 X100.106 Y256.581 E7.74332
G1 X98.82 Y254.735 E7.78581
G1 X98.239 Y252.207 E7.8348
G1 X96.029 Y47.104 E11.70848
G1 X96.028 Y41.223 E11.81955
G1 X96.13 Y36.384 E11.91096
G1 X96.562 Y34.237 E11.95232
G1 E9.95232 F1800
G92 E0
G1 X117.89 Y233.903 F4200
G1 E2 F1800
G1 F720
G1 X126.787 Y233.907 E2.16802
G1 X127.161 Y233.996 E2.17528
G1 X127.677 Y234.278 E2.18639
G1 X129.079 Y235.68 E2.22383
G1 X129.305 Y236.036 E2.23179
G1 X129.472 Y236.602 E2.24293
G1 X129.472 Y243.012 E2.36399
G1 X129.306 Y243.576 E2.37509
G1 X129.16 Y243.832 E2.38066
G1 X128.551 Y244.46 E2.39718
G1 X129.16 Y245.089 E2.41371
G1 X129.306 Y245.345 E2.41928
G1 X129.472 Y245.909 E2.43038
G1 X129.472 Y252.319 E2.55144
G1 X129.305 Y252.886 E2.5626
G1 X129.13 Y253.177 E2.56901
G1 X127.695 Y254.625 E2.60751
G1 X127.339 Y254.851 E2.61547
G1 X126.773 Y255.017 E2.62661
G1 X117.89 Y255.017 E2.79437
G1 X117.48 Y254.927 E2.8023
G1 X117.056 Y254.712 E2.81128
G1 X116.434 Y254.118 E2.82752
G1 X107.611 Y254.118 E2.99415
G1 X107.044 Y253.951 E3.00531
G1 X106.753 Y253.776 E3.01172
G1 X105.305 Y252.341 E3.05022
G1 X105.079 Y251.985 E3.05818
G1 X104.913 Y251.419 E3.06932
G1 X104.913 Y247.085 E3.15117
G1 X104.813 Y246.715 E3.15841
G1 X104.813 Y242.206 E3.24356
G1 X104.913 Y241.836 E3.2508
G1 X104.913 Y237.502 E3.33265
G1 X105.079 Y236.935 E3.34381
G1 X105.255 Y236.643 E3.35025
G1 X106.689 Y235.196 E3.38872
G1 X107.045 Y234.97 E3.39668
G1 X107.611 Y234.803 E3.40782
G1 X116.434 Y234.803 E3.57445
G1 X117.056 Y234.208 E3.59071
G1 X117.48 Y233.994 E3.59968
G1 X117.831 Y233.916 E3.60647
G1 X117.91 Y234.282 F4200
G1 F720
G1 X126.765 Y234.286 E3.7737
G1 X127.007 Y234.343 E3.7784
G1 X127.43 Y234.566 E3.78743
G1 X128.798 Y235.934 E3.82397
G1 X128.952 Y236.174 E3.82936
G1 X129.093 Y236.632 E3.83841
G1 X129.093 Y242.982 E3.95833
G1 X128.952 Y243.441 E3.9674
G1 X128.847 Y243.618 E3.97129
G1 X128.017 Y244.46 E3.99362
G1 X128.847 Y245.303 E4.01596
G1 X128.952 Y245.48 E4.01985
G1 X129.093 Y245.939 E4.02892
G1 X129.093 Y252.289 E4.14884
G1 X128.952 Y252.748 E4.15791
G1 X128.821 Y252.958 E4.16258
G1 X127.441 Y254.343 E4.1995
G1 X127.201 Y254.498 E4.2049
G1 X126.744 Y254.639 E4.21393
G1 X117.91 Y254.639 E4.38076
G1 X117.629 Y254.578 E4.38619
G1 X117.254 Y254.388 E4.39413
G1 X116.59 Y253.739 E4.41166
G1 X107.641 Y253.739 E4.58067
G1 X107.182 Y253.597 E4.58974
G1 X106.972 Y253.467 E4.5944
G1 X105.587 Y252.087 E4.63132
G1 X105.432 Y251.847 E4.63672
G1 X105.291 Y251.389 E4.64577
G1 X105.291 Y247.029 E4.72811
G1 X105.191 Y246.686 E4.73486
G1 X105.191 Y242.235 E4.81892
G1 X105.291 Y241.892 E4.82567
G1 X105.291 Y237.532 E4.90801
G1 X105.433 Y237.073 E4.91708
G1 X105.563 Y236.863 E4.92174
G1 X106.943 Y235.478 E4.95866
G1 X107.183 Y235.323 E4.96406
G1 X107.641 Y235.182 E4.97311
G1 X116.59 Y235.182 E5.14212
G1 X117.254 Y234.533 E5.15965
G1 X117.629 Y234.343 E5.16759
G1 X117.851 Y234.295 E5.17188
G1 X117.928 Y234.661 F4200
G1 F720
G1 X126.743 Y234.664 E5.33836
G1 X126.858 Y234.691 E5.34059
G1 X127.185 Y234.856 E5.34751
G1 X128.517 Y236.188 E5.38309
G1 X128.601 Y236.318 E5.38601
G1 X128.715 Y236.663 E5.39287
G1 X128.715 Y242.95 E5.5116
G1 X128.601 Y243.298 E5.51852
G1 X128.538 Y243.399 E5.52077
G1 X127.482 Y244.46 E5.54904
G1 X128.538 Y245.522 E5.57732
G1 X128.601 Y245.623 E5.57957
G1 X128.715 Y245.971 E5.58649
G1 X128.715 Y252.257 E5.7052
G1 X128.601 Y252.603 E5.71208
G1 X128.517 Y252.733 E5.715
G1 X127.187 Y254.062 E5.75051
G1 X127.057 Y254.147 E5.75344
G1 X126.712 Y254.26 E5.7603
G1 X117.928 Y254.26 E5.92619
G1 X117.777 Y254.229 E5.9291
G1 X117.452 Y254.064 E5.93598
G1 X116.748 Y253.36 E5.95478
G1 X107.673 Y253.36 E6.12617
G1 X107.327 Y253.247 E6.13304
G1 X107.197 Y253.162 E6.13597
G1 X105.868 Y251.833 E6.17146
G1 X105.783 Y251.703 E6.17439
G1 X105.67 Y251.357 E6.18126
G1 X105.67 Y246.967 E6.26417
G1 X105.57 Y246.655 E6.27036
G1 X105.57 Y242.266 E6.35325
G1 X105.67 Y241.954 E6.35944
G1 X105.67 Y237.563 E6.44237
G1 X105.783 Y237.218 E6.44923
G1 X105.868 Y237.088 E6.45216
G1 X107.197 Y235.759 E6.48765
G1 X107.327 Y235.674 E6.49058
G1 X107.673 Y235.56 E6.49746
G1 X116.748 Y235.56 E6.66885
G1 X117.452 Y234.856 E6.68765
G1 X117.777 Y234.692 E6.69452
G1 X117.869 Y234.673 E6.69629
G1 X117.942 Y235.04 F4200
G1 F720
G1 X126.691 Y235.039 E6.86152
G1 X126.942 Y235.149 E6.8667
G1 X128.255 Y236.47 E6.90187
G1 X128.336 Y236.699 E6.90646
G1 X128.336 Y242.915 E7.02385
G1 X128.236 Y243.17 E7.02902
G1 X126.946 Y244.46 E7.06347
G1 X128.236 Y245.751 E7.09794
G1 X128.336 Y246.006 E7.10311
G1 X128.336 Y252.222 E7.2205
G1 X128.236 Y252.478 E7.22569
G1 X126.905 Y253.8 E7.26112
G1 X126.677 Y253.882 E7.2657
G1 X117.946 Y253.882 E7.43059
G1 X117.695 Y253.772 E7.43577
G1 X116.905 Y252.982 E7.45687
G1 X107.708 Y252.982 E7.63056
G1 X107.452 Y252.882 E7.63575
G1 X106.13 Y251.55 E7.67119
G1 X106.048 Y251.322 E7.67577
G1 X106.048 Y246.898 E7.75932
G1 X105.948 Y246.619 E7.76492
G1 X105.948 Y242.302 E7.84645
G1 X106.048 Y242.023 E7.85205
G1 X106.048 Y237.599 E7.9356
G1 X106.148 Y237.343 E7.94079
G1 X107.452 Y236.039 E7.97562
G1 X107.708 Y235.939 E7.98081
G1 X116.905 Y235.939 E8.1545
G1 X117.695 Y235.149 E8.1756
G1 X117.886 Y235.059 E8.17959
G1 X118.002 Y235.418 F4200
G1 F720
G1 X126.635 Y235.418 E8.34263
G1 X126.704 Y235.446 E8.34404
G1 X127.929 Y236.671 E8.37676
G1 X127.958 Y236.741 E8.37819
G1 X127.958 Y242.873 E8.494
G1 X127.929 Y242.942 E8.49541
G1 X126.704 Y244.167 E8.52813
G1 X126.635 Y244.196 E8.52954
G1 X123.48 Y244.196 E8.58912
G1 X123.48 Y244.725 E8.59911
G1 X126.635 Y244.725 E8.65869
G1 X126.704 Y244.754 E8.6601
G1 X127.929 Y245.978 E8.6928
G1 X127.958 Y246.048 E8.69423
G1 X127.958 Y252.18 E8.81004
G1 X127.929 Y252.25 E8.81147
G1 X126.704 Y253.475 E8.84419
G1 X126.635 Y253.503 E8.8456
G1 X118.002 Y253.503 E9.00864
G1 X117.933 Y253.475 E9.01005
G1 X117.062 Y252.603 E9.03333
G1 X107.75 Y252.603 E9.20919
G1 X107.68 Y252.575 E9.21061
G1 X106.456 Y251.35 E9.24331
G1 X106.427 Y251.28 E9.24474
G1 X106.427 Y246.717 E9.33091
G1 X106.356 Y246.646 E9.33281
G1 X106.327 Y246.577 E9.33422
G1 X106.327 Y242.344 E9.41416
G1 X106.356 Y242.275 E9.41557
G1 X106.427 Y242.204 E9.41747
G1 X106.427 Y237.641 E9.50364
G1 X106.456 Y237.571 E9.50507
G1 X107.68 Y236.346 E9.53777
G1 X107.75 Y236.318 E9.53919
G1 X117.062 Y236.318 E9.71505
G1 X117.947 Y235.441 E9.73858
G1 E7.73858 F1800
G92 E0
G1 X117.947 Y188.757 F4200
G1 E2 F1800
G1 F720
G1 X117.357 Y188.757 E2.01114
G1 X116.947 Y188.667 E2.01907
G1 X116.523 Y188.452 E2.02805
G1 X115.902 Y187.857 E2.04429
G1 X107.079 Y187.857 E2.21092
G1 X106.512 Y187.691 E2.22208
G1 X106.22 Y187.515 E2.22852
G1 X104.773 Y186.081 E2.26699
G1 X104.547 Y185.725 E2.27495
G1 X104.38 Y185.159 E2.28609
G1 X104.38 Y180.825 E2.36794
G1 X104.28 Y180.455 E2.37518
G1 X104.28 Y175.946 E2.46033
G1 X104.38 Y175.576 E2.46757
G1 X104.38 Y171.242 E2.54942
G1 X104.547 Y170.675 E2.56058
G1 X104.722 Y170.383 E2.56701
G1 X106.157 Y168.936 E2.6055
G1 X106.513 Y168.71 E2.61346
G1 X107.079 Y168.543 E2.6246
G1 X115.902 Y168.543 E2.79123
G1 X116.523 Y167.948 E2.80747
G1 X116.947 Y167.734 E2.81644
G1 X117.357 Y167.643 E2.82437
G1 X126.254 Y167.647 E2.99239
G1 X126.629 Y167.736 E2.99967
G1 X127.144 Y168.017 E3.01075
G1 X128.547 Y169.42 E3.04822
G1 X128.773 Y169.776 E3.05618
G1 X128.939 Y170.342 E3.06732
G1 X128.939 Y176.752 E3.18838
G1 X128.773 Y177.316 E3.19948
G1 X128.627 Y177.572 E3.20505
G1 X128.018 Y178.2 E3.22157
G1 X128.627 Y178.829 E3.2381
G1 X128.773 Y179.085 E3.24367
G1 X128.939 Y179.649 E3.25477
G1 X128.939 Y186.059 E3.37583
G1 X128.773 Y186.626 E3.38699
G1 X128.597 Y186.917 E3.39341
G1 X127.163 Y188.365 E3.4319
G1 X126.807 Y188.591 E3.43986
G1 X126.241 Y188.757 E3.451
G1 X118.007 Y188.757 E3.6065
G1 X118.007 Y188.379 F4200
G1 F720
G1 X117.377 Y188.379 E3.6184
G1 X117.096 Y188.318 E3.62383
G1 X116.721 Y188.128 E3.63177
G1 X116.058 Y187.479 E3.64929
G1 X107.108 Y187.479 E3.81831
G1 X106.649 Y187.337 E3.82738
G1 X106.44 Y187.207 E3.83203
G1 X105.054 Y185.827 E3.86897
G1 X104.9 Y185.587 E3.87436
G1 X104.759 Y185.129 E3.88341
G1 X104.759 Y180.769 E3.96575
G1 X104.659 Y180.426 E3.9725
G1 X104.659 Y175.974 E4.05658
G1 X104.759 Y175.632 E4.06331
G1 X104.759 Y171.272 E4.14565
G1 X104.9 Y170.813 E4.15472
G1 X105.031 Y170.603 E4.15939
G1 X106.411 Y169.218 E4.19631
G1 X106.651 Y169.063 E4.20171
G1 X107.108 Y168.922 E4.21074
G1 X116.058 Y168.922 E4.37976
G1 X116.721 Y168.273 E4.39728
G1 X117.096 Y168.083 E4.40522
G1 X117.377 Y168.022 E4.41065
G1 X126.233 Y168.026 E4.5779
G1 X126.475 Y168.083 E4.5826
G1 X126.897 Y168.306 E4.59161
G1 X128.265 Y169.674 E4.62815
G1 X128.42 Y169.914 E4.63355
G1 X128.561 Y170.372 E4.6426
G1 X128.561 Y176.722 E4.76252
G1 X128.419 Y177.181 E4.77159
G1 X128.315 Y177.358 E4.77547
G1 X127.485 Y178.2 E4.7978
G1 X128.315 Y179.043 E4.82014
G1 X128.419 Y179.22 E4.82402
G1 X128.561 Y179.679 E4.83309
G1 X128.561 Y186.029 E4.95301
G1 X128.419 Y186.488 E4.96208
G1 X128.289 Y186.698 E4.96674
G1 X126.909 Y188.083 E5.00366
G1 X126.669 Y188.238 E5.00906
G1 X126.211 Y188.379 E5.01811
G1 X118.067 Y188.379 E5.17191
G1 X118.067 Y188 F4200
G1 F720
G1 X117.396 Y188 E5.18458
G1 X117.244 Y187.969 E5.18751
G1 X116.92 Y187.804 E5.19438
G1 X116.216 Y187.1 E5.21318
G1 X107.14 Y187.1 E5.38458
G1 X106.795 Y186.987 E5.39144
G1 X106.665 Y186.902 E5.39437
G1 X105.335 Y185.573 E5.42988
G1 X105.251 Y185.443 E5.4328
G1 X105.137 Y185.097 E5.43968
G1 X105.137 Y180.707 E5.52259
G1 X105.037 Y180.394 E5.5288
G1 X105.037 Y176.006 E5.61167
G1 X105.137 Y175.694 E5.61786
G1 X105.137 Y171.303 E5.70079
G1 X105.251 Y170.958 E5.70765
G1 X105.335 Y170.828 E5.71057
G1 X106.665 Y169.499 E5.74608
G1 X106.795 Y169.414 E5.74901
G1 X107.14 Y169.3 E5.75587
G1 X116.216 Y169.3 E5.92727
G1 X116.92 Y168.596 E5.94607
G1 X117.244 Y168.432 E5.95293
G1 X117.396 Y168.4 E5.95586
G1 X126.211 Y168.404 E6.12234
G1 X126.326 Y168.431 E6.12457
G1 X126.652 Y168.596 E6.13147
G1 X127.984 Y169.928 E6.16705
G1 X128.069 Y170.058 E6.16998
G1 X128.182 Y170.403 E6.17684
G1 X128.182 Y176.69 E6.29557
G1 X128.068 Y177.038 E6.30249
G1 X128.006 Y177.139 E6.30473
G1 X126.95 Y178.2 E6.333
G1 X128.006 Y179.262 E6.36128
G1 X128.068 Y179.363 E6.36352
G1 X128.182 Y179.711 E6.37044
G1 X128.182 Y185.997 E6.48915
G1 X128.069 Y186.343 E6.49602
G1 X127.984 Y186.473 E6.49895
G1 X126.655 Y187.802 E6.53444
G1 X126.525 Y187.887 E6.53737
G1 X126.179 Y188 E6.54424
G1 X118.127 Y188 E6.69631
G1 X118.127 Y187.622 F4200
G1 F720
G1 X117.414 Y187.622 E6.70978
G1 X117.162 Y187.512 E6.71497
G1 X116.372 Y186.722 E6.73607
G1 X107.175 Y186.722 E6.90976
G1 X106.92 Y186.622 E6.91493
G1 X105.597 Y185.29 E6.95039
G1 X105.516 Y185.062 E6.95496
G1 X105.516 Y180.638 E7.03851
G1 X105.416 Y180.359 E7.04411
G1 X105.416 Y176.042 E7.12564
G1 X105.516 Y175.763 E7.13124
G1 X105.516 Y171.339 E7.21479
G1 X105.616 Y171.083 E7.21998
G1 X106.947 Y169.761 E7.25541
G1 X107.175 Y169.679 E7.25999
G1 X116.372 Y169.679 E7.43368
G1 X117.162 Y168.889 E7.45478
G1 X117.414 Y168.779 E7.45997
G1 X126.158 Y168.779 E7.6251
G1 X126.41 Y168.889 E7.63029
G1 X127.722 Y170.21 E7.66545
G1 X127.804 Y170.439 E7.67004
G1 X127.804 Y176.655 E7.78743
G1 X127.704 Y176.91 E7.7926
G1 X126.414 Y178.2 E7.82705
G1 X127.704 Y179.491 E7.86152
G1 X127.804 Y179.746 E7.86669
G1 X127.804 Y185.962 E7.98408
G1 X127.722 Y186.19 E7.98866
G1 X126.399 Y187.522 E8.02412
G1 X126.144 Y187.622 E8.02929
G1 X118.187 Y187.622 E8.17956
G1 X118.187 Y187.243 F4200
G1 F720
G1 X117.47 Y187.243 E8.1931
G1 X117.4 Y187.214 E8.19453
G1 X116.529 Y186.343 E8.21779
G1 X107.217 Y186.343 E8.39365
G1 X107.148 Y186.314 E8.39506
G1 X105.923 Y185.09 E8.42776
G1 X105.894 Y185.02 E8.42919
G1 X105.894 Y180.457 E8.51536
G1 X105.823 Y180.386 E8.51726
G1 X105.794 Y180.316 E8.51869
G1 X105.794 Y176.084 E8.59861
G1 X105.823 Y176.015 E8.60002
G1 X105.894 Y175.944 E8.60192
G1 X105.894 Y171.381 E8.68809
G1 X105.923 Y171.311 E8.68952
G1 X107.148 Y170.086 E8.72224
G1 X107.217 Y170.057 E8.72365
G1 X116.529 Y170.057 E8.89951
G1 X117.4 Y169.186 E8.92277
G1 X117.47 Y169.157 E8.9242
G1 X126.102 Y169.157 E9.08722
G1 X126.172 Y169.186 E9.08865
G1 X127.396 Y170.411 E9.12135
G1 X127.425 Y170.481 E9.12278
G1 X127.425 Y176.613 E9.23859
G1 X127.396 Y176.682 E9.24
G1 X126.172 Y177.907 E9.2727
G1 X126.102 Y177.936 E9.27413
G1 X122.948 Y177.936 E9.33369
G1 X122.948 Y178.465 E9.34368
G1 X126.102 Y178.465 E9.40324
G1 X126.172 Y178.494 E9.40467
G1 X127.396 Y179.718 E9.43736
G1 X127.425 Y179.788 E9.43879
G1 X127.425 Y185.92 E9.5546
G1 X127.396 Y185.99 E9.55603
G1 X126.172 Y187.214 E9.58872
G1 X126.102 Y187.243 E9.59015
G1 X118.247 Y187.243 E9.7385
G1 E7.7385 F1800
G92 E0
G1 X118.247 Y121.585 F4200
G1 E2 F1800
G1 F720
G1 X117.305 Y121.585 E2.01779
G1 X116.895 Y121.494 E2.02572
G1 X116.471 Y121.28 E2.03469
G1 X115.849 Y120.685 E2.05095
G1 X107.026 Y120.685 E2.21758
G1 X106.459 Y120.518 E2.22874
G1 X106.167 Y120.343 E2.23517
G1 X104.72 Y118.909 E2.27364
G1 X104.494 Y118.552 E2.28162
G1 X104.327 Y117.987 E2.29275
G1 X104.327 Y113.652 E2.37462
G1 X104.227 Y113.283 E2.38184
G1 X104.227 Y108.773 E2.46701
G1 X104.327 Y108.404 E2.47423
G1 X104.327 Y104.07 E2.55608
G1 X104.494 Y103.503 E2.56724
G1 X104.669 Y103.211 E2.57367
G1 X106.104 Y101.764 E2.61216
G1 X106.46 Y101.538 E2.62012
G1 X107.026 Y101.371 E2.63126
G1 X115.849 Y101.371 E2.79789
G1 X116.471 Y100.776 E2.81415
