; generated by CreatWare 7.0.0 on 2022-06-28 at 20:18:26 UTC

; 

; external perimeters extrusion width = 0.40mm
; perimeters extrusion width = 0.40mm
; infill extrusion width = 0.40mm
; solid infill extrusion width = 0.40mm
; top infill extrusion width = 0.40mm
; support material extrusion width = 0.40mm

G21 ; set units to millimeters
G90 ; use absolute coordinates
M82 ; use absolute distances for extrusion
G92 E0
M107
M190 S45 ; set bed temperature and wait for it to be reached
M104 S210 ; set temperature
;TYPE:Custom
M109 S210 ; set temperature and wait for it to be reached
M6013 S0 ; set chamber temp

G28 X0 Y0  ;move X/Y to min endstops
G28 Z0     ;move Z to min endstops

;Add Clear Nozzle
G92 E0                   ;zero the extruded length again
G0 F4200 X0 Y0
G0 F400 X10 Z0.4         ;move a bit while down the Z
M221 T0 S300             ;set flow is 300%
G1 F200 X30 E8          ;extrude amont filament to clean the hotend
M221 T0 S100             ;reset flow is 100%
G92 E0                   ;zero the extruded length again
;Add End

G0 Z15.0 F4200 ;move the platform down 15mm

;Put printing message on LCD screen
M117 Printing...
; Filament gcode
M107
;LAYER_CHANGE
;Layer 1
;Z:0.1
;HEIGHT:0.1
;BEFORE_LAYER_CHANGE
;0.1


G1 Z.1 F4200
;AFTER_LAYER_CHANGE
;G92 E0   ;zero the extruded length again
;0.1
G1 E-2 F1800
G92 E0
G1 X187.528 Y137.454 F4200
G1 E2 F1800
;TYPE:Skirt/Brim
;WIDTH:0.4
G1 F720
G1 X189.678 Y136.047 E2.04853
G1 X194.737 Y134.045 E2.15128
G1 X197.09 Y133.597 E2.19652
G1 X202.917 Y133.603 E2.30657
G1 X205.255 Y134.049 E2.35152
G1 X210.312 Y136.048 E2.45421
G1 X212.226 Y137.231 E2.4967
G1 X213.747 Y139.281 E2.54491
G1 X214.715 Y141.355 E2.58813
G1 X215.314 Y144.054 E2.64034
G1 X215.314 Y155.811 E2.86238
G1 X214.785 Y158.354 E2.91143
G1 X213.824 Y160.566 E2.95698
G1 X212.577 Y162.439 E2.99947
G1 X210.322 Y163.953 E3.05076
G1 X205.263 Y165.955 E3.15351
G1 X202.91 Y166.403 E3.19875
G1 X197.083 Y166.397 E3.3088
G1 X194.745 Y165.951 E3.35375
G1 X189.688 Y163.952 E3.45644
G1 X187.774 Y162.769 E3.49893
G1 X186.253 Y160.719 E3.54714
G1 X185.285 Y158.645 E3.59036
G1 X184.686 Y155.946 E3.64257
G1 X184.686 Y144.054 E3.86716
G1 X185.276 Y141.374 E3.91898
G1 X186.238 Y139.297 E3.96221
G1 X187.494 Y137.503 E4.00357
G1 E2.00357 F1800
G92 E0
G1 X192.747 Y142.189 F4200
G1 E2 F1800
G1 F720
G1 X193.186 Y141.837 E2.01063
G1 X196.142 Y140.667 E2.07067
G1 X196.703 Y140.623 E2.0813
G1 X197.15 Y140.723 E2.08995
G1 X197.49 Y140.887 E2.09708
G1 X198.264 Y141.67 E2.11787
G1 X201.733 Y141.673 E2.18338
G1 X202.504 Y140.893 E2.20409
G1 X202.845 Y140.729 E2.21124
G1 X203.289 Y140.629 E2.21984
G1 X203.666 Y140.632 E2.22696
G1 X206.808 Y141.841 E2.29054
G1 X207.21 Y142.153 E2.30015
G1 X207.506 Y142.574 E2.30987
G1 X207.671 Y143.11 E2.32046
G1 X207.677 Y156.893 E2.58076
G1 X207.512 Y157.429 E2.59135
G1 X207.223 Y157.844 E2.6009
G1 X206.869 Y158.132 E2.60952
G1 X203.861 Y159.332 E2.67068
G1 X203.486 Y159.388 E2.67784
G1 X202.86 Y159.279 E2.68984
G1 X202.51 Y159.113 E2.69716
G1 X201.736 Y158.33 E2.71795
G1 X198.267 Y158.327 E2.78346
G1 X197.495 Y159.107 E2.80419
G1 X197.145 Y159.274 E2.81151
G1 X196.519 Y159.382 E2.82351
G1 X196.146 Y159.327 E2.83063
G1 X193.191 Y158.159 E2.89064
G1 X192.79 Y157.847 E2.90024
G1 X192.494 Y157.426 E2.90996
G1 X192.329 Y156.89 E2.92055
G1 X192.354 Y142.92 E3.18438
G1 X192.489 Y142.568 E3.1915
G1 X192.713 Y142.239 E3.19902
G1 X193.026 Y142.452 F4200
G1 F720
G1 X193.351 Y142.179 E3.20704
G1 X196.255 Y141.03 E3.26602
G1 X196.648 Y140.999 E3.27347
G1 X197.044 Y141.087 E3.28113
G1 X197.291 Y141.211 E3.28635
G1 X198.103 Y142.048 E3.30837
G1 X201.895 Y142.051 E3.37998
G1 X202.704 Y141.216 E3.40194
G1 X202.951 Y141.093 E3.40715
G1 X203.348 Y141.004 E3.41483
G1 X203.624 Y141.01 E3.42004
G1 X206.642 Y142.182 E3.48118
G1 X206.95 Y142.429 E3.48864
G1 X207.177 Y142.762 E3.49625
G1 X207.293 Y143.138 E3.50368
G1 X207.299 Y156.864 E3.7629
G1 X207.183 Y157.241 E3.77035
G1 X206.957 Y157.574 E3.77795
G1 X206.699 Y157.792 E3.78433
G1 X203.743 Y158.971 E3.84443
G1 X203.468 Y159.008 E3.84967
G1 X202.958 Y158.913 E3.85947
G1 X202.709 Y158.789 E3.86472
G1 X201.897 Y157.952 E3.88674
G1 X198.105 Y157.949 E3.95835
G1 X197.296 Y158.784 E3.98031
G1 X197.047 Y158.907 E3.98555
G1 X196.537 Y159.003 E3.99535
G1 X196.263 Y158.966 E4.00057
G1 X193.358 Y157.818 E4.05956
G1 X193.05 Y157.571 E4.06702
G1 X192.823 Y157.238 E4.07463
G1 X192.707 Y156.862 E4.08206
G1 X192.72 Y143.019 E4.34349
G1 X192.816 Y142.76 E4.34871
G1 X192.992 Y142.501 E4.35462
G1 X193.305 Y142.714 F4200
G1 F720
G1 X193.341 Y142.661 E4.35583
G1 X193.517 Y142.52 E4.36009
G1 X196.368 Y141.392 E4.41799
G1 X196.593 Y141.374 E4.42225
G1 X196.935 Y141.451 E4.42887
G1 X197.086 Y141.53 E4.43209
G1 X197.939 Y142.427 E4.45547
G1 X202.058 Y142.43 E4.53326
G1 X202.909 Y141.535 E4.55658
G1 X203.06 Y141.456 E4.5598
G1 X203.405 Y141.379 E4.56648
G1 X203.575 Y141.386 E4.56969
G1 X206.477 Y142.524 E4.62856
G1 X206.653 Y142.665 E4.63282
G1 X206.848 Y142.951 E4.63936
G1 X206.914 Y143.167 E4.64363
G1 X206.92 Y156.836 E4.90177
G1 X206.854 Y157.052 E4.90604
G1 X206.657 Y157.342 E4.91266
G1 X206.528 Y157.453 E4.91587
G1 X203.628 Y158.609 E4.97483
G1 X203.458 Y158.629 E4.97806
G1 X203.063 Y158.548 E4.98567
G1 X202.914 Y158.47 E4.98885
G1 X202.061 Y157.573 E5.01223
G1 X197.942 Y157.57 E5.09002
G1 X197.091 Y158.465 E5.11334
G1 X196.942 Y158.543 E5.11652
G1 X196.547 Y158.624 E5.12413
G1 X196.377 Y158.604 E5.12736
G1 X193.523 Y157.476 E5.18532
G1 X193.347 Y157.335 E5.18958
G1 X193.152 Y157.049 E5.19612
G1 X193.086 Y156.833 E5.20039
G1 X193.088 Y143.111 E5.45954
G1 X193.144 Y142.951 E5.46274
G1 X193.272 Y142.764 E5.46702
G1 X193.585 Y142.976 F4200
G1 F720
G1 X193.683 Y142.862 E5.46986
G1 X196.481 Y141.754 E5.52669
G1 X196.538 Y141.75 E5.52777
G1 X196.821 Y141.813 E5.53325
G1 X196.871 Y141.841 E5.53433
G1 X197.774 Y142.805 E5.55928
G1 X202.223 Y142.809 E5.6433
G1 X203.124 Y141.847 E5.66819
G1 X203.174 Y141.819 E5.66927
G1 X203.457 Y141.755 E5.67475
G1 X203.513 Y141.76 E5.67581
G1 X206.311 Y142.866 E5.73263
G1 X206.356 Y142.901 E5.73371
G1 X206.519 Y143.141 E5.73919
G1 X206.536 Y143.195 E5.74026
G1 X206.541 Y156.808 E5.99735
G1 X206.525 Y156.863 E5.99843
G1 X206.362 Y157.102 E6.00389
G1 X206.317 Y157.138 E6.00498
G1 X203.519 Y158.246 E6.06181
G1 X203.462 Y158.25 E6.06289
G1 X203.179 Y158.187 E6.06837
G1 X203.129 Y158.159 E6.06945
G1 X202.226 Y157.195 E6.0944
G1 X197.777 Y157.191 E6.17842
G1 X196.876 Y158.153 E6.20331
G1 X196.826 Y158.181 E6.20439
G1 X196.543 Y158.245 E6.20987
G1 X196.487 Y158.24 E6.21093
G1 X193.689 Y157.134 E6.26775
G1 X193.644 Y157.099 E6.26883
G1 X193.481 Y156.859 E6.27431
G1 X193.464 Y156.805 E6.27538
G1 X193.459 Y143.192 E6.53247
G1 X193.551 Y143.026 E6.53605
G1 X193.864 Y143.239 F4200
G1 F720
G1 X193.903 Y143.182 E6.53735
G1 X196.54 Y142.138 E6.59091
G1 X196.654 Y142.164 E6.59312
G1 X197.61 Y143.184 E6.61952
G1 X202.386 Y143.187 E6.70972
G1 X203.341 Y142.169 E6.73608
G1 X203.455 Y142.144 E6.73828
G1 X206.092 Y143.186 E6.79183
G1 X206.157 Y143.282 E6.79402
G1 X206.163 Y156.722 E7.04784
G1 X206.097 Y156.818 E7.05004
G1 X203.46 Y157.862 E7.1036
G1 X203.346 Y157.836 E7.10581
G1 X202.39 Y156.816 E7.13221
G1 X197.614 Y156.813 E7.22241
G1 X196.659 Y157.831 E7.24877
G1 X196.545 Y157.856 E7.25097
G1 X193.908 Y156.814 E7.30452
G1 X193.843 Y156.718 E7.30671
G1 X193.837 Y143.29 E7.5603
G1 E5.5603 F1800
G92 E0
G1 X191.827 Y144.675 F4200
G1 E2 F1800
;TYPE:Support material
G1 F720
G1 X191.832 Y155.331 E2.20124
G1 X191.996 Y155.868 E2.21184
G1 X191.254 Y155.868 E2.22585
G1 X191.254 Y144.132 E2.44749
G1 X191.95 Y144.132 E2.46063
G1 X191.84 Y144.62 E2.47008
G1 E.47008 F1800
G92 E0
G1 X208.746 Y155.868 F4200
G1 E2 F1800
G1 F720
G1 X208.05 Y155.868 E2.01314
G1 X208.173 Y155.325 E2.02365
G1 X208.168 Y144.669 E2.22489
G1 X208.004 Y144.132 E2.23549
G1 X208.746 Y144.132 E2.2495
G1 X208.746 Y155.811 E2.47006
G1 E.47006 F1800
G92 E0
G1 X203.659 Y146.229 F4200
G1 E2 F1800
;TYPE:Solid infill
;WIDTH:0.401989
G1 F288
G1 X203.291 Y145.861 E2.00988
G1 X202.753 Y145.861 E2.02009
G1 X203.489 Y146.597 E2.03985
G1 X203.489 Y147.135 E2.05006
G1 X202.215 Y145.861 E2.08426
G1 X201.677 Y145.861 E2.09447
G1 X203.489 Y147.673 E2.14312
G1 X203.489 Y148.211 E2.15333
G1 X201.139 Y145.861 E2.21642
G1 X200.601 Y145.861 E2.22663
G1 X203.489 Y148.749 E2.30417
G1 X203.489 Y149.288 E2.3144
G1 X200.063 Y145.861 E2.4064
G1 X199.524 Y145.861 E2.41663
G1 X203.489 Y149.826 E2.52308
G1 X203.489 Y150.364 E2.53329
G1 X198.986 Y145.861 E2.65419
G1 X198.448 Y145.861 E2.6644
G1 X203.489 Y150.902 E2.79974
G1 X203.489 Y151.44 E2.80995
G1 X197.91 Y145.861 E2.95974
G1 X197.372 Y145.861 E2.96995
G1 X203.489 Y151.978 E3.13418
G1 X203.489 Y152.516 E3.14439
G1 X196.834 Y145.861 E3.32307
G1 X196.511 Y145.861 E3.3292
G1 X196.511 Y146.076 E3.33328
G1 X203.489 Y153.055 E3.52064
G1 X203.489 Y153.593 E3.53085
G1 X196.511 Y146.615 E3.7182
G1 X196.511 Y147.153 E3.72841
G1 X203.489 Y154.139 E3.91587
G1 X202.959 Y154.139 E3.92593
G1 X196.511 Y147.691 E4.09905
G1 X196.511 Y148.229 E4.10926
G1 X202.421 Y154.139 E4.26793
G1 X201.883 Y154.139 E4.27814
G1 X196.511 Y148.767 E4.42237
G1 X196.511 Y149.305 E4.43258
G1 X201.345 Y154.139 E4.56237
G1 X200.806 Y154.139 E4.5726
G1 X196.511 Y149.843 E4.68793
G1 X196.511 Y150.382 E4.69816
G1 X200.268 Y154.139 E4.79903
G1 X199.73 Y154.139 E4.80924
G1 X196.511 Y150.92 E4.89566
G1 X196.511 Y151.458 E4.90587
G1 X197.618 Y152.565 E4.93559
G1 X197.906 Y152.596 E4.94109
G1 X198.157 Y152.694 E4.94621
G1 X198.377 Y152.852 E4.95135
G1 X198.551 Y153.059 E4.95648
G1 X198.668 Y153.302 E4.9616
G1 X198.722 Y153.567 E4.96673
G1 X198.717 Y153.664 E4.96857
G1 X199.192 Y154.139 E4.98132
G1 X198.654 Y154.139 E4.99153
G1 X198.489 Y153.974 E4.99596
G1 E2.99596 F1800
G92 E0
G1 X197.315 Y152.8 F4200
G1 E2 F1800
G1 F288
G1 X196.511 Y151.996 E2.02159
G1 X196.511 Y152.534 E2.0318
G1 X196.987 Y153.011 E2.04459
G1 X196.562 Y153.271 F4200
;TYPE:Gap fill
;WIDTH:0.285266
G1 F360
G1 X196.533 Y153.551 E2.04829
;WIDTH:0.255606
G1 X196.532 Y153.58 E2.04863
;WIDTH:0.265274
G1 X196.538 Y153.826 E2.05162
;WIDTH:0.270598
G1 X196.541 Y153.857 E2.05201
;WIDTH:0.303433
G1 X196.557 Y153.967 E2.05357
;WIDTH:0.33627
G1 X196.574 Y154.076 E2.0553
;WIDTH:0.336271
G1 X196.601 Y154.096 E2.05583
;WIDTH:0.295988
G1 X196.812 Y154.234 E2.05928
G1 X196.579 Y154.423 F4200
;TYPE:External perimeter
;WIDTH:0.4
G1 F270
G1 X196.227 Y154.799 E2.06901
G1 X196.227 Y145.201 E2.25027
G1 X196.579 Y145.577 E2.26
G1 X203.421 Y145.577 E2.38921
G1 X203.773 Y145.201 E2.39894
G1 X203.773 Y154.799 E2.5802
G1 X203.421 Y154.423 E2.58993
G1 X196.639 Y154.423 E2.71801
G1 X197.015 Y154.158 F4200
G1 F270
G1 X196.906 Y153.978 E2.72198
G1 X196.848 Y153.788 E2.72573
G1 X196.838 Y153.589 E2.72949
G1 X196.878 Y153.394 E2.73325
G1 X196.965 Y153.214 E2.73703
G1 X197.093 Y153.062 E2.74078
G1 X197.254 Y152.946 E2.74453
G1 X197.44 Y152.873 E2.7483
G1 X197.637 Y152.848 E2.75205
G1 X197.835 Y152.873 E2.75582
G1 X198.02 Y152.946 E2.75958
G1 X198.182 Y153.062 E2.76334
G1 X198.31 Y153.214 E2.76709
G1 X198.397 Y153.394 E2.77087
G1 X198.437 Y153.589 E2.77463
G1 X198.427 Y153.788 E2.77839
G1 X198.369 Y153.978 E2.78214
G1 X198.22 Y154.223 E2.78756
G1 X197.055 Y154.223 E2.80956
G1 X197.047 Y154.209 E2.80986
;LAYER_CHANGE
;Layer 2
;Z:0.2
;HEIGHT:0.1
;BEFORE_LAYER_CHANGE
;0.2


G1 Z.2 F4200
;AFTER_LAYER_CHANGE
;G92 E0   ;zero the extruded length again
;0.2
G1 X196.812 Y154.234
;TYPE:Gap fill
;WIDTH:0.295998
G1 F1200
G1 X196.601 Y154.096 E2.81274
;WIDTH:0.33627
G1 X196.574 Y154.076 E2.81318
;WIDTH:0.336272
G1 X196.557 Y153.967 E2.81462
;WIDTH:0.303435
G1 X196.541 Y153.857 E2.81592
;WIDTH:0.270596
G1 X196.538 Y153.826 E2.81624
;WIDTH:0.265274
G1 X196.532 Y153.58 E2.81873
;WIDTH:0.255606
G1 X196.533 Y153.551 E2.81901
;WIDTH:0.285266
G1 X196.562 Y153.271 E2.8221
G1 E.8221 F1800
G92 E0
G1 X203.659 Y153.754 F4200
G1 E2 F1800
;TYPE:Solid infill
;WIDTH:0.409789
G1 F960
G1 X203.275 Y154.139 E2.00878
G1 X202.726 Y154.139 E2.01764
G1 X203.489 Y153.376 E2.03506
G1 X203.489 Y152.826 E2.04394
G1 X202.177 Y154.139 E2.07391
G1 X201.627 Y154.139 E2.08279
G1 X203.489 Y152.277 E2.1253
G1 X203.489 Y151.728 E2.13416
G1 X201.078 Y154.139 E2.18921
G1 X200.529 Y154.139 E2.19807
G1 X203.489 Y151.179 E2.26565
G1 X203.489 Y150.63 E2.27451
G1 X199.98 Y154.139 E2.35463
G1 X199.431 Y154.139 E2.36349
G1 X203.489 Y150.081 E2.45614
G1 X203.489 Y149.531 E2.46502
G1 X198.882 Y154.139 E2.57022
G1 X198.603 Y154.139 E2.57472
G1 X198.709 Y153.837 E2.57989
G1 X198.713 Y153.759 E2.58115
G1 X203.489 Y148.982 E2.69021
G1 X203.489 Y148.433 E2.69907
G1 X198.652 Y153.27 E2.80951
G1 X198.551 Y153.059 E2.81329
G1 X198.443 Y152.93 E2.81601
G1 X203.489 Y147.884 E2.93122
G1 X203.489 Y147.335 E2.94008
G1 X198.137 Y152.687 E3.06228
G1 X197.904 Y152.595 E3.06632
G1 X197.703 Y152.571 E3.06959
G1 X203.489 Y146.785 E3.2017
G1 X203.489 Y146.236 E3.21056
G1 X196.723 Y153.002 E3.36504
G1 X196.511 Y152.981 E3.36848
G1 X196.511 Y152.665 E3.37358
G1 X203.315 Y145.861 E3.52893
G1 X202.766 Y145.861 E3.53779
G1 X196.511 Y152.116 E3.68061
G1 X196.511 Y151.567 E3.68947
G1 X202.217 Y145.861 E3.81975
G1 X201.668 Y145.861 E3.82861
G1 X196.511 Y151.018 E3.94636
G1 X196.511 Y150.469 E3.95522
G1 X201.118 Y145.861 E4.06042
G1 X200.569 Y145.861 E4.06928
G1 X196.511 Y149.919 E4.16193
G1 X196.511 Y149.37 E4.17079
G1 X200.02 Y145.861 E4.25091
G1 X199.471 Y145.861 E4.25977
G1 X196.511 Y148.821 E4.32735
G1 X196.511 Y148.272 E4.33621
G1 X198.922 Y145.861 E4.39126
G1 X198.372 Y145.861 E4.40014
G1 X196.511 Y147.723 E4.44264
G1 X196.511 Y147.173 E4.45152
G1 X197.823 Y145.861 E4.48148
G1 X197.274 Y145.861 E4.49034
G1 X196.511 Y146.624 E4.50776
G1 X196.511 Y146.075 E4.51662
G1 X196.895 Y145.691 E4.52539
G1 E2.52539 F1800
G92 E0
G1 X197.015 Y154.158 F4200
G1 E2 F1800
;TYPE:External perimeter
;WIDTH:0.4
G1 F900
G1 X196.906 Y153.978 E2.00331
G1 X196.848 Y153.788 E2.00644
G1 X196.838 Y153.589 E2.00958
G1 X196.878 Y153.394 E2.01271
G1 X196.965 Y153.214 E2.01586
G1 X197.093 Y153.062 E2.01899
G1 X197.254 Y152.946 E2.02211
G1 X197.44 Y152.873 E2.02525
G1 X197.634 Y152.849 E2.02833
G1 X197.835 Y152.873 E2.03152
G1 X198.02 Y152.946 E2.03465
G1 X198.182 Y153.062 E2.03779
G1 X198.31 Y153.214 E2.04092
G1 X198.397 Y153.394 E2.04407
G1 X198.437 Y153.589 E2.0472
G1 X198.427 Y153.788 E2.05034
G1 X198.369 Y153.978 E2.05347
G1 X198.22 Y154.223 E2.05798
G1 X197.055 Y154.223 E2.07631
G1 X197.047 Y154.209 E2.07656
G1 X196.579 Y154.423 F4200
G1 F900
G1 X196.227 Y154.799 E2.08467
G1 X196.227 Y145.201 E2.23572
G1 X196.579 Y145.577 E2.24383
G1 X203.421 Y145.577 E2.35151
G1 X203.773 Y145.201 E2.35962
G1 X203.773 Y154.799 E2.51067
G1 X203.421 Y154.423 E2.51878
G1 X196.639 Y154.423 E2.62551
;LAYER_CHANGE
;Layer 3
;Z:0.3
;HEIGHT:0.1
;BEFORE_LAYER_CHANGE
;0.3


G1 Z.3 F4200
;AFTER_LAYER_CHANGE
;G92 E0   ;zero the extruded length again
;0.3
G1 X196.812 Y154.234
;TYPE:Gap fill
;WIDTH:0.29599
G1 F1200
G1 X196.601 Y154.096 E2.62839
;WIDTH:0.336272
G1 X196.574 Y154.076 E2.62883
;WIDTH:0.33627
G1 X196.557 Y153.967 E2.63027
;WIDTH:0.303433
G1 X196.541 Y153.857 E2.63157
;WIDTH:0.270598
G1 X196.538 Y153.826 E2.63189
;WIDTH:0.265274
G1 X196.532 Y153.58 E2.63438
;WIDTH:0.255604
G1 X196.533 Y153.551 E2.63466
;WIDTH:0.285266
G1 X196.562 Y153.271 E2.63775
G1 E.63775 F1800
G92 E0
G1 X203.659 Y146.229 F4200
G1 E2 F1800
;TYPE:Solid infill
;WIDTH:0.401989
G1 F960
G1 X203.291 Y145.861 E2.00823
G1 X202.753 Y145.861 E2.01674
G1 X203.489 Y146.597 E2.03321
G1 X203.489 Y147.135 E2.04172
G1 X202.215 Y145.861 E2.07022
G1 X201.677 Y145.861 E2.07873
G1 X203.489 Y147.673 E2.11927
G1 X203.489 Y148.211 E2.12778
G1 X201.139 Y145.861 E2.18036
G1 X200.601 Y145.861 E2.18887
G1 X203.489 Y148.749 E2.25349
G1 X203.489 Y149.288 E2.26202
G1 X200.063 Y145.861 E2.33868
G1 X199.524 Y145.861 E2.34721
G1 X203.489 Y149.826 E2.43592
G1 X203.489 Y150.364 E2.44443
G1 X198.986 Y145.861 E2.54518
G1 X198.448 Y145.861 E2.55369
G1 X203.489 Y150.902 E2.66648
G1 X203.489 Y151.44 E2.67499
G1 X197.91 Y145.861 E2.79981
G1 X197.372 Y145.861 E2.80832
G1 X203.489 Y151.978 E2.94518
