; generated by CreatWare 7.0.0 on 2022-06-25 at 19:56:24 UTC

; 

; external perimeters extrusion width = 0.40mm
; perimeters extrusion width = 0.40mm
; infill extrusion width = 0.40mm
; solid infill extrusion width = 0.40mm
; top infill extrusion width = 0.40mm
; support material extrusion width = 0.40mm

G21 ; set units to millimeters
G90 ; use absolute coordinates
M82 ; use absolute distances for extrusion
G92 E0
M107
M190 S45 ; set bed temperature and wait for it to be reached
M104 S210 ; set temperature
;TYPE:Custom
M109 S210 ; set temperature and wait for it to be reached
M6013 S0 ; set chamber temp

G28 X0 Y0  ;move X/Y to min endstops
G28 Z0     ;move Z to min endstops

;Add Clear Nozzle
G92 E0                   ;zero the extruded length again
G0 F4200 X0 Y0
G0 F400 X10 Z0.4         ;move a bit while down the Z
M221 T0 S300             ;set flow is 300%
G1 F200 X30 E8          ;extrude amont filament to clean the hotend
M221 T0 S100             ;reset flow is 100%
G92 E0                   ;zero the extruded length again
;Add End

G0 Z15.0 F4200 ;move the platform down 15mm

;Put printing message on LCD screen
M117 Printing...
; Filament gcode
M107
;LAYER_CHANGE
;Layer 1
;Z:0.1
;HEIGHT:0.1
;BEFORE_LAYER_CHANGE
;0.1


G1 Z.1 F4200
;AFTER_LAYER_CHANGE
;G92 E0   ;zero the extruded length again
;0.1
G1 E-2 F1800
G92 E0
G1 X183.675 Y130.908 F4200
G1 E2 F1800
;TYPE:Skirt/Brim
;WIDTH:0.4
G1 F720
G1 X185.633 Y129.512 E2.04541
G1 X188.297 Y128.929 E2.09691
G1 X208.825 Y128.929 E2.48459
G1 X211.039 Y129.326 E2.52707
G1 X213.335 Y130.797 E2.57857
G1 X216.907 Y135.034 E2.68323
G1 X218.017 Y136.991 E2.72572
G1 X218.379 Y139.109 E2.7663
G1 X218.379 Y160.891 E3.17766
G1 X217.982 Y163.106 E3.22016
G1 X216.907 Y164.966 E3.26073
G1 X213.335 Y169.203 E3.36539
G1 X211.488 Y170.488 E3.40788
G1 X208.825 Y171.071 E3.45936
G1 X188.297 Y171.071 E3.84704
G1 X186.082 Y170.674 E3.88954
G1 X183.786 Y169.203 E3.94104
G1 X182.39 Y167.245 E3.98645
G1 X181.815 Y164.903 E4.03199
G1 X181.621 Y160.891 E4.10785
G1 X181.621 Y139.109 E4.51921
G1 X181.815 Y135.097 E4.59507
G1 X182.323 Y132.905 E4.63756
G1 X183.642 Y130.958 E4.68197
G1 E2.68197 F1800
G92 E0
G1 X190.13 Y137.411 F4200
G1 E2 F1800
G1 F720
G1 X190.428 Y137.229 E2.00659
G1 X190.995 Y137.062 E2.01775
G1 X209.018 Y137.066 E2.35812
G1 X209.393 Y137.155 E2.3654
G1 X209.908 Y137.436 E2.37648
G1 X211.311 Y138.839 E2.41395
G1 X211.537 Y139.195 E2.42191
G1 X211.703 Y139.761 E2.43305
G1 X211.703 Y160.239 E2.81979
G1 X211.537 Y160.804 E2.83091
G1 X211.392 Y161.059 E2.83645
G1 X209.863 Y162.596 E2.87739
G1 X209.572 Y162.771 E2.8838
G1 X209.005 Y162.938 E2.89496
G1 X190.995 Y162.938 E3.23509
G1 X190.431 Y162.772 E3.24619
G1 X190.175 Y162.626 E3.25176
G1 X188.639 Y161.098 E3.29268
G1 X188.463 Y160.806 E3.29912
G1 X188.297 Y160.239 E3.31028
G1 X188.297 Y139.761 E3.69702
G1 X188.463 Y139.196 E3.70814
G1 X188.608 Y138.941 E3.71368
G1 X190.087 Y137.454 E3.75329
G1 X190.352 Y137.717 F4200
G1 F720
G1 X190.566 Y137.582 E3.75807
G1 X191.025 Y137.441 E3.76714
G1 X208.996 Y137.444 E4.10653
G1 X209.239 Y137.502 E4.11125
G1 X209.661 Y137.725 E4.12026
G1 X211.029 Y139.092 E4.15678
G1 X211.184 Y139.333 E4.16219
G1 X211.325 Y139.79 E4.17122
G1 X211.325 Y160.21 E4.55686
G1 X211.183 Y160.669 E4.56593
G1 X211.079 Y160.845 E4.56979
G1 X209.644 Y162.287 E4.60821
G1 X209.434 Y162.418 E4.61288
G1 X208.975 Y162.559 E4.62195
G1 X191.025 Y162.559 E4.96094
G1 X190.566 Y162.418 E4.97001
G1 X190.389 Y162.313 E4.9739
G1 X188.947 Y160.878 E5.01232
G1 X188.817 Y160.669 E5.01697
G1 X188.675 Y160.21 E5.02604
G1 X188.675 Y139.79 E5.41168
G1 X188.817 Y139.331 E5.42075
G1 X188.921 Y139.155 E5.42461
G1 X190.31 Y137.76 E5.46179
G1 X190.575 Y138.024 F4200
G1 F720
G1 X190.711 Y137.933 E5.46488
G1 X191.057 Y137.819 E5.47176
G1 X208.975 Y137.823 E5.81015
G1 X209.09 Y137.85 E5.81238
G1 X209.416 Y138.015 E5.81928
G1 X210.748 Y139.347 E5.85486
G1 X210.833 Y139.477 E5.85779
G1 X210.946 Y139.822 E5.86465
G1 X210.946 Y160.178 E6.24908
G1 X210.832 Y160.526 E6.256
G1 X210.77 Y160.626 E6.25822
G1 X209.419 Y161.983 E6.29438
G1 X209.289 Y162.067 E6.2973
G1 X208.943 Y162.181 E6.30418
G1 X191.057 Y162.181 E6.64196
G1 X190.709 Y162.067 E6.64888
G1 X190.608 Y162.004 E6.65113
G1 X189.252 Y160.653 E6.68728
G1 X189.167 Y160.523 E6.69021
G1 X189.054 Y160.178 E6.69707
G1 X189.054 Y139.822 E7.0815
G1 X189.168 Y139.474 E7.08842
G1 X189.23 Y139.374 E7.09064
G1 X190.533 Y138.066 E7.12551
G1 X190.8 Y138.334 F4200
G1 F720
G1 X190.864 Y138.279 E7.1271
G1 X191.092 Y138.198 E7.13167
G1 X208.922 Y138.198 E7.4684
G1 X209.174 Y138.308 E7.47359
G1 X210.468 Y139.602 E7.50815
G1 X210.568 Y139.857 E7.51332
G1 X210.568 Y160.143 E7.89643
G1 X210.468 Y160.398 E7.9016
G1 X209.164 Y161.702 E7.93643
G1 X208.908 Y161.802 E7.94162
G1 X191.092 Y161.802 E8.27808
G1 X190.836 Y161.702 E8.28327
G1 X189.532 Y160.398 E8.3181
G1 X189.432 Y160.143 E8.32327
G1 X189.432 Y139.857 E8.70638
G1 X189.532 Y139.602 E8.71155
G1 X190.758 Y138.376 E8.74429
G1 X191.025 Y138.644 F4200
G1 F720
G1 X191.134 Y138.576 E8.74672
G1 X208.866 Y138.576 E9.0816
G1 X208.936 Y138.605 E9.08303
G1 X210.16 Y139.83 E9.11573
G1 X210.189 Y139.899 E9.11714
G1 X210.189 Y160.101 E9.49866
G1 X210.16 Y160.17 E9.50007
G1 X208.936 Y161.395 E9.53277
G1 X208.866 Y161.424 E9.5342
G1 X191.134 Y161.424 E9.86908
G1 X191.064 Y161.395 E9.87051
G1 X189.84 Y160.17 E9.90321
G1 X189.811 Y160.101 E9.90462
G1 X189.811 Y139.899 E10.28614
G1 X189.84 Y139.83 E10.28755
G1 X190.983 Y138.686 E10.31809
G1 E8.31809 F1800
G92 E0
G1 X208.746 Y136.73 F4200
G1 E2 F1800
;TYPE:Support material
G1 F720
G1 X208.023 Y136.566 E2.014
G1 X191.989 Y136.566 E2.31681
G1 X191.046 Y136.673 E2.33473
G1 X189.374 Y137.481 E2.3698
G1 X188.375 Y138.736 E2.40009
G1 X188.375 Y135.497 E2.46126
G1 X208.746 Y135.497 E2.84598
G1 X208.746 Y136.674 E2.86821
G1 X207.991 Y136.395 F4200
G1 F720
G1 X207.991 Y135.837 E2.87875
G1 X207.571 Y135.837 E2.88668
G1 X207.571 Y136.225 E2.89401
G1 X207.15 Y136.225 E2.90196
G1 X207.15 Y135.837 E2.90929
G1 X206.73 Y135.837 E2.91722
G1 X206.73 Y136.225 E2.92455
G1 X206.309 Y136.225 E2.9325
G1 X206.309 Y135.837 E2.93983
G1 X205.888 Y135.837 E2.94778
G1 X205.888 Y136.225 E2.95511
G1 X205.468 Y136.225 E2.96304
G1 X205.468 Y135.837 E2.97037
G1 X205.047 Y135.837 E2.97832
G1 X205.047 Y136.225 E2.98565
G1 X204.627 Y136.225 E2.99358
G1 X204.627 Y135.837 E3.00091
G1 X204.206 Y135.837 E3.00886
G1 X204.206 Y136.225 E3.01619
G1 X203.785 Y136.225 E3.02414
G1 X203.785 Y135.837 E3.03147
G1 X203.365 Y135.837 E3.0394
G1 X203.365 Y136.225 E3.04673
G1 X202.944 Y136.225 E3.05468
G1 X202.944 Y135.837 E3.06201
G1 X202.524 Y135.837 E3.06994
G1 X202.524 Y136.225 E3.07727
G1 X202.103 Y136.225 E3.08522
G1 X202.103 Y135.837 E3.09255
G1 X201.682 Y135.837 E3.1005
G1 X201.682 Y136.225 E3.10783
G1 X201.262 Y136.225 E3.11576
G1 X201.262 Y135.837 E3.12309
G1 X200.841 Y135.837 E3.13104
G1 X200.841 Y136.225 E3.13837
G1 X200.421 Y136.225 E3.1463
G1 X200.421 Y135.837 E3.15363
G1 X200 Y135.837 E3.16158
G1 X200 Y136.225 E3.16891
G1 X199.579 Y136.225 E3.17686
G1 X199.579 Y135.837 E3.18419
G1 X199.159 Y135.837 E3.19212
G1 X199.159 Y136.225 E3.19945
G1 X198.738 Y136.225 E3.2074
G1 X198.738 Y135.837 E3.21473
G1 X198.318 Y135.837 E3.22266
G1 X198.318 Y136.225 E3.22999
G1 X197.897 Y136.225 E3.23794
G1 X197.897 Y135.837 E3.24527
G1 X197.476 Y135.837 E3.25322
G1 X197.476 Y136.225 E3.26055
G1 X197.056 Y136.225 E3.26848
G1 X197.056 Y135.837 E3.27581
G1 X196.635 Y135.837 E3.28376
G1 X196.635 Y136.225 E3.29109
G1 X196.215 Y136.225 E3.29902
G1 X196.215 Y135.837 E3.30635
G1 X195.794 Y135.837 E3.3143
G1 X195.794 Y136.225 E3.32163
G1 X195.373 Y136.225 E3.32958
G1 X195.373 Y135.837 E3.33691
G1 X194.953 Y135.837 E3.34484
G1 X194.953 Y136.225 E3.35217
G1 X194.532 Y136.225 E3.36012
G1 X194.532 Y135.837 E3.36745
G1 X194.112 Y135.837 E3.37538
G1 X194.112 Y136.225 E3.38271
G1 X193.691 Y136.225 E3.39066
G1 X193.691 Y135.837 E3.39799
G1 X193.27 Y135.837 E3.40594
G1 X193.27 Y136.225 E3.41327
G1 X192.85 Y136.225 E3.4212
G1 X192.85 Y135.837 E3.42853
G1 X192.429 Y135.837 E3.43648
G1 X192.429 Y136.225 E3.44381
G1 X192.009 Y136.225 E3.45174
G1 X192.009 Y135.837 E3.45907
G1 X191.588 Y135.837 E3.46702
G1 X191.588 Y136.268 E3.47516
G1 X191.167 Y136.316 E3.48316
G1 X191.167 Y135.837 E3.49221
G1 X190.747 Y135.837 E3.50014
G1 X190.747 Y136.439 E3.51151
G1 X190.326 Y136.642 E3.52034
G1 X190.326 Y135.837 E3.53554
G1 X189.906 Y135.837 E3.54347
G1 X189.906 Y136.846 E3.56253
G1 X189.485 Y137.049 E3.57136
G1 X189.485 Y135.837 E3.59425
G1 X189.064 Y135.837 E3.6022
G1 X189.064 Y137.597 E3.63544
G1 E1.63544 F1800
G92 E0
G1 X188.716 Y161.861 F4200
G1 E2 F1800
G1 F720
G1 X190.178 Y163.024 E2.03528
G1 X191.978 Y163.434 E2.07014
G1 X208.011 Y163.434 E2.37293
G1 X208.746 Y163.351 E2.3869
G1 X208.746 Y164.503 E2.40866
G1 X188.375 Y164.503 E2.79338
G1 X188.375 Y161.157 E2.85657
G1 X188.691 Y161.809 E2.87025
G1 E.87025 F1800
G92 E0
G1 X207.991 Y164.333 F4200
G1 E2 F1800
G1 F720
G1 X207.991 Y163.775 E2.01054
G1 X207.571 Y163.775 E2.01847
G1 X207.571 Y164.163 E2.0258
G1 X207.15 Y164.163 E2.03375
G1 X207.15 Y163.775 E2.04108
G1 X206.73 Y163.775 E2.04901
G1 X206.73 Y164.163 E2.05634
G1 X206.309 Y164.163 E2.06429
G1 X206.309 Y163.775 E2.07162
G1 X205.888 Y163.775 E2.07957
G1 X205.888 Y164.163 E2.0869
G1 X205.468 Y164.163 E2.09483
G1 X205.468 Y163.775 E2.10216
G1 X205.047 Y163.775 E2.11011
G1 X205.047 Y164.163 E2.11744
G1 X204.627 Y164.163 E2.12537
G1 X204.627 Y163.775 E2.1327
G1 X204.206 Y163.775 E2.14065
G1 X204.206 Y164.163 E2.14798
G1 X203.785 Y164.163 E2.15593
G1 X203.785 Y163.775 E2.16326
G1 X203.365 Y163.775 E2.17119
G1 X203.365 Y164.163 E2.17852
G1 X202.944 Y164.163 E2.18647
G1 X202.944 Y163.775 E2.1938
G1 X202.524 Y163.775 E2.20173
G1 X202.524 Y164.163 E2.20906
G1 X202.103 Y164.163 E2.21701
G1 X202.103 Y163.775 E2.22434
G1 X201.682 Y163.775 E2.23229
G1 X201.682 Y164.163 E2.23962
G1 X201.262 Y164.163 E2.24755
G1 X201.262 Y163.775 E2.25488
G1 X200.841 Y163.775 E2.26283
G1 X200.841 Y164.163 E2.27016
G1 X200.421 Y164.163 E2.27809
G1 X200.421 Y163.775 E2.28542
G1 X200 Y163.775 E2.29337
G1 X200 Y164.163 E2.3007
G1 X199.579 Y164.163 E2.30865
G1 X199.579 Y163.775 E2.31598
G1 X199.159 Y163.775 E2.32391
G1 X199.159 Y164.163 E2.33124
G1 X198.738 Y164.163 E2.33919
G1 X198.738 Y163.775 E2.34652
G1 X198.318 Y163.775 E2.35445
G1 X198.318 Y164.163 E2.36178
G1 X197.897 Y164.163 E2.36973
G1 X197.897 Y163.775 E2.37706
G1 X197.476 Y163.775 E2.38501
G1 X197.476 Y164.163 E2.39234
G1 X197.056 Y164.163 E2.40027
G1 X197.056 Y163.775 E2.4076
G1 X196.635 Y163.775 E2.41555
G1 X196.635 Y164.163 E2.42288
G1 X196.215 Y164.163 E2.43081
G1 X196.215 Y163.775 E2.43814
G1 X195.794 Y163.775 E2.44609
G1 X195.794 Y164.163 E2.45342
G1 X195.373 Y164.163 E2.46137
G1 X195.373 Y163.775 E2.4687
G1 X194.953 Y163.775 E2.47663
G1 X194.953 Y164.163 E2.48396
G1 X194.532 Y164.163 E2.49191
G1 X194.532 Y163.775 E2.49924
G1 X194.112 Y163.775 E2.50717
G1 X194.112 Y164.163 E2.5145
G1 X193.691 Y164.163 E2.52245
G1 X193.691 Y163.775 E2.52978
G1 X193.27 Y163.775 E2.53773
G1 X193.27 Y164.163 E2.54506
G1 X192.85 Y164.163 E2.55299
G1 X192.85 Y163.775 E2.56032
G1 X192.429 Y163.775 E2.56827
G1 X192.429 Y164.163 E2.5756
G1 X192.009 Y164.163 E2.58353
G1 X192.009 Y163.775 E2.59086
G1 X191.939 Y163.775 E2.59218
G1 X191.588 Y163.695 E2.59898
G1 X191.588 Y164.163 E2.60782
G1 X191.167 Y164.163 E2.61577
G1 X191.167 Y163.599 E2.62642
G1 X190.747 Y163.503 E2.63456
G1 X190.747 Y164.163 E2.64702
G1 X190.326 Y164.163 E2.65497
G1 X190.326 Y163.408 E2.66923
G1 X190.027 Y163.339 E2.67503
G1 X189.906 Y163.243 E2.67795
G1 X189.906 Y164.163 E2.69532
G1 X189.485 Y164.163 E2.70327
G1 X189.485 Y162.908 E2.72697
G1 X189.064 Y162.574 E2.73712
G1 X189.064 Y164.333 E2.77034
G1 E.77034 F1800
G92 E0
G1 X192.2 Y159.034 F4200
G1 E2 F1800
;TYPE:External perimeter
G1 F504
G1 X192.2 Y140.966 E2.34122
G1 X207.8 Y140.966 E2.63583
G1 X207.8 Y159.034 E2.97705
G1 X192.26 Y159.034 E3.27053
G1 E1.27053 F1800
G92 E0
G1 X192.6 Y158.618 F4200
G1 X207.4 Y141.366
G1 X206.685 Y141.366
G1 X206.919 Y141.079
G1 E2 F1800
;TYPE:Solid infill
;WIDTH:0.401135
G1 F576
G1 X207.516 Y141.676 E2.01599
G1 X207.516 Y142.213 E2.02616
G1 X206.552 Y141.249 E2.05198
G1 X206.015 Y141.249 E2.06215
G1 X207.516 Y142.75 E2.10236
G1 X207.516 Y143.287 E2.11253
G1 X205.478 Y141.249 E2.16712
G1 X204.941 Y141.249 E2.17729
G1 X207.516 Y143.824 E2.24627
G1 X207.516 Y144.361 E2.25644
G1 X204.404 Y141.249 E2.3398
G1 X203.868 Y141.249 E2.34995
G1 X207.516 Y144.898 E2.44769
G1 X207.516 Y145.435 E2.45786
G1 X203.331 Y141.249 E2.56998
G1 X202.794 Y141.249 E2.58015
G1 X207.516 Y145.972 E2.70666
G1 X207.516 Y146.509 E2.71683
G1 X202.257 Y141.249 E2.85772
G1 X201.72 Y141.249 E2.86789
G1 X207.516 Y147.046 E3.02317
G1 X207.516 Y147.583 E3.03334
G1 X201.183 Y141.249 E3.203
G1 X200.646 Y141.249 E3.21317
G1 X207.516 Y148.12 E3.39722
G1 X207.516 Y148.657 E3.40739
G1 X200.109 Y141.249 E3.60582
G1 X199.572 Y141.249 E3.61599
G1 X207.516 Y149.194 E3.82881
G1 X207.516 Y149.73 E3.83896
G1 X199.035 Y141.249 E4.06615
G1 X198.498 Y141.249 E4.07632
G1 X207.516 Y150.267 E4.3179
G1 X207.516 Y150.804 E4.32807
G1 X197.961 Y141.249 E4.58403
G1 X197.424 Y141.249 E4.5942
G1 X207.516 Y151.341 E4.86455
G1 X207.516 Y151.878 E4.87472
G1 X196.887 Y141.249 E5.15945
G1 X196.35 Y141.249 E5.16962
G1 X207.516 Y152.415 E5.46874
G1 X207.516 Y152.952 E5.47891
G1 X195.813 Y141.249 E5.79241
G1 X195.276 Y141.249 E5.80258
G1 X207.516 Y153.489 E6.13047
G1 X207.516 Y154.026 E6.14064
G1 X194.74 Y141.249 E6.4829
G1 X194.203 Y141.249 E6.49307
G1 X207.516 Y154.563 E6.84971
G1 X207.516 Y155.1 E6.85988
G1 X193.666 Y141.249 E7.23091
G1 X193.129 Y141.249 E7.24108
G1 X207.516 Y155.637 E7.62649
G1 X207.516 Y156.174 E7.63666
G1 X192.592 Y141.249 E8.03646
G1 X192.484 Y141.249 E8.03851
G1 X192.484 Y141.679 E8.04666
G1 X207.516 Y156.711 E8.44934
G1 X207.516 Y157.248 E8.45951
G1 X192.484 Y142.215 E8.8622
G1 X192.484 Y142.752 E8.87237
G1 X207.516 Y157.785 E9.27506
G1 X207.516 Y158.322 E9.28523
G1 X192.484 Y143.289 E9.68792
G1 X192.484 Y143.826 E9.69809
G1 X207.408 Y158.751 E10.09789
G1 X206.871 Y158.751 E10.10806
G1 X192.484 Y144.363 E10.49347
G1 X192.484 Y144.9 E10.50364
G1 X206.334 Y158.751 E10.87467
G1 X205.797 Y158.751 E10.88484
G1 X192.484 Y145.437 E11.24148
G1 X192.484 Y145.974 E11.25165
G1 X205.26 Y158.751 E11.59391
G1 X204.723 Y158.751 E11.60408
G1 X192.484 Y146.511 E11.93195
G1 X192.484 Y147.048 E11.94212
G1 X204.187 Y158.751 E12.25562
G1 X203.65 Y158.751 E12.26579
G1 X192.484 Y147.585 E12.56491
G1 X192.484 Y148.122 E12.57508
G1 X203.113 Y158.751 E12.85981
G1 X202.576 Y158.751 E12.86998
G1 X192.484 Y148.659 E13.14033
G1 X192.484 Y149.196 E13.1505
G1 X202.039 Y158.751 E13.40646
G1 X201.502 Y158.751 E13.41663
G1 X192.484 Y149.733 E13.65821
G1 X192.484 Y150.27 E13.66838
G1 X200.965 Y158.751 E13.89557
G1 X200.428 Y158.751 E13.90574
G1 X192.484 Y150.807 E14.11854
G1 X192.484 Y151.343 E14.12869
G1 X199.891 Y158.751 E14.32712
G1 X199.354 Y158.751 E14.33729
G1 X192.484 Y151.88 E14.52134
G1 X192.484 Y152.417 E14.53151
G1 X198.817 Y158.751 E14.70117
G1 X198.28 Y158.751 E14.71134
G1 X192.484 Y152.954 E14.86662
G1 X192.484 Y153.491 E14.87679
G1 X197.743 Y158.751 E15.01768
G1 X197.206 Y158.751 E15.02785
G1 X192.484 Y154.028 E15.15436
G1 X192.484 Y154.565 E15.16453
G1 X196.669 Y158.751 E15.27665
G1 X196.132 Y158.751 E15.28682
G1 X192.484 Y155.102 E15.38456
G1 X192.484 Y155.639 E15.39473
G1 X195.595 Y158.751 E15.47808
G1 X195.059 Y158.751 E15.48823
G1 X192.484 Y156.176 E15.55721
G1 X192.484 Y156.713 E15.56738
G1 X194.522 Y158.751 E15.62197
G1 X193.985 Y158.751 E15.63214
G1 X192.484 Y157.25 E15.67235
G1 X192.484 Y157.787 E15.68252
G1 X193.448 Y158.751 E15.70834
G1 X192.911 Y158.751 E15.71851
G1 X192.314 Y158.153 E15.73452
G1 E13.73452 F1800
G92 E0
G1 X207.75 Y140.971 F4200
G1 E2 F1800
;TYPE:Ironing
;WIDTH:0.400805
;HEIGHT:0.00375
G1 F270
G1 X207.75 Y158.984 E2.01348
G1 X207.65 Y158.984 E2.01355
G1 X207.65 Y141.016 E2.027
G1 X207.55 Y141.016 E2.02707
G1 X207.55 Y158.984 E2.04052
G1 X207.45 Y158.984 E2.04059
