; generated by CreatWare 7.0.0 on 2022-06-27 at 20:28:19 UTC

; 

; external perimeters extrusion width = 0.40mm
; perimeters extrusion width = 0.40mm
; infill extrusion width = 0.40mm
; solid infill extrusion width = 0.40mm
; top infill extrusion width = 0.40mm
; support material extrusion width = 0.40mm

; external perimeters extrusion width = 0.40mm
; perimeters extrusion width = 0.40mm
; infill extrusion width = 0.40mm
; solid infill extrusion width = 0.40mm
; top infill extrusion width = 0.40mm
; support material extrusion width = 0.40mm

; external perimeters extrusion width = 0.40mm
; perimeters extrusion width = 0.40mm
; infill extrusion width = 0.40mm
; solid infill extrusion width = 0.40mm
; top infill extrusion width = 0.40mm
; support material extrusion width = 0.40mm

; external perimeters extrusion width = 0.40mm
; perimeters extrusion width = 0.40mm
; infill extrusion width = 0.40mm
; solid infill extrusion width = 0.40mm
; top infill extrusion width = 0.40mm
; support material extrusion width = 0.40mm

G21 ; set units to millimeters
G90 ; use absolute coordinates
M82 ; use absolute distances for extrusion
G92 E0
M107
M190 S45 ; set bed temperature and wait for it to be reached
M104 S210 ; set temperature
;TYPE:Custom
M109 S210 ; set temperature and wait for it to be reached
M6013 S0 ; set chamber temp

G28 X0 Y0  ;move X/Y to min endstops
G28 Z0     ;move Z to min endstops

;Add Clear Nozzle
G92 E0                   ;zero the extruded length again
G0 F4200 X0 Y0
G0 F400 X10 Z0.4         ;move a bit while down the Z
M221 T0 S300             ;set flow is 300%
G1 F200 X30 E8          ;extrude amont filament to clean the hotend
M221 T0 S100             ;reset flow is 100%
G92 E0                   ;zero the extruded length again
;Add End

G0 Z15.0 F4200 ;move the platform down 15mm

;Put printing message on LCD screen
M117 Printing...
; Filament gcode
M107
;LAYER_CHANGE
;Layer 1
;Z:0.1
;HEIGHT:0.1
;BEFORE_LAYER_CHANGE
;0.1


G1 Z.1 F4200
;AFTER_LAYER_CHANGE
;G92 E0   ;zero the extruded length again
;0.1
G1 E-2 F1800
G92 E0
G1 X188.108 Y82.129 F4200
G1 E2 F1800
;TYPE:Skirt/Brim
;WIDTH:0.4
G1 F720
G1 X189.58 Y79.834 E2.05149
G1 X191.923 Y77.491 E2.11407
G1 X193.77 Y76.205 E2.15657
G1 X196.433 Y75.622 E2.20805
G1 X203.349 Y75.651 E2.33866
G1 X212.328 Y76.503 E2.50899
G1 X214.496 Y77.107 E2.55149
G1 X216.236 Y78.342 E2.59179
G1 X218.579 Y80.686 E2.65438
G1 X219.865 Y82.532 E2.69687
G1 X220.448 Y85.18 E2.74808
G1 X220.558 Y128.463 E3.5655
G1 X220.558 Y171.777 E4.3835
G1 X220.161 Y173.992 E4.426
G1 X218.69 Y176.287 E4.47748
G1 X216.347 Y178.63 E4.54006
G1 X214.5 Y179.916 E4.58256
G1 X211.836 Y180.498 E4.63406
G1 X205.435 Y180.498 E4.75495
G1 X196.755 Y180.378 E4.91889
G1 X194.546 Y179.951 E4.96138
G1 X192.333 Y178.51 E5.01125
G1 X189.99 Y176.167 E5.07383
G1 X188.704 Y174.32 E5.11633
G1 X188.122 Y171.716 E5.16672
G1 X187.712 Y127.717 E5.9977
G1 X187.712 Y84.344 E6.81682
G1 X188.098 Y82.188 E6.85818
G1 E4.85818 F1800
G92 E0
G1 X194.553 Y84.43 F4200
G1 E2 F1800
G1 F720
G1 X194.779 Y84.074 E2.00796
G1 X196.183 Y82.671 E2.04544
G1 X196.754 Y82.37 E2.05763
G1 X197.115 Y82.297 E2.06459
G1 X202.109 Y82.301 E2.1589
G1 X202.483 Y82.391 E2.16616
G1 X202.998 Y82.672 E2.17724
G1 X204.504 Y84.177 E2.21745
G1 X205.208 Y83.489 E2.23604
G1 X205.732 Y83.222 E2.24715
G1 X206.024 Y83.156 E2.2528
G1 X211.049 Y83.149 E2.3477
G1 X211.362 Y83.207 E2.35371
G1 X211.978 Y83.524 E2.36679
G1 X213.38 Y84.926 E2.40423
G1 X213.606 Y85.282 E2.41219
G1 X213.772 Y85.848 E2.42333
G1 X213.772 Y127.858 E3.21671
G1 X213.621 Y128.365 E3.2267
G1 X213.69 Y128.492 E3.22943
G1 X213.883 Y129.114 E3.24173
G1 X213.883 Y171.125 E4.03513
G1 X213.716 Y171.691 E4.04627
G1 X213.49 Y172.047 E4.05423
G1 X212.088 Y173.449 E4.09167
G1 X211.572 Y173.73 E4.10277
G1 X211.197 Y173.82 E4.11005
G1 X205.981 Y173.79 E4.20856
G1 X205.594 Y173.651 E4.21633
G1 X205.316 Y173.481 E4.22248
G1 X204.28 Y172.457 E4.24999
G1 X203.408 Y173.329 E4.27328
G1 X202.733 Y173.664 E4.28751
G1 X202.477 Y173.703 E4.2924
G1 X197.378 Y173.684 E4.3887
G1 X196.926 Y173.536 E4.39768
G1 X196.637 Y173.362 E4.40405
G1 X195.189 Y171.927 E4.44255
G1 X194.963 Y171.571 E4.45051
G1 X194.797 Y171.005 E4.46165
G1 X194.797 Y128.995 E5.25503
G1 X195.054 Y128.197 E5.27086
G1 X194.724 Y127.86 E5.27977
G1 X194.569 Y127.607 E5.28537
G1 X194.387 Y127.005 E5.29725
G1 X194.387 Y84.996 E6.09061
G1 X194.536 Y84.488 E6.10061
G1 X194.897 Y84.599 F4200
G1 F720
G1 X195.061 Y84.328 E6.10659
G1 X196.429 Y82.96 E6.14313
G1 X196.899 Y82.721 E6.15309
G1 X197.132 Y82.676 E6.15757
G1 X202.087 Y82.68 E6.25115
G1 X202.329 Y82.737 E6.25585
G1 X202.752 Y82.96 E6.26488
G1 X204.118 Y84.327 E6.30138
G1 X204.417 Y84.803 E6.312
G1 X205.407 Y83.812 E6.33845
G1 X205.88 Y83.572 E6.34847
G1 X206.08 Y83.531 E6.35233
G1 X211.03 Y83.528 E6.44581
G1 X211.263 Y83.573 E6.45029
G1 X211.731 Y83.813 E6.46022
G1 X213.098 Y85.18 E6.49673
G1 X213.253 Y85.42 E6.50213
G1 X213.394 Y85.878 E6.51118
G1 X213.394 Y127.827 E7.3034
G1 X213.202 Y128.426 E7.31528
G1 X213.34 Y128.64 E7.32009
G1 X213.504 Y129.145 E7.33012
G1 X213.504 Y171.095 E8.12236
G1 X213.363 Y171.553 E8.13141
G1 X213.209 Y171.793 E8.1368
G1 X211.841 Y173.16 E8.17332
G1 X211.418 Y173.384 E8.18236
G1 X211.176 Y173.441 E8.18706
G1 X206.078 Y173.422 E8.28334
G1 X205.743 Y173.302 E8.29006
G1 X205.536 Y173.173 E8.29467
G1 X204.28 Y171.922 E8.32815
G1 X203.162 Y173.04 E8.35801
G1 X202.644 Y173.295 E8.36891
G1 X202.461 Y173.325 E8.37241
G1 X197.467 Y173.315 E8.46672
G1 X197.067 Y173.184 E8.47467
G1 X196.856 Y173.053 E8.47936
G1 X195.471 Y171.673 E8.51628
G1 X195.316 Y171.433 E8.52168
G1 X195.175 Y170.975 E8.53073
G1 X195.175 Y129.025 E9.32297
G1 X195.338 Y128.522 E9.33296
G1 X195.569 Y128.183 E9.34071
G1 X195.011 Y127.612 E9.35579
G1 X194.907 Y127.435 E9.35967
G1 X194.765 Y126.976 E9.36874
G1 X194.765 Y85.026 E10.16098
G1 X194.879 Y84.657 E10.16827
G1 X195.237 Y84.774 F4200
G1 F720
G1 X195.342 Y84.582 E10.1724
G1 X196.673 Y83.252 E10.20794
G1 X197.038 Y83.074 E10.21561
G1 X197.147 Y83.055 E10.2177
G1 X202.065 Y83.058 E10.31058
G1 X202.18 Y83.085 E10.31281
G1 X202.506 Y83.25 E10.31971
G1 X203.838 Y84.582 E10.35529
G1 X203.924 Y84.714 E10.35827
G1 X204.026 Y84.999 E10.36399
G1 X204.053 Y85.702 E10.37728
G1 X205.652 Y84.103 E10.41999
G1 X206.017 Y83.925 E10.42766
G1 X206.126 Y83.906 E10.42975
G1 X211.009 Y83.906 E10.52197
G1 X211.161 Y83.938 E10.5249
G1 X211.485 Y84.102 E10.53176
G1 X212.817 Y85.434 E10.56734
G1 X212.902 Y85.564 E10.57027
G1 X213.015 Y85.909 E10.57713
G1 X213.015 Y127.796 E11.36818
G1 X212.903 Y128.138 E11.37498
G1 X212.678 Y128.451 E11.38226
G1 X212.93 Y128.703 E11.38899
G1 X212.993 Y128.794 E11.39108
G1 X213.126 Y129.178 E11.39875
G1 X213.126 Y171.063 E12.18977
G1 X213.012 Y171.409 E12.19665
G1 X212.928 Y171.539 E12.19957
G1 X211.596 Y172.87 E12.23513
G1 X211.269 Y173.036 E12.24206
G1 X211.154 Y173.063 E12.24429
G1 X206.175 Y173.055 E12.33832
G1 X205.893 Y172.954 E12.34398
G1 X205.761 Y172.868 E12.34696
G1 X204.28 Y171.386 E12.38653
G1 X202.917 Y172.749 E12.42293
G1 X202.552 Y172.927 E12.4306
G1 X202.443 Y172.946 E12.43269
G1 X197.557 Y172.946 E12.52496
G1 X197.211 Y172.833 E12.53183
G1 X197.081 Y172.748 E12.53476
G1 X195.752 Y171.419 E12.57025
G1 X195.667 Y171.289 E12.57318
G1 X195.554 Y170.943 E12.58005
G1 X195.554 Y129.058 E13.37107
G1 X195.686 Y128.674 E13.37874
G1 X195.75 Y128.584 E13.38083
G1 X196.127 Y128.206 E13.39091
G1 X195.32 Y127.393 E13.41254
G1 X195.258 Y127.292 E13.41478
G1 X195.144 Y126.944 E13.4217
G1 X195.144 Y85.058 E14.21274
G1 X195.218 Y84.831 E14.21725
G1 E12.21725 F1800
G92 E0
G1 X204.123 Y127.135 F4200
G1 E2 F1800
G1 F720
G1 X204.123 Y127.798 E2.01252
G1 X204.236 Y128.162 E2.01972
G1 X203.982 Y128.315 E2.02532
G1 X203.462 Y127.795 E2.03921
G1 X204.08 Y127.177 E2.05572
G1 X204.501 Y127.177 F4200
G1 F720
G1 X204.501 Y85.945 E2.8344
G1 X204.601 Y85.689 E2.83959
G1 X205.895 Y84.395 E2.87415
G1 X206.115 Y84.291 E2.87875
G1 X210.991 Y84.285 E2.97084
G1 X211.243 Y84.395 E2.97603
G1 X212.537 Y85.689 E3.01059
G1 X212.637 Y85.945 E3.01578
G1 X212.637 Y127.761 E3.80549
G1 X212.537 Y128.016 E3.81066
G1 X212.122 Y128.431 E3.82174
G1 X212.648 Y128.956 E3.83578
G1 X212.747 Y129.212 E3.84096
G1 X212.747 Y171.028 E4.63067
G1 X212.648 Y171.283 E4.63584
G1 X211.353 Y172.578 E4.67043
G1 X211.102 Y172.688 E4.67561
G1 X206.271 Y172.688 E4.76685
G1 X206.016 Y172.588 E4.77202
G1 X204.712 Y171.283 E4.80686
G1 X204.612 Y171.028 E4.81203
G1 X204.612 Y129.212 E5.60174
G1 X204.712 Y128.956 E5.60693
G1 X205.126 Y128.542 E5.61799
G1 X204.583 Y127.989 E5.63263
G1 X204.501 Y127.761 E5.63721
G1 X204.501 Y127.237 E5.64711
G1 X204.88 Y127.237 F4200
G1 F720
G1 X204.88 Y85.987 E6.42613
G1 X204.909 Y85.917 E6.42756
G1 X206.133 Y84.692 E6.46026
G1 X206.203 Y84.663 E6.46169
G1 X210.935 Y84.663 E6.55106
G1 X211.005 Y84.692 E6.55249
G1 X212.229 Y85.917 E6.58519
G1 X212.258 Y85.987 E6.58662
G1 X212.258 Y127.719 E7.37475
G1 X212.229 Y127.788 E7.37616
G1 X211.587 Y128.431 E7.39332
G1 X212.34 Y129.184 E7.41343
G1 X212.369 Y129.254 E7.41486
G1 X212.369 Y170.986 E8.20299
G1 X212.34 Y171.056 E8.20442
G1 X211.115 Y172.28 E8.23712
G1 X211.046 Y172.309 E8.23853
G1 X206.314 Y172.309 E8.3279
G1 X206.244 Y172.28 E8.32933
G1 X205.019 Y171.056 E8.36203
G1 X204.99 Y170.986 E8.36346
G1 X204.99 Y129.254 E9.15159
G1 X205.019 Y129.184 E9.15302
G1 X205.662 Y128.542 E9.17018
G1 X204.909 Y127.788 E9.1903
G1 X204.88 Y127.719 E9.19171
G1 X204.88 Y127.297 E9.19968
G1 E7.19968 F1800
G92 E0
G1 X203.658 Y126.909 F4200
G1 E2 F1800
G1 F720
G1 X203.558 Y127.164 E2.00517
G1 X202.927 Y127.795 E2.02202
G1 X203.968 Y128.837 E2.04984
G1 X204.068 Y129.092 E2.05501
G1 X204.068 Y170.908 E2.84472
G1 X203.968 Y171.164 E2.84991
G1 X202.674 Y172.458 E2.88447
G1 X202.454 Y172.561 E2.88906
G1 X197.592 Y172.568 E2.98088
G1 X197.336 Y172.468 E2.98607
G1 X196.032 Y171.164 E3.0209
G1 X195.932 Y170.908 E3.02609
G1 X195.932 Y129.092 E3.8158
G1 X196.032 Y128.837 E3.82097
G1 X196.663 Y128.205 E3.83784
G1 X195.622 Y127.164 E3.86564
G1 X195.522 Y126.909 E3.87081
G1 X195.522 Y85.093 E4.66052
G1 X195.622 Y84.837 E4.66571
G1 X196.916 Y83.543 E4.70027
G1 X197.168 Y83.433 E4.70546
G1 X202.044 Y83.439 E4.79755
G1 X202.264 Y83.543 E4.80215
G1 X203.558 Y84.837 E4.83671
G1 X203.658 Y85.093 E4.8419
G1 X203.658 Y126.849 E5.63048
G1 X203.279 Y126.849 F4200
G1 F720
G1 X203.25 Y126.937 E5.63223
G1 X202.392 Y127.795 E5.65515
G1 X203.66 Y129.064 E5.68903
G1 X203.689 Y129.134 E5.69046
G1 X203.689 Y170.866 E6.47859
G1 X203.66 Y170.936 E6.48002
G1 X202.436 Y172.16 E6.51271
G1 X202.366 Y172.189 E6.51414
G1 X197.634 Y172.189 E6.60351
G1 X197.564 Y172.16 E6.60494
G1 X196.34 Y170.936 E6.63763
G1 X196.311 Y170.866 E6.63906
G1 X196.311 Y129.134 E7.42719
G1 X196.34 Y129.064 E7.42862
G1 X197.198 Y128.205 E7.45155
G1 X195.93 Y126.937 E7.48542
G1 X195.901 Y126.867 E7.48685
G1 X195.901 Y85.135 E8.27498
G1 X195.93 Y85.065 E8.27641
G1 X197.154 Y83.84 E8.30911
G1 X197.224 Y83.812 E8.31053
G1 X201.956 Y83.812 E8.3999
G1 X202.026 Y83.84 E8.40132
G1 X203.25 Y85.065 E8.43402
G1 X203.279 Y85.135 E8.43545
G1 X203.279 Y126.789 E9.2221
G1 E7.2221 F1800
G92 E0
G1 X200.42 Y130.314 F4200
G1 E2 F1800
;TYPE:Solid infill
;WIDTH:0.400591
G1 F288
G1 X201.016 Y130.91 E2.01594
G1 X201.016 Y131.446 E2.02608
G1 X200.054 Y130.484 E2.05181
G1 X199.518 Y130.484 E2.06195
G1 X201.016 Y131.982 E2.10202
G1 X201.016 Y132.518 E2.11216
G1 X198.984 Y130.486 E2.16652
G1 X198.984 Y131.022 E2.17666
G1 X201.016 Y133.054 E2.23102
G1 X201.016 Y133.591 E2.24118
G1 X198.984 Y131.558 E2.29555
G1 X198.984 Y132.095 E2.30571
G1 X201.016 Y134.127 E2.36007
G1 X201.016 Y134.663 E2.37021
G1 X198.984 Y132.631 E2.42457
G1 X198.984 Y133.167 E2.43471
G1 X201.016 Y135.199 E2.48907
G1 X201.016 Y135.735 E2.49921
G1 X198.984 Y133.703 E2.55357
G1 X198.984 Y134.239 E2.56371
G1 X201.016 Y136.271 E2.61807
G1 X201.016 Y136.808 E2.62823
G1 X198.984 Y134.775 E2.6826
G1 X198.984 Y135.312 E2.69276
G1 X201.016 Y137.344 E2.74712
G1 X201.016 Y137.88 E2.75726
G1 X198.984 Y135.848 E2.81162
G1 X198.984 Y136.384 E2.82176
G1 X201.016 Y138.416 E2.87612
G1 X201.016 Y138.952 E2.88626
G1 X198.984 Y136.92 E2.94062
G1 X198.984 Y137.456 E2.95076
G1 X201.016 Y139.488 E3.00512
G1 X201.016 Y140.025 E3.01528
G1 X198.984 Y137.992 E3.06965
G1 X198.984 Y138.529 E3.07981
G1 X201.016 Y140.561 E3.13417
G1 X201.016 Y141.097 E3.14431
G1 X198.984 Y139.065 E3.19867
G1 X198.984 Y139.601 E3.20881
G1 X201.016 Y141.633 E3.26317
G1 X201.016 Y142.169 E3.27331
G1 X198.984 Y140.137 E3.32767
G1 X198.984 Y140.673 E3.33781
G1 X201.016 Y142.705 E3.39217
G1 X201.016 Y143.242 E3.40233
G1 X198.984 Y141.209 E3.4567
G1 X198.984 Y141.746 E3.46686
G1 X201.016 Y143.778 E3.52122
G1 X201.016 Y144.314 E3.53136
G1 X198.984 Y142.282 E3.58572
G1 X198.984 Y142.818 E3.59586
G1 X201.016 Y144.85 E3.65022
G1 X201.016 Y145.386 E3.66036
G1 X198.984 Y143.354 E3.71472
G1 X198.984 Y143.89 E3.72486
G1 X201.016 Y145.923 E3.77923
G1 X201.016 Y146.459 E3.78937
G1 X198.984 Y144.426 E3.84374
G1 X198.984 Y144.963 E3.8539
G1 X201.016 Y146.995 E3.90826
G1 X201.016 Y147.531 E3.9184
G1 X198.984 Y145.499 E3.97276
G1 X198.984 Y146.035 E3.9829
G1 X201.016 Y148.067 E4.03726
G1 X201.016 Y148.603 E4.0474
G1 X198.984 Y146.571 E4.10176
G1 X198.984 Y147.107 E4.1119
G1 X201.016 Y149.14 E4.16627
G1 X201.016 Y149.676 E4.17641
G1 X198.984 Y147.643 E4.23078
G1 X198.984 Y148.18 E4.24094
G1 X201.016 Y150.212 E4.2953
G1 X201.016 Y150.748 E4.30544
G1 X198.984 Y148.716 E4.3598
G1 X198.984 Y149.252 E4.36994
G1 X201.016 Y151.284 E4.4243
G1 X201.016 Y151.82 E4.43444
G1 X198.984 Y149.788 E4.4888
G1 X198.984 Y150.324 E4.49894
G1 X201.016 Y152.357 E4.55331
G1 X201.016 Y152.893 E4.56345
G1 X198.984 Y150.861 E4.61781
G1 X198.984 Y151.397 E4.62795
G1 X201.016 Y153.429 E4.68231
G1 X201.016 Y153.965 E4.69245
G1 X198.984 Y151.933 E4.74681
G1 X198.984 Y152.469 E4.75695
G1 X201.016 Y154.501 E4.81131
G1 X201.016 Y155.037 E4.82145
G1 X198.984 Y153.005 E4.87581
G1 X198.984 Y153.541 E4.88595
G1 X201.016 Y155.574 E4.94032
G1 X201.016 Y156.11 E4.95046
G1 X198.984 Y154.078 E5.00482
G1 X198.984 Y154.614 E5.01496
G1 X201.016 Y156.646 E5.06932
G1 X201.016 Y157.182 E5.07946
G1 X198.984 Y155.15 E5.13382
G1 X198.984 Y155.686 E5.14396
G1 X201.016 Y157.718 E5.19832
G1 X201.016 Y158.254 E5.20846
G1 X198.984 Y156.222 E5.26282
G1 X198.984 Y156.758 E5.27296
G1 X201.016 Y158.791 E5.32733
G1 X201.016 Y159.327 E5.33747
G1 X198.984 Y157.295 E5.39183
G1 X198.984 Y157.831 E5.40197
G1 X201.016 Y159.863 E5.45633
G1 X201.016 Y160.399 E5.46647
G1 X198.984 Y158.367 E5.52083
G1 X198.984 Y158.903 E5.53097
G1 X201.016 Y160.935 E5.58533
G1 X201.016 Y161.472 E5.59549
G1 X198.984 Y159.439 E5.64986
G1 X198.984 Y159.975 E5.66
G1 X201.016 Y162.008 E5.71437
G1 X201.016 Y162.544 E5.72451
G1 X198.984 Y160.512 E5.77887
G1 X198.984 Y161.048 E5.78901
G1 X201.016 Y163.08 E5.84337
G1 X201.016 Y163.616 E5.85351
G1 X198.984 Y161.584 E5.90787
G1 X198.984 Y162.12 E5.91801
G1 X201.016 Y164.152 E5.97237
G1 X201.016 Y164.689 E5.98253
G1 X198.984 Y162.656 E6.0369
G1 X198.984 Y163.192 E6.04704
G1 X201.016 Y165.225 E6.10141
G1 X201.016 Y165.761 E6.11155
G1 X198.984 Y163.729 E6.16591
G1 X198.984 Y164.265 E6.17605
G1 X201.016 Y166.297 E6.23041
G1 X201.016 Y166.833 E6.24055
G1 X198.984 Y164.801 E6.29491
G1 X198.984 Y165.337 E6.30505
G1 X201.016 Y167.369 E6.35941
G1 X201.016 Y167.906 E6.36957
G1 X198.984 Y165.873 E6.42394
G1 X198.984 Y166.41 E6.4341
G1 X201.016 Y168.442 E6.48846
G1 X201.016 Y168.978 E6.4986
G1 X198.984 Y166.946 E6.55296
G1 X198.984 Y167.482 E6.5631
G1 X201.016 Y169.516 E6.61748
G1 X200.482 Y169.516 E6.62758
G1 X198.984 Y168.018 E6.66765
G1 X198.984 Y168.554 E6.67779
G1 X199.946 Y169.516 E6.70352
G1 X199.41 Y169.516 E6.71366
G1 X198.814 Y168.92 E6.7296
G1 E4.7296 F1800
G92 E0
G1 X198.7 Y169.8 F4200
G1 E2 F1800
;TYPE:External perimeter
;WIDTH:0.4
G1 F252
G1 X198.7 Y130.2 E2.74786
G1 X201.3 Y130.2 E2.79696
G1 X201.3 Y169.8 E3.54482
G1 X198.76 Y169.8 E3.59279
G1 E1.59279 F1800
G92 E0
G1 X209.1 Y130.433 F4200
G1 E2 F1800
;TYPE:Solid infill
;WIDTH:0.400591
G1 F288
