; generated by CreatWare 7.0.0 on 2022-06-28 at 18:23:46 UTC

; 

; external perimeters extrusion width = 0.40mm
; perimeters extrusion width = 0.40mm
; infill extrusion width = 0.40mm
; solid infill extrusion width = 0.40mm
; top infill extrusion width = 0.40mm
; support material extrusion width = 0.40mm

G21 ; set units to millimeters
G90 ; use absolute coordinates
M82 ; use absolute distances for extrusion
G92 E0
M107
M190 S45 ; set bed temperature and wait for it to be reached
M104 S210 ; set temperature
;TYPE:Custom
M109 S210 ; set temperature and wait for it to be reached
M6013 S0 ; set chamber temp

G28 X0 Y0  ;move X/Y to min endstops
G28 Z0     ;move Z to min endstops

;Add Clear Nozzle
G92 E0                   ;zero the extruded length again
G0 F4200 X0 Y0
G0 F400 X10 Z0.4         ;move a bit while down the Z
M221 T0 S300             ;set flow is 300%
G1 F200 X30 E8          ;extrude amont filament to clean the hotend
M221 T0 S100             ;reset flow is 100%
G92 E0                   ;zero the extruded length again
;Add End

G0 Z15.0 F4200 ;move the platform down 15mm

;Put printing message on LCD screen
M117 Printing...
; Filament gcode
M107
;LAYER_CHANGE
;Layer 1
;Z:0.1
;HEIGHT:0.1
;BEFORE_LAYER_CHANGE
;0.1


G1 Z.1 F4200
;AFTER_LAYER_CHANGE
;G92 E0   ;zero the extruded length again
;0.1
G1 E-2 F1800
G92 E0
G1 X180.667 Y139.678 F4200
G1 E2 F1800
;TYPE:Skirt/Brim
;WIDTH:0.4
G1 F720
G1 X184.949 Y135.136 E2.11789
G1 X187.082 Y133.294 E2.17111
G1 X189.93 Y131.93 E2.23075
G1 X190.863 Y131.744 E2.24872
G1 X192.109 Y131.621 E2.27237
G1 X207.891 Y131.621 E2.57042
G1 X210.106 Y132.018 E2.61292
G1 X211.158 Y132.521 E2.63494
G1 X213.674 Y134.021 E2.69026
G1 X215.052 Y135.129 E2.72365
G1 X219.338 Y139.682 E2.84174
G1 X220.567 Y141.567 E2.88424
G1 X221.071 Y144.054 E2.93216
G1 X221.071 Y155.811 E3.1542
G1 X220.674 Y158.026 E3.1967
G1 X219.748 Y159.7 E3.23283
G1 X215.097 Y164.824 E3.36352
G1 X213.674 Y165.979 E3.39813
G1 X211.158 Y167.479 E3.45345
G1 X209.052 Y168.272 E3.49595
G1 X207.891 Y168.379 E3.51797
G1 X192.109 Y168.379 E3.81602
G1 X190.863 Y168.256 E3.83967
G1 X189.93 Y168.07 E3.85764
G1 X187.1 Y166.721 E3.91685
G1 X184.948 Y164.871 E3.97044
G1 X180.662 Y160.318 E4.08853
G1 X179.433 Y158.433 E4.13103
G1 X178.929 Y155.946 E4.17895
G1 X178.929 Y144.054 E4.40354
G1 X179.326 Y141.839 E4.44604
G1 X180.635 Y139.729 E4.49293
G1 E2.49293 F1800
G92 E0
G1 X187.229 Y143.428 F4200
G1 E2 F1800
G1 F720
G1 X187.404 Y143.137 E2.00641
G1 X188.838 Y141.69 E2.04488
G1 X189.079 Y141.529 E2.05035
G1 X189.44 Y140.654 E2.06823
G1 X189.75 Y140.259 E2.07771
G1 X190.281 Y139.915 E2.08966
G1 X190.744 Y139.793 E2.0987
G1 X191.901 Y138.64 E2.12955
G1 X192.192 Y138.464 E2.13597
G1 X192.643 Y138.316 E2.14493
G1 X207.295 Y138.305 E2.42164
G1 X207.627 Y138.389 E2.42811
G1 X208.1 Y138.639 E2.43821
G1 X209.26 Y139.794 E2.46912
G1 X209.388 Y139.809 E2.47155
G1 X209.775 Y139.932 E2.47922
G1 X210.342 Y140.336 E2.49237
G1 X210.559 Y140.641 E2.49944
G1 X210.928 Y141.532 E2.51765
G1 X211.162 Y141.69 E2.52298
G1 X212.545 Y143.073 E2.55992
G1 X212.771 Y143.427 E2.56785
G1 X212.919 Y143.878 E2.57681
G1 X212.938 Y156.005 E2.80583
G1 X212.771 Y156.572 E2.81699
G1 X212.596 Y156.863 E2.8234
G1 X211.162 Y158.31 E2.86187
G1 X210.928 Y158.468 E2.8672
G1 X210.559 Y159.357 E2.88538
G1 X210.248 Y159.752 E2.89487
G1 X209.716 Y160.095 E2.90682
G1 X209.249 Y160.216 E2.91593
G1 X208.099 Y161.361 E2.94658
G1 X207.808 Y161.536 E2.95299
G1 X207.357 Y161.684 E2.96195
G1 X192.761 Y161.703 E3.2376
G1 X192.194 Y161.537 E3.24876
G1 X191.901 Y161.36 E3.25522
G1 X190.751 Y160.216 E3.28585
G1 X190.287 Y160.096 E3.2949
G1 X189.712 Y159.715 E3.30793
G1 X189.443 Y159.363 E3.3163
G1 X189.072 Y158.468 E3.3346
G1 X188.838 Y158.31 E3.33993
G1 X187.455 Y156.927 E3.37687
G1 X187.229 Y156.573 E3.3848
G1 X187.081 Y156.122 E3.39376
G1 X187.062 Y143.995 E3.62278
G1 X187.212 Y143.486 E3.6328
G1 X187.573 Y143.597 F4200
G1 F720
G1 X187.713 Y143.356 E3.63806
G1 X189.09 Y141.973 E3.67492
G1 X189.383 Y141.784 E3.6815
G1 X189.78 Y140.821 E3.70117
G1 X189.983 Y140.559 E3.70743
G1 X190.462 Y140.249 E3.71821
G1 X190.683 Y140.19 E3.72253
G1 X190.893 Y140.181 E3.7265
G1 X192.121 Y138.948 E3.75936
G1 X192.333 Y138.816 E3.76408
G1 X192.733 Y138.685 E3.77203
G1 X207.231 Y138.679 E4.04583
G1 X207.473 Y138.736 E4.05053
G1 X207.897 Y138.96 E4.05959
G1 X209.101 Y140.172 E4.09185
G1 X209.312 Y140.18 E4.09584
G1 X209.587 Y140.262 E4.10126
G1 X210.057 Y140.587 E4.11205
G1 X210.218 Y140.808 E4.11721
G1 X210.623 Y141.786 E4.1372
G1 X210.909 Y141.973 E4.14365
G1 X212.264 Y143.327 E4.17983
G1 X212.419 Y143.569 E4.18526
G1 X212.55 Y143.967 E4.19317
G1 X212.559 Y155.975 E4.41995
G1 X212.418 Y156.434 E4.42902
G1 X212.287 Y156.644 E4.43369
G1 X210.909 Y158.027 E4.47056
G1 X210.623 Y158.214 E4.47701
G1 X210.219 Y159.19 E4.49696
G1 X210.015 Y159.452 E4.50323
G1 X209.535 Y159.761 E4.51401
G1 X209.314 Y159.82 E4.51833
G1 X209.101 Y159.828 E4.52236
G1 X207.879 Y161.052 E4.55502
G1 X207.667 Y161.184 E4.55974
G1 X207.267 Y161.315 E4.56769
G1 X192.79 Y161.325 E4.84109
G1 X192.331 Y161.183 E4.85016
G1 X192.121 Y161.052 E4.85483
G1 X190.899 Y159.828 E4.88749
G1 X190.686 Y159.82 E4.89152
G1 X190.466 Y159.762 E4.89582
G1 X189.988 Y159.455 E4.90655
G1 X189.782 Y159.192 E4.91286
G1 X189.377 Y158.214 E4.93285
G1 X189.091 Y158.027 E4.9393
G1 X187.736 Y156.673 E4.97548
G1 X187.581 Y156.431 E4.98091
G1 X187.45 Y156.033 E4.98882
G1 X187.441 Y144.025 E5.2156
G1 X187.555 Y143.655 E5.22291
G1 X187.913 Y143.772 F4200
G1 F720
G1 X188.017 Y143.581 E5.22702
G1 X189.349 Y142.25 E5.26258
G1 X189.443 Y142.184 E5.26475
G1 X189.664 Y142.095 E5.26925
G1 X190.121 Y140.987 E5.29189
G1 X190.222 Y140.854 E5.29504
G1 X190.591 Y140.606 E5.30344
G1 X190.753 Y140.563 E5.30661
G1 X191.048 Y140.562 E5.31218
G1 X192.346 Y139.252 E5.34701
G1 X192.477 Y139.167 E5.34996
G1 X192.822 Y139.054 E5.35682
G1 X207.209 Y139.057 E5.62852
G1 X207.324 Y139.084 E5.63075
G1 X207.651 Y139.25 E5.63768
G1 X208.947 Y140.554 E5.6724
G1 X209.245 Y140.554 E5.67803
G1 X209.407 Y140.596 E5.68119
G1 X209.777 Y140.844 E5.6896
G1 X209.878 Y140.977 E5.69275
G1 X210.342 Y142.096 E5.71563
G1 X210.557 Y142.184 E5.72002
G1 X210.651 Y142.25 E5.72219
G1 X211.983 Y143.581 E5.75775
G1 X212.067 Y143.711 E5.76067
G1 X212.181 Y144.057 E5.76755
G1 X212.181 Y155.943 E5.99202
G1 X212.067 Y156.289 E5.9989
G1 X211.983 Y156.419 E6.00182
G1 X210.651 Y157.75 E6.03738
G1 X210.557 Y157.816 E6.03955
G1 X210.342 Y157.904 E6.04394
G1 X209.878 Y159.023 E6.06682
G1 X209.777 Y159.156 E6.06997
G1 X209.407 Y159.404 E6.07838
G1 X209.245 Y159.446 E6.08154
G1 X208.947 Y159.446 E6.08717
G1 X207.654 Y160.748 E6.12182
G1 X207.523 Y160.833 E6.12477
G1 X207.178 Y160.946 E6.13163
G1 X192.822 Y160.946 E6.40275
G1 X192.477 Y160.833 E6.40961
G1 X192.346 Y160.748 E6.41256
G1 X191.053 Y159.446 E6.44721
G1 X190.755 Y159.446 E6.45284
G1 X190.591 Y159.403 E6.45604
G1 X190.26 Y159.191 E6.46346
G1 X190.12 Y159.02 E6.46763
G1 X189.658 Y157.904 E6.49044
G1 X189.443 Y157.816 E6.49483
G1 X189.349 Y157.75 E6.497
G1 X188.017 Y156.419 E6.53256
G1 X187.933 Y156.289 E6.53548
G1 X187.819 Y155.943 E6.54236
G1 X187.819 Y144.057 E6.76683
G1 X187.894 Y143.829 E6.77136
G1 X188.247 Y143.955 F4200
G1 F720
G1 X188.298 Y143.836 E6.77381
G1 X189.602 Y142.532 E6.80864
G1 X189.95 Y142.395 E6.8157
G1 X190.459 Y141.16 E6.84093
G1 X190.495 Y141.117 E6.84199
G1 X190.732 Y140.958 E6.84738
G1 X190.785 Y140.941 E6.84843
G1 X191.206 Y140.94 E6.85638
G1 X192.602 Y139.532 E6.89382
G1 X192.857 Y139.432 E6.89899
G1 X207.157 Y139.432 E7.16905
G1 X207.408 Y139.542 E7.17423
G1 X208.789 Y140.932 E7.21123
G1 X209.214 Y140.932 E7.21926
G1 X209.267 Y140.948 E7.22031
G1 X209.505 Y141.107 E7.22572
G1 X209.541 Y141.151 E7.22679
G1 X210.057 Y142.396 E7.25224
G1 X210.398 Y142.532 E7.25917
G1 X211.702 Y143.836 E7.294
G1 X211.802 Y144.092 E7.29919
G1 X211.802 Y155.908 E7.52234
G1 X211.721 Y156.136 E7.52691
G1 X210.398 Y157.468 E7.56237
G1 X210.057 Y157.604 E7.5693
G1 X209.541 Y158.849 E7.59475
G1 X209.505 Y158.893 E7.59582
G1 X209.267 Y159.052 E7.60123
G1 X209.214 Y159.068 E7.60228
G1 X208.789 Y159.068 E7.61031
G1 X207.398 Y160.468 E7.64758
G1 X207.143 Y160.568 E7.65275
G1 X192.857 Y160.568 E7.92255
G1 X192.629 Y160.486 E7.92713
G1 X191.211 Y159.068 E7.965
G1 X190.786 Y159.068 E7.97303
G1 X190.733 Y159.052 E7.97408
G1 X190.495 Y158.893 E7.97949
G1 X190.459 Y158.849 E7.98056
G1 X189.943 Y157.604 E8.00601
G1 X189.602 Y157.468 E8.01294
G1 X188.298 Y156.164 E8.04777
G1 X188.198 Y155.908 E8.05296
G1 X188.198 Y144.092 E8.27611
G1 X188.226 Y144.012 E8.27771
G1 X188.576 Y144.134 F4200
G1 F720
G1 X188.605 Y144.064 E8.27914
G1 X189.83 Y142.84 E8.31184
G1 X189.899 Y142.811 E8.31325
G1 X190.188 Y142.811 E8.31871
G1 X190.777 Y141.383 E8.34788
G1 X190.872 Y141.319 E8.35004
G1 X191.523 Y141.317 E8.36233
G1 X191.61 Y141.06 E8.36745
G1 X192.83 Y139.84 E8.40003
G1 X192.899 Y139.811 E8.40144
G1 X207.101 Y139.811 E8.66965
G1 X207.17 Y139.84 E8.67106
G1 X208.391 Y141.06 E8.70366
G1 X208.479 Y141.311 E8.70868
G1 X209.128 Y141.311 E8.72094
G1 X209.224 Y141.375 E8.72312
G1 X209.819 Y142.811 E8.75248
G1 X210.101 Y142.811 E8.75781
G1 X210.17 Y142.84 E8.75922
G1 X211.395 Y144.064 E8.79192
G1 X211.424 Y144.134 E8.79335
G1 X211.424 Y155.866 E9.01491
G1 X211.395 Y155.936 E9.01634
G1 X210.17 Y157.16 E9.04904
G1 X210.101 Y157.189 E9.05045
G1 X209.819 Y157.189 E9.05578
G1 X209.224 Y158.625 E9.08514
G1 X209.128 Y158.689 E9.08732
G1 X208.479 Y158.689 E9.09958
G1 X208.391 Y158.94 E9.1046
G1 X207.17 Y160.16 E9.1372
G1 X207.101 Y160.189 E9.13861
G1 X192.899 Y160.189 E9.40682
G1 X192.83 Y160.16 E9.40823
G1 X191.609 Y158.94 E9.44083
G1 X191.521 Y158.689 E9.44585
G1 X190.872 Y158.689 E9.45811
G1 X190.776 Y158.625 E9.46029
G1 X190.181 Y157.189 E9.48965
G1 X189.899 Y157.189 E9.49498
G1 X189.83 Y157.16 E9.49639
G1 X188.605 Y155.936 E9.52909
G1 X188.576 Y155.866 E9.53052
G1 X188.576 Y144.194 E9.75095
G1 E7.75095 F1800
G92 E0
G1 X186.566 Y144.977 F4200
G1 E2 F1800
;TYPE:Support material
G1 F720
G1 X186.566 Y155.011 E2.1895
G1 X186.663 Y155.868 E2.20579
G1 X185.497 Y155.868 E2.22781
G1 X185.497 Y144.132 E2.44945
G1 X186.758 Y144.132 E2.47326
G1 X186.578 Y144.922 E2.48856
G1 X186.12 Y155.697 F4200
G1 F720
G1 X186.12 Y144.303 E2.70374
G1 E.70374 F1800
G92 E0
G1 X191.843 Y138.375 F4200
G1 E2 F1800
G1 F720
G1 X191.254 Y138.66 E2.01236
G1 X191.254 Y138.375 E2.01774
G1 X191.787 Y138.375 E2.02781
G1 E.02781 F1800
G92 E0
G1 X198.804 Y142.6 F4200
G1 X203.535 Y145.448
G1 X204.811 Y146.216
G1 E2 F1800
G1 F720
G1 X204.942 Y146.292 E2.00286
G1 X204.989 Y146.353 E2.00431
G1 X205.028 Y146.5 E2.00718
G1 X205.018 Y146.576 E2.00863
G1 X204.942 Y146.708 E2.01151
G1 X204.881 Y146.755 E2.01296
G1 X204.734 Y146.794 E2.01583
G1 X204.658 Y146.784 E2.01728
G1 X204.527 Y146.708 E2.02014
G1 X204.48 Y146.647 E2.02159
G1 X204.441 Y146.5 E2.02446
G1 X204.451 Y146.424 E2.02591
G1 X204.48 Y146.353 E2.02736
G1 X204.587 Y146.245 E2.03023
G1 X204.658 Y146.216 E2.03168
G1 X204.754 Y146.209 E2.0335
G1 E.0335 F1800
G92 E0
G1 X206.01 Y147.452 F4200
G1 X208.634 Y150.053
G1 X214.503 Y155.868
G1 E2 F1800
G1 F720
G1 X213.242 Y155.868 E2.02381
G1 X213.434 Y155.023 E2.04017
G1 X213.434 Y144.989 E2.22967
G1 X213.337 Y144.132 E2.24596
G1 X214.503 Y144.132 E2.26798
G1 X214.503 Y155.811 E2.48854
G1 X213.88 Y155.697 F4200
G1 F720
G1 X213.88 Y144.303 E2.70372
G1 E.70372 F1800
G92 E0
G1 X208.634 Y148.406 F4200
G1 X205.834 Y154.4
G1 X205.527 Y155.141
G1 X205.634 Y157.4
G1 X197.137 Y157.4
G1 X191.736 Y161.625
G1 E2 F1800
G1 F720
G1 X191.254 Y161.625 E2.0091
G1 X191.254 Y161.241 E2.01635
G1 X191.692 Y161.589 E2.02691
G1 E.02691 F1800
G92 E0
G1 X195.419 Y157.4 F4200
G1 X208.634 Y145.6
G1 X207.014 Y145.6
G1 X206.534 Y145.525
G1 X205.96 Y145.411
G1 X205.861 Y145.665
G1 E2 F1800
;TYPE:Gap fill
;WIDTH:0.117173
G1 F360
G1 X205.757 Y145.486 E2.00099
;WIDTH:0.122297
G1 X205.75 Y145.475 E2.00106
;WIDTH:0.1398
G1 X205.684 Y145.389 E2.0017
G1 E.0017 F1800
G92 E0
G1 X208.14 Y145.314 F4200
G1 E2 F1800
;TYPE:Solid infill
;WIDTH:0.407405
G1 F288
G1 X208.751 Y145.924 E2.01662
G1 X208.751 Y146.47 E2.02713
G1 X207.765 Y145.484 E2.05398
G1 X207.219 Y145.484 E2.06449
G1 X208.751 Y147.016 E2.10621
G1 X208.751 Y147.562 E2.11672
G1 X206.673 Y145.484 E2.1733
G1 X206.202 Y145.484 E2.18237
G1 X206.182 Y145.501 E2.18288
G1 X206.202 Y145.53 E2.18356
G1 X206.185 Y145.542 E2.18396
G1 X208.751 Y148.107 E2.25382
G1 X208.751 Y148.653 E2.26433
G1 X206.143 Y146.046 E2.33533
G1 X206.172 Y146.115 E2.33677
G1 X206.223 Y146.5 E2.34425
G1 X206.203 Y146.651 E2.34718
G1 X208.751 Y149.199 E2.41656
G1 X208.751 Y149.745 E2.42707
G1 X206.09 Y147.084 E2.49953
G1 X206.023 Y147.244 E2.50287
G1 X205.885 Y147.425 E2.50725
G1 X208.751 Y150.291 E2.58529
G1 X208.751 Y150.836 E2.59578
G1 X205.605 Y147.691 E2.68143
G1 X205.479 Y147.789 E2.6845
G1 X205.251 Y147.883 E2.68925
G1 X208.751 Y151.382 E2.78454
G1 X208.751 Y151.928 E2.79505
G1 X204.624 Y147.802 E2.90742
G1 E.90742 F1800
G92 E0
G1 X204.587 Y148.086 F4200
G1 X204.734 Y148.105
G1 X205.15 Y148.051
G1 X205.537 Y147.89
G1 X205.87 Y147.635
G1 X206.125 Y147.303
G1 X206.285 Y146.915
G1 X206.34 Y146.5
G1 X206.213 Y146.104
G1 X205.987 Y145.777
G1 X205.735 Y145.5
G1 X205.457 Y145.248
G1 X205.349 Y145.173
G1 X205.634 Y143.094
G1 X205.921 Y143.094
G1 E2 F1800
G1 F288
G1 X205.31 Y142.484 E2.01662
G1 X204.765 Y142.484 E2.02711
G1 X205.751 Y143.47 E2.05396
G1 X205.751 Y143.984 E2.06386
G1 X206.265 Y143.984 E2.07376
G1 X206.415 Y144.135 E2.07786
G1 X206.142 Y144.408 E2.08529
G1 X204.219 Y142.484 E2.13767
G1 X203.673 Y142.484 E2.14818
G1 X205.87 Y144.681 E2.20801
G1 X205.597 Y144.953 E2.21543
G1 X203.127 Y142.484 E2.28268
G1 X202.581 Y142.484 E2.29319
G1 X205.189 Y145.091 E2.36419
G1 X205.12 Y145.063 E2.36562
G1 X204.734 Y145.012 E2.37312
G1 X204.583 Y145.032 E2.37605
G1 X202.035 Y142.484 E2.44543
G1 X201.49 Y142.484 E2.45592
G1 X204.151 Y145.145 E2.52838
G1 X203.99 Y145.211 E2.53173
G1 X203.81 Y145.35 E2.53611
G1 X200.944 Y142.484 E2.61415
G1 X200.398 Y142.484 E2.62466
G1 X203.543 Y145.629 E2.7103
G1 X203.446 Y145.756 E2.71338
G1 X203.352 Y145.983 E2.71811
G1 X199.852 Y142.484 E2.8134
G1 X199.306 Y142.484 E2.82391
G1 X203.433 Y146.61 E2.93628
G1 E.93628 F1800
G92 E0
G1 X198.59 Y142.314 F4200
G1 E2 F1800
G1 F288
G1 X208.751 Y152.474 E2.27668
G1 X208.751 Y153.02 E2.28719
G1 X198.215 Y142.484 E2.57409
G1 X197.669 Y142.484 E2.5846
G1 X208.751 Y153.565 E2.88635
G1 X208.751 Y154.111 E2.89686
G1 X197.123 Y142.484 E3.21348
G1 X196.577 Y142.484 E3.22399
G1 X208.61 Y154.516 E3.55164
G1 X208.064 Y154.516 E3.56215
G1 X196.032 Y142.484 E3.88979
G1 X195.486 Y142.484 E3.9003
G1 X207.518 Y154.516 E4.22794
G1 X206.972 Y154.516 E4.23845
G1 X194.94 Y142.484 E4.56609
G1 X194.394 Y142.484 E4.5766
G1 X206.426 Y154.516 E4.90424
G1 X205.881 Y154.516 E4.91473
G1 X194.249 Y142.885 E5.23146
G1 X194.249 Y143.431 E5.24197
G1 X205.335 Y154.516 E5.54383
G1 X205.066 Y154.516 E5.54901
G1 X206.566 Y156.016 E5.58986
G1 X206.289 Y156.016 E5.59519
G1 X194.249 Y143.977 E5.92303
G1 X193.711 Y143.984 E5.93339
G1 X205.751 Y156.024 E6.26125
G1 X205.751 Y156.569 E6.27174
G1 X194.665 Y145.484 E6.5736
G1 X194.119 Y145.484 E6.58411
G1 X205.751 Y157.115 E6.90084
G1 X205.751 Y157.516 E6.90856
G1 X205.606 Y157.516 E6.91135
G1 X193.574 Y145.484 E7.23899
G1 X193.028 Y145.484 E7.2495
G1 X205.06 Y157.516 E7.57714
G1 X204.514 Y157.516 E7.58765
G1 X192.482 Y145.484 E7.91529
G1 X191.936 Y145.484 E7.9258
G1 X203.968 Y157.516 E8.25344
G1 X203.422 Y157.516 E8.26395
G1 X191.39 Y145.484 E8.59159
G1 X191.249 Y145.484 E8.5943
G1 X191.249 Y145.889 E8.6021
G1 X202.877 Y157.516 E8.91872
G1 X202.331 Y157.516 E8.92923
G1 X191.249 Y146.435 E9.23098
G1 X191.249 Y146.98 E9.24147
G1 X201.785 Y157.516 E9.52837
G1 X201.239 Y157.516 E9.53888
G1 X191.249 Y147.526 E9.81091
G1 X191.249 Y148.072 E9.82142
G1 X200.693 Y157.516 E10.07858
G1 X200.148 Y157.516 E10.08907
G1 X191.249 Y148.618 E10.33138
G1 X191.249 Y149.164 E10.34189
G1 X199.602 Y157.516 E10.56933
G1 X199.056 Y157.516 E10.57984
G1 X191.249 Y149.71 E10.79241
G1 X191.249 Y150.255 E10.8029
