; generated by CreatWare 7.0.0 on 2022-06-27 at 18:40:14 UTC

; 

; external perimeters extrusion width = 0.40mm
; perimeters extrusion width = 0.40mm
; infill extrusion width = 0.40mm
; solid infill extrusion width = 0.40mm
; top infill extrusion width = 0.40mm
; support material extrusion width = 0.40mm

G21 ; set units to millimeters
G90 ; use absolute coordinates
M82 ; use absolute distances for extrusion
G92 E0
M107
M190 S45 ; set bed temperature and wait for it to be reached
M104 S210 ; set temperature
;TYPE:Custom
M109 S210 ; set temperature and wait for it to be reached
M6013 S0 ; set chamber temp

G28 X0 Y0  ;move X/Y to min endstops
G28 Z0     ;move Z to min endstops

;Add Clear Nozzle
G92 E0                   ;zero the extruded length again
G0 F4200 X0 Y0
G0 F400 X10 Z0.4         ;move a bit while down the Z
M221 T0 S300             ;set flow is 300%
G1 F200 X30 E8          ;extrude amont filament to clean the hotend
M221 T0 S100             ;reset flow is 100%
G92 E0                   ;zero the extruded length again
;Add End

G0 Z15.0 F4200 ;move the platform down 15mm

;Put printing message on LCD screen
M117 Printing...
; Filament gcode
M107
;LAYER_CHANGE
;Layer 1
;Z:0.1
;HEIGHT:0.1
;BEFORE_LAYER_CHANGE
;0.1


G1 Z.1 F4200
;AFTER_LAYER_CHANGE
;G92 E0   ;zero the extruded length again
;0.1
G1 E-2 F1800
G92 E0
G1 X184.021 Y136.326 F4200
G1 E2 F1800
;TYPE:Skirt/Brim
;WIDTH:0.4
G1 F720
G1 X185.72 Y134.455 E2.04773
G1 X189.563 Y131.628 E2.13783
G1 X191.583 Y130.635 E2.18034
G1 X193.343 Y130.387 E2.21391
G1 X206.657 Y130.387 E2.46535
G1 X208.872 Y130.784 E2.50785
G1 X210.437 Y131.628 E2.54143
G1 X214.28 Y134.455 E2.63153
G1 X215.979 Y136.326 E2.67926
G1 X217.479 Y138.842 E2.73458
G1 X218.272 Y140.948 E2.77708
G1 X218.379 Y142.109 E2.7991
G1 X218.379 Y157.891 E3.09715
G1 X217.982 Y160.106 E3.13965
G1 X217.479 Y161.158 E3.16167
G1 X215.979 Y163.674 E3.21699
G1 X214.28 Y165.545 E3.26472
G1 X210.437 Y168.372 E3.35482
G1 X208.417 Y169.365 E3.39733
G1 X206.657 Y169.613 E3.4309
G1 X193.343 Y169.613 E3.68234
G1 X191.128 Y169.216 E3.72484
G1 X189.547 Y168.361 E3.75878
G1 X185.742 Y165.543 E3.8482
G1 X184.09 Y163.734 E3.89447
G1 X182.552 Y161.209 E3.95031
G1 X181.739 Y159.11 E3.99282
G1 X181.621 Y157.891 E4.01595
G1 X181.621 Y142.109 E4.314
G1 X182.018 Y139.894 E4.3565
G1 X182.521 Y138.842 E4.37852
G1 X183.991 Y136.378 E4.43271
G1 E2.43271 F1800
G92 E0
G1 X189.932 Y140.225 F4200
G1 E2 F1800
G1 F720
G1 X190.336 Y139.658 E2.01315
G1 X190.641 Y139.441 E2.02022
G1 X191.532 Y139.072 E2.03843
G1 X191.69 Y138.838 E2.04376
G1 X193.092 Y137.436 E2.0812
G1 X193.767 Y137.101 E2.09543
G1 X194.023 Y137.062 E2.10032
G1 X206.018 Y137.066 E2.32685
G1 X206.394 Y137.155 E2.33415
G1 X206.864 Y137.404 E2.34419
G1 X208.31 Y138.838 E2.38265
G1 X208.468 Y139.072 E2.38798
G1 X209.359 Y139.441 E2.40619
G1 X209.664 Y139.658 E2.41326
G1 X210.068 Y140.225 E2.42641
G1 X210.191 Y140.612 E2.43408
G1 X210.206 Y140.741 E2.43653
G1 X211.328 Y141.856 E2.4664
G1 X211.664 Y142.533 E2.48067
G1 X211.703 Y142.789 E2.48556
G1 X211.703 Y157.24 E2.75847
G1 X211.49 Y157.902 E2.7716
G1 X211.308 Y158.164 E2.77762
G1 X210.206 Y159.259 E2.80696
G1 X210.191 Y159.388 E2.80941
G1 X210.068 Y159.775 E2.81708
G1 X209.664 Y160.342 E2.83023
G1 X209.359 Y160.559 E2.8373
G1 X208.468 Y160.928 E2.85551
G1 X208.31 Y161.162 E2.86084
G1 X206.908 Y162.564 E2.89828
G1 X206.233 Y162.899 E2.91251
G1 X205.977 Y162.938 E2.9174
G1 X193.995 Y162.938 E3.14369
G1 X193.333 Y162.724 E3.15683
G1 X193.072 Y162.544 E3.16282
G1 X191.69 Y161.162 E3.19973
G1 X191.532 Y160.928 E3.20506
G1 X190.643 Y160.56 E3.22323
G1 X190.294 Y160.299 E3.23146
G1 X189.933 Y159.776 E3.24346
G1 X189.809 Y159.388 E3.25115
G1 X189.794 Y159.259 E3.2536
G1 X188.672 Y158.144 E3.28347
G1 X188.336 Y157.467 E3.29774
G1 X188.297 Y157.211 E3.30263
G1 X188.297 Y142.76 E3.57554
G1 X188.51 Y142.098 E3.58867
G1 X188.692 Y141.836 E3.59469
G1 X189.794 Y140.741 E3.62403
G1 X189.809 Y140.612 E3.62648
G1 X189.914 Y140.282 E3.63302
G1 X190.262 Y140.413 F4200
G1 F720
G1 X190.587 Y139.943 E3.64381
G1 X190.808 Y139.782 E3.64897
G1 X191.786 Y139.377 E3.66896
G1 X191.973 Y139.091 E3.67541
G1 X193.338 Y137.726 E3.71187
G1 X193.856 Y137.47 E3.72278
G1 X194.039 Y137.441 E3.72628
G1 X205.997 Y137.444 E3.95211
G1 X206.239 Y137.502 E3.95681
G1 X206.661 Y137.725 E3.96582
G1 X208.027 Y139.091 E4.0023
G1 X208.214 Y139.377 E4.00875
G1 X209.192 Y139.782 E4.02874
G1 X209.413 Y139.943 E4.0339
G1 X209.738 Y140.413 E4.04469
G1 X209.82 Y140.688 E4.05011
G1 X209.828 Y140.899 E4.0541
G1 X211.039 Y142.102 E4.08634
G1 X211.295 Y142.622 E4.09729
G1 X211.325 Y142.805 E4.10079
G1 X211.325 Y157.21 E4.37283
G1 X211.162 Y157.712 E4.3828
G1 X211.027 Y157.909 E4.38731
G1 X209.828 Y159.101 E4.41924
G1 X209.82 Y159.312 E4.42323
G1 X209.738 Y159.587 E4.42865
G1 X209.413 Y160.057 E4.43944
G1 X209.192 Y160.218 E4.4446
G1 X208.214 Y160.623 E4.46459
G1 X208.027 Y160.909 E4.47104
G1 X206.662 Y162.274 E4.5075
G1 X206.144 Y162.53 E4.51841
G1 X205.961 Y162.559 E4.52191
G1 X194.025 Y162.559 E4.74733
G1 X193.522 Y162.396 E4.75732
G1 X193.326 Y162.263 E4.76179
G1 X191.973 Y160.909 E4.79794
G1 X191.786 Y160.623 E4.80439
G1 X190.808 Y160.218 E4.82438
G1 X190.587 Y160.057 E4.82954
G1 X190.262 Y159.587 E4.84033
G1 X190.18 Y159.312 E4.84575
G1 X190.172 Y159.101 E4.84974
G1 X188.961 Y157.898 E4.88198
G1 X188.705 Y157.378 E4.89293
G1 X188.675 Y157.195 E4.89643
G1 X188.675 Y142.79 E5.16847
G1 X188.838 Y142.288 E5.17844
G1 X188.973 Y142.091 E5.18295
G1 X190.172 Y140.899 E5.21488
G1 X190.18 Y140.688 E5.21887
G1 X190.245 Y140.47 E5.22317
G1 X190.596 Y140.593 F4200
G1 F720
G1 X190.844 Y140.223 E5.23158
G1 X190.977 Y140.122 E5.23473
G1 X192.096 Y139.658 E5.25761
G1 X192.184 Y139.443 E5.262
G1 X192.25 Y139.349 E5.26417
G1 X193.583 Y138.016 E5.29977
G1 X193.948 Y137.838 E5.30744
G1 X194.057 Y137.819 E5.30953
G1 X205.975 Y137.823 E5.53461
G1 X206.09 Y137.85 E5.53684
G1 X206.416 Y138.015 E5.54374
G1 X207.75 Y139.349 E5.57937
G1 X207.816 Y139.443 E5.58154
G1 X207.904 Y139.658 E5.58593
G1 X209.023 Y140.122 E5.60881
G1 X209.156 Y140.223 E5.61196
G1 X209.404 Y140.593 E5.62037
G1 X209.446 Y140.755 E5.62353
G1 X209.446 Y141.053 E5.62916
G1 X210.749 Y142.348 E5.66385
G1 X210.927 Y142.714 E5.67154
G1 X210.946 Y142.822 E5.67361
G1 X210.946 Y157.176 E5.94469
G1 X210.814 Y157.561 E5.95238
G1 X210.75 Y157.651 E5.95447
G1 X209.446 Y158.947 E5.98919
G1 X209.446 Y159.245 E5.99482
G1 X209.404 Y159.407 E5.99798
G1 X209.156 Y159.777 E6.00639
G1 X209.023 Y159.878 E6.00954
G1 X207.904 Y160.342 E6.03242
G1 X207.816 Y160.557 E6.03681
G1 X207.75 Y160.651 E6.03898
G1 X206.417 Y161.984 E6.07458
G1 X206.052 Y162.162 E6.08225
G1 X205.943 Y162.181 E6.08434
G1 X194.058 Y162.181 E6.30879
G1 X193.674 Y162.048 E6.31646
G1 X193.584 Y161.985 E6.31853
G1 X192.25 Y160.651 E6.35416
G1 X192.184 Y160.557 E6.35633
G1 X192.096 Y160.342 E6.36072
G1 X190.977 Y159.878 E6.3836
G1 X190.844 Y159.777 E6.38675
G1 X190.596 Y159.407 E6.39516
G1 X190.554 Y159.245 E6.39832
G1 X190.554 Y158.947 E6.40395
G1 X189.251 Y157.652 E6.43864
G1 X189.073 Y157.286 E6.44633
G1 X189.054 Y157.178 E6.4484
G1 X189.054 Y142.824 E6.71948
G1 X189.186 Y142.439 E6.72717
G1 X189.25 Y142.349 E6.72926
G1 X190.554 Y141.053 E6.76398
G1 X190.554 Y140.755 E6.76961
G1 X190.581 Y140.651 E6.77164
G1 X190.94 Y140.76 F4200
G1 F720
G1 X191.107 Y140.495 E6.77756
G1 X191.151 Y140.459 E6.77863
G1 X192.396 Y139.943 E6.80408
G1 X192.532 Y139.602 E6.81101
G1 X193.826 Y138.308 E6.84557
G1 X194.078 Y138.198 E6.85076
G1 X205.922 Y138.198 E7.07444
G1 X206.174 Y138.308 E7.07963
G1 X207.468 Y139.602 E7.11419
G1 X207.604 Y139.943 E7.12112
G1 X208.849 Y140.459 E7.14657
G1 X208.893 Y140.495 E7.14764
G1 X209.052 Y140.733 E7.15305
G1 X209.068 Y140.786 E7.1541
G1 X209.068 Y141.211 E7.16213
G1 X210.458 Y142.592 E7.19913
G1 X210.568 Y142.843 E7.20431
G1 X210.568 Y157.143 E7.47437
G1 X210.468 Y157.398 E7.47954
G1 X209.068 Y158.789 E7.51681
G1 X209.068 Y159.214 E7.52484
G1 X209.052 Y159.267 E7.52589
G1 X208.893 Y159.505 E7.5313
G1 X208.849 Y159.541 E7.53237
G1 X207.604 Y160.057 E7.55782
G1 X207.468 Y160.398 E7.56475
G1 X206.174 Y161.692 E7.59931
G1 X205.922 Y161.802 E7.6045
G1 X194.092 Y161.802 E7.82791
G1 X193.836 Y161.702 E7.8331
G1 X192.532 Y160.398 E7.86793
G1 X192.396 Y160.057 E7.87486
G1 X191.151 Y159.541 E7.90031
G1 X191.107 Y159.505 E7.90138
G1 X190.948 Y159.267 E7.90679
G1 X190.932 Y159.214 E7.90784
G1 X190.932 Y158.789 E7.91587
G1 X189.542 Y157.408 E7.95287
G1 X189.432 Y157.157 E7.95805
G1 X189.432 Y142.857 E8.22811
G1 X189.532 Y142.602 E8.23328
G1 X190.932 Y141.211 E8.27055
G1 X190.932 Y140.819 E8.27795
G1 X191.311 Y140.872 F4200
G1 F720
G1 X191.375 Y140.776 E8.28013
G1 X192.811 Y140.181 E8.30949
G1 X192.811 Y139.899 E8.31482
G1 X192.84 Y139.83 E8.31623
G1 X194.064 Y138.605 E8.34893
G1 X194.134 Y138.576 E8.35036
G1 X205.866 Y138.576 E8.57192
G1 X205.936 Y138.605 E8.57335
G1 X207.16 Y139.83 E8.60605
G1 X207.189 Y139.899 E8.60746
G1 X207.189 Y140.181 E8.61279
G1 X208.625 Y140.776 E8.64215
G1 X208.689 Y140.872 E8.64433
G1 X208.689 Y141.521 E8.65659
G1 X208.94 Y141.609 E8.66161
G1 X210.16 Y142.83 E8.69421
G1 X210.189 Y142.899 E8.69562
G1 X210.189 Y157.101 E8.96383
G1 X210.16 Y157.17 E8.96524
G1 X208.94 Y158.391 E8.99784
G1 X208.689 Y158.479 E9.00286
G1 X208.689 Y159.128 E9.01512
G1 X208.625 Y159.224 E9.0173
G1 X207.189 Y159.819 E9.04666
G1 X207.189 Y160.101 E9.05199
G1 X207.16 Y160.17 E9.0534
G1 X205.936 Y161.395 E9.0861
G1 X205.866 Y161.424 E9.08753
G1 X194.134 Y161.424 E9.30909
G1 X194.064 Y161.395 E9.31052
G1 X192.84 Y160.17 E9.34322
G1 X192.811 Y160.101 E9.34463
G1 X192.811 Y159.819 E9.34996
G1 X191.375 Y159.224 E9.37932
G1 X191.311 Y159.128 E9.3815
G1 X191.311 Y158.479 E9.39376
G1 X191.06 Y158.391 E9.39878
G1 X189.84 Y157.17 E9.43138
G1 X189.811 Y157.101 E9.43279
G1 X189.811 Y142.899 E9.701
G1 X189.84 Y142.83 E9.70241
G1 X191.06 Y141.609 E9.73501
G1 X191.311 Y141.521 E9.74003
G1 X191.311 Y140.932 E9.75115
G1 E7.75115 F1800
G92 E0
G1 X203.906 Y141.079 F4200
G1 E2 F1800
;TYPE:Solid infill
;WIDTH:0.407405
G1 F288
G1 X204.516 Y141.69 E2.01662
G1 X204.516 Y142.235 E2.02711
G1 X203.53 Y141.249 E2.05396
G1 X202.984 Y141.249 E2.06447
G1 X204.516 Y142.781 E2.10619
G1 X204.516 Y143.327 E2.1167
G1 X202.438 Y141.249 E2.17328
G1 X201.893 Y141.249 E2.18377
G1 X204.686 Y144.043 E2.25984
G1 E.25984 F1800
G92 E0
G1 X204.613 Y144.22 F4200
G1 X205.133 Y144.435
G1 X206.784 Y144.333
G1 X206.906 Y144.333
G1 X206.906 Y144.079
G1 E2 F1800
G1 F288
G1 X207.516 Y144.69 E2.01662
G1 X207.516 Y145.235 E2.02711
G1 X206.53 Y144.249 E2.05396
G1 X206.016 Y144.249 E2.06386
G1 X206.016 Y143.735 E2.07376
G1 X205.865 Y143.585 E2.07786
G1 X205.592 Y143.858 E2.08529
G1 X207.516 Y145.781 E2.13767
G1 X207.516 Y146.327 E2.14818
G1 X205.319 Y144.13 E2.20801
G1 X205.047 Y144.403 E2.21543
G1 X207.516 Y146.873 E2.28268
G1 X207.516 Y147.419 E2.29319
G1 X201.347 Y141.249 E2.46119
G1 X200.801 Y141.249 E2.4717
G1 X207.516 Y147.965 E2.65457
G1 X207.516 Y148.51 E2.66506
G1 X200.255 Y141.249 E2.86278
G1 X199.709 Y141.249 E2.87329
G1 X207.516 Y149.056 E3.08588
G1 X207.516 Y149.602 E3.09639
G1 X199.164 Y141.249 E3.32383
G1 X198.618 Y141.249 E3.33434
G1 X207.516 Y150.148 E3.57665
G1 X207.516 Y150.694 E3.58716
G1 X198.072 Y141.249 E3.84434
G1 X197.526 Y141.249 E3.85485
G1 X207.516 Y151.239 E4.12688
G1 X207.516 Y151.785 E4.13739
G1 X196.98 Y141.249 E4.42429
G1 X196.435 Y141.249 E4.43478
G1 X207.516 Y152.331 E4.73653
G1 X207.516 Y152.877 E4.74704
G1 X195.889 Y141.249 E5.06366
G1 X195.484 Y141.249 E5.07146
G1 X195.484 Y141.39 E5.07417
G1 X207.516 Y153.423 E5.40182
G1 X207.516 Y153.968 E5.41231
G1 X195.484 Y141.936 E5.73995
G1 X195.484 Y142.482 E5.75046
G1 X207.516 Y154.514 E6.0781
G1 X207.516 Y155.06 E6.08861
G1 X195.484 Y143.028 E6.41625
G1 X195.484 Y143.574 E6.42676
G1 X207.516 Y155.606 E6.7544
G1 X207.516 Y155.751 E6.75719
G1 X207.115 Y155.751 E6.76491
G1 X195.484 Y144.119 E7.08164
G1 X195.484 Y144.665 E7.09215
G1 X206.569 Y155.751 E7.39401
G1 X206.023 Y155.751 E7.40452
G1 X204.985 Y154.712 E7.4328
G1 X204.937 Y155.12 E7.44071
G1 X204.911 Y155.184 E7.44204
G1 X206.186 Y156.459 E7.47676
G1 E5.47676 F1800
G92 E0
G1 X206.2 Y156.457 F4200
G1 X205.098 Y155.74
G1 X204.581 Y155.955
G1 X204.473 Y156.518
G1 X204.468 Y156.578
G1 X204.686 Y156.597
G1 E2 F1800
G1 F288
G1 X204.342 Y156.252 E2.00938
G1 X204.26 Y156.299 E2.0112
G1 X204.129 Y156.071 E2.01626
G1 X203.885 Y156.172 E2.02134
G1 X203.735 Y156.192 E2.02425
G1 X204.686 Y157.143 E2.05015
G1 E.05015 F1800
G92 E0
G1 X204.432 Y157.143 F4200
G1 X204.355 Y155.877
G1 X204.506 Y155.74
G1 X204.759 Y155.462
G1 X204.986 Y155.133
G1 X205.073 Y154.734
G1 X205.019 Y154.327
G1 X204.862 Y153.948
G1 X204.612 Y153.622
G1 X204.286 Y153.372
G1 X203.907 Y153.215
G1 X203.753 Y153.195
G1 X203.72 Y153.447
G1 E2 F1800
G1 F288
G1 X193.984 Y143.711 E2.26512
G1 X193.976 Y144.249 E2.27548
G1 X203.051 Y153.324 E2.5226
G1 X202.756 Y153.446 E2.52875
G1 X202.683 Y153.502 E2.53052
G1 X193.431 Y144.249 E2.78247
G1 X192.885 Y144.249 E2.79298
G1 X202.391 Y153.756 E3.05185
G1 X202.211 Y153.99 E3.05753
G1 X202.173 Y154.083 E3.05946
G1 X192.484 Y144.394 E3.3233
G1 X192.484 Y144.94 E3.33381
G1 X202.195 Y154.651 E3.59825
G1 E1.59825 F1800
G92 E0
G1 X201.943 Y154.618 F4200
G1 X201.927 Y154.734
G1 X201.981 Y155.142
G1 X202.138 Y155.521
G1 X202.388 Y155.847
G1 X202.714 Y156.097
G1 X203.093 Y156.254
G1 X203.5 Y156.307
G1 X203.545 Y156.297
G1 X204.432 Y157.688
G1 X204.686 Y157.688
G1 E2 F1800
G1 F288
G1 X203.178 Y156.18 E2.04106
G1 X203.115 Y156.172 E2.04228
G1 X202.756 Y156.023 E2.04976
G1 X202.448 Y155.787 E2.05723
G1 X202.211 Y155.479 E2.06471
G1 X202.063 Y155.12 E2.07219
G1 X202.054 Y155.056 E2.07343
G1 X192.484 Y145.486 E2.33403
G1 X192.484 Y146.032 E2.34454
G1 X204.516 Y158.064 E2.67218
G1 X204.516 Y158.61 E2.68269
G1 X192.484 Y146.578 E3.01033
G1 X192.484 Y147.123 E3.02082
G1 X204.111 Y158.751 E3.33744
G1 X203.565 Y158.751 E3.34795
G1 X192.484 Y147.669 E3.6497
G1 X192.484 Y148.215 E3.66021
G1 X203.02 Y158.751 E3.94711
G1 X202.474 Y158.751 E3.95762
G1 X192.484 Y148.761 E4.22965
G1 X192.484 Y149.307 E4.24016
G1 X201.928 Y158.751 E4.49732
G1 X201.382 Y158.751 E4.50783
G1 X192.484 Y149.852 E4.75014
G1 X192.484 Y150.398 E4.76065
G1 X200.836 Y158.751 E4.98809
G1 X200.29 Y158.751 E4.9986
G1 X192.484 Y150.944 E5.21117
G1 X192.484 Y151.49 E5.22168
G1 X199.745 Y158.751 E5.4194
G1 X199.199 Y158.751 E5.42991
G1 X192.484 Y152.036 E5.61276
G1 X192.484 Y152.581 E5.62325
G1 X198.653 Y158.751 E5.79125
G1 X198.107 Y158.751 E5.80176
G1 X195.484 Y156.127 E5.8732
G1 X195.484 Y156.673 E5.88371
G1 X197.561 Y158.751 E5.94028
G1 X197.016 Y158.751 E5.95077
G1 X195.484 Y157.219 E5.99249
G1 X195.484 Y157.765 E6.003
G1 X196.47 Y158.751 E6.02985
G1 X195.924 Y158.751 E6.04036
G1 X195.314 Y158.14 E6.05698
G1 E4.05698 F1800
G92 E0
G1 X195.568 Y158.14 F4200
G1 X195.568 Y155.855
G1 X195.097 Y155.66
G1 X195.074 Y155.717
G1 E2 F1800
G1 F288
G1 X192.484 Y153.127 E2.07053
G1 X192.484 Y153.673 E2.08104
G1 X194.681 Y155.87 E2.14087
G1 X194.408 Y156.143 E2.1483
G1 X192.484 Y154.219 E2.20069
G1 X192.484 Y154.765 E2.2112
G1 X193.47 Y155.751 E2.23805
G1 X193.984 Y155.751 E2.24795
G1 X193.984 Y156.265 E2.25785
G1 X194.255 Y156.536 E2.26523
G1 E.26523 F1800
G92 E0
G1 X194.227 Y156.522 F4200
G1 X193.888 Y155.846
G1 X193.216 Y155.667
G1 X193.094 Y155.667
G1 X193.094 Y155.921
G1 E2 F1800
G1 F288
G1 X192.314 Y155.14 E2.02125
G1 E.02125 F1800
G92 E0
G1 X192.568 Y155.155 F4200
G1 X204.473 Y156.518
G1 X204.581 Y155.955
G1 X204.335 Y155.861
G1 E2 F1800
;TYPE:Gap fill
;WIDTH:0.11717
G1 F360
G1 X204.514 Y155.757 E2.00099
;WIDTH:0.122294
G1 X204.525 Y155.75 E2.00106
;WIDTH:0.139798
G1 X204.611 Y155.684 E2.0017
G1 X204.8 Y155.752 F4200
;TYPE:External perimeter
;WIDTH:0.4
G1 F252
G1 X204.8 Y159.034 E2.06368
G1 X195.2 Y159.034 E2.24498
G1 X195.2 Y155.752 E2.30696
G1 X193.7 Y157.252 E2.34702
G1 X193.7 Y156.034 E2.37002
G1 X192.2 Y156.034 E2.39835
G1 X192.2 Y143.966 E2.62626
G1 X193.7 Y143.966 E2.65459
G1 X193.7 Y142.748 E2.67759
G1 X195.2 Y144.248 E2.71765
