; generated by CreatWare 7.0.0 on 2022-06-28 at 03:30:33 UTC

; 

; external perimeters extrusion width = 0.40mm
; perimeters extrusion width = 0.40mm
; infill extrusion width = 0.40mm
; solid infill extrusion width = 0.40mm
; top infill extrusion width = 0.40mm
; support material extrusion width = 0.40mm

G21 ; set units to millimeters
G90 ; use absolute coordinates
M82 ; use absolute distances for extrusion
G92 E0
M107
M190 S45 ; set bed temperature and wait for it to be reached
M104 S210 ; set temperature
;TYPE:Custom
M109 S210 ; set temperature and wait for it to be reached
M6013 S0 ; set chamber temp

G28 X0 Y0  ;move X/Y to min endstops
G28 Z0     ;move Z to min endstops

;Add Clear Nozzle
G92 E0                   ;zero the extruded length again
G0 F4200 X0 Y0
G0 F400 X10 Z0.4         ;move a bit while down the Z
M221 T0 S300             ;set flow is 300%
G1 F200 X30 E8          ;extrude amont filament to clean the hotend
M221 T0 S100             ;reset flow is 100%
G92 E0                   ;zero the extruded length again
;Add End

G0 Z15.0 F4200 ;move the platform down 15mm

;Put printing message on LCD screen
M117 Printing...
; Filament gcode
M107
;LAYER_CHANGE
;Layer 1
;Z:0.1
;HEIGHT:0.1
;BEFORE_LAYER_CHANGE
;0.1


G1 Z.1 F4200
;AFTER_LAYER_CHANGE
;G92 E0   ;zero the extruded length again
;0.1
G1 E-2 F1800
G92 E0
G1 X168.554 Y84.678 F4200
G1 E2 F1800
;TYPE:Skirt/Brim
;WIDTH:0.4
G1 F720
G1 X170.026 Y82.382 E2.05151
G1 X172.369 Y80.039 E2.11409
G1 X174.216 Y78.754 E2.15658
G1 X176.879 Y78.171 E2.20806
G1 X223.121 Y78.171 E3.08136
G1 X225.336 Y78.568 E3.12386
G1 X227.631 Y80.039 E3.17534
G1 X229.974 Y82.382 E3.23792
G1 X231.26 Y84.229 E3.28042
G1 X231.842 Y86.893 E3.33192
G1 X231.842 Y213.107 E5.71553
G1 X231.446 Y215.322 E5.75802
G1 X229.974 Y217.618 E5.80953
G1 X227.631 Y219.961 E5.87211
G1 X225.784 Y221.246 E5.9146
G1 X223.896 Y221.782 E5.95166
G1 X215.279 Y222.838 E6.11561
G1 X188.297 Y222.885 E6.62518
G1 X176.292 Y221.802 E6.85282
G1 X174.123 Y221.203 E6.89532
G1 X172.369 Y219.961 E6.93591
G1 X170.026 Y217.618 E6.99849
G1 X168.74 Y215.771 E7.04099
G1 X168.158 Y213.107 E7.09249
G1 X168.158 Y86.893 E9.4761
G1 X168.544 Y84.737 E9.51746
G1 E7.51746 F1800
G92 E0
G1 X174.907 Y87.208 F4200
G1 E2 F1800
G1 F720
G1 X175.207 Y86.641 E2.01211
G1 X176.609 Y85.239 E2.04955
G1 X176.965 Y85.013 E2.05751
G1 X177.531 Y84.846 E2.06865
G1 X222.482 Y84.85 E2.91757
G1 X222.857 Y84.939 E2.92485
G1 X223.372 Y85.22 E2.93593
G1 X224.775 Y86.623 E2.9734
G1 X225.001 Y86.979 E2.98136
G1 X225.167 Y87.545 E2.9925
G1 X225.167 Y212.429 E5.35099
G1 X225.093 Y212.792 E5.35799
G1 X224.793 Y213.359 E5.3701
G1 X223.391 Y214.761 E5.40754
G1 X223.035 Y214.987 E5.4155
G1 X222.469 Y215.154 E5.42664
G1 X177.558 Y215.154 E6.2748
G1 X177.195 Y215.08 E6.2818
G1 X176.628 Y214.78 E6.29391
G1 X175.225 Y213.377 E6.33138
G1 X174.999 Y213.021 E6.33934
G1 X174.833 Y212.455 E6.35048
G1 X174.833 Y87.571 E8.70897
G1 X174.895 Y87.267 E8.71483
G1 X175.257 Y87.355 F4200
G1 F720
G1 X175.496 Y86.887 E8.72475
G1 X176.863 Y85.52 E8.76126
G1 X177.103 Y85.366 E8.76665
G1 X177.561 Y85.224 E8.77571
G1 X222.46 Y85.228 E9.62365
G1 X222.702 Y85.285 E9.62835
G1 X223.125 Y85.509 E9.63739
G1 X224.493 Y86.876 E9.67391
G1 X224.647 Y87.117 E9.67931
G1 X224.789 Y87.574 E9.68835
G1 X224.789 Y212.412 E12.04597
G1 X224.743 Y212.645 E12.05046
G1 X224.504 Y213.113 E12.06038
G1 X223.137 Y214.48 E12.09689
G1 X222.897 Y214.634 E12.10228
G1 X222.439 Y214.776 E12.11134
G1 X177.575 Y214.776 E12.95862
G1 X177.342 Y214.73 E12.96311
G1 X176.874 Y214.49 E12.97304
G1 X175.507 Y213.124 E13.00954
G1 X175.353 Y212.883 E13.01494
G1 X175.211 Y212.426 E13.02398
G1 X175.211 Y87.588 E15.3816
G1 X175.245 Y87.414 E15.38495
G1 X175.615 Y87.491 F4200
G1 F720
G1 X175.786 Y87.133 E15.39244
G1 X177.117 Y85.801 E15.428
G1 X177.247 Y85.717 E15.43092
G1 X177.593 Y85.603 E15.4378
G1 X222.438 Y85.607 E16.28472
G1 X222.553 Y85.634 E16.28695
G1 X222.88 Y85.799 E16.29387
G1 X224.212 Y87.131 E16.32945
G1 X224.297 Y87.26 E16.33237
G1 X224.41 Y87.606 E16.33924
G1 X224.41 Y212.391 E18.69586
G1 X224.378 Y212.542 E18.69878
G1 X224.214 Y212.867 E18.70565
G1 X222.883 Y214.199 E18.74121
G1 X222.753 Y214.283 E18.74413
G1 X222.407 Y214.397 E18.75101
G1 X177.596 Y214.397 E19.59728
G1 X177.444 Y214.365 E19.60021
G1 X177.12 Y214.201 E19.60707
G1 X175.788 Y212.869 E19.64265
G1 X175.703 Y212.74 E19.64557
G1 X175.59 Y212.394 E19.65244
G1 X175.602 Y87.55 E22.01017
G1 X175.969 Y87.623 F4200
G1 F720
G1 X176.078 Y87.376 E22.01527
G1 X177.373 Y86.081 E22.04986
G1 X177.628 Y85.982 E22.05503
G1 X222.386 Y85.982 E22.9003
G1 X222.637 Y86.092 E22.90548
G1 X223.95 Y87.413 E22.94065
G1 X224.032 Y87.641 E22.94523
G1 X224.032 Y212.373 E25.30085
G1 X223.922 Y212.624 E25.30603
G1 X222.6 Y213.937 E25.34122
G1 X222.372 Y214.018 E25.34579
G1 X177.614 Y214.018 E26.19106
G1 X177.363 Y213.908 E26.19624
G1 X176.05 Y212.587 E26.23141
G1 X175.968 Y212.359 E26.23599
G1 X175.968 Y87.683 E28.59055
G1 X176.347 Y87.683 F4200
G1 F720
G1 X176.376 Y87.614 E28.59196
G1 X177.601 Y86.389 E28.62468
G1 X177.67 Y86.36 E28.62609
G1 X222.33 Y86.36 E29.46951
G1 X222.399 Y86.389 E29.47092
G1 X223.624 Y87.614 E29.50364
G1 X223.653 Y87.683 E29.50505
G1 X223.653 Y212.317 E31.85882
G1 X223.624 Y212.386 E31.86023
G1 X222.399 Y213.611 E31.89295
G1 X222.33 Y213.64 E31.89436
G1 X177.67 Y213.64 E32.73778
G1 X177.601 Y213.611 E32.73919
G1 X176.376 Y212.386 E32.77191
G1 X176.347 Y212.317 E32.77332
G1 X176.347 Y87.743 E35.12595
G1 E33.12595 F1800
G92 E0
G1 X214.503 Y216.317 F4200
G1 E2 F1800
;TYPE:Support material
G1 F720
G1 X188.375 Y216.317 E2.49344
G1 X188.375 Y215.651 E2.50602
G1 X214.503 Y215.651 E2.99946
G1 X214.503 Y216.26 E3.01096
G1 E1.01096 F1800
G92 E0
G1 X214.752 Y210.883 F4200
G1 X220.896 Y89.117
G1 X220.372 Y89.117
G1 X220.384 Y88.863
G1 E2 F1800
;TYPE:Solid infill
;WIDTH:0.400695
G1 F288
G1 X220.98 Y89.459 E2.01595
G1 X220.98 Y89.996 E2.02611
G1 X220.018 Y89.033 E2.05186
G1 X219.481 Y89.033 E2.06202
G1 X220.98 Y90.532 E2.10213
G1 X220.98 Y91.068 E2.11227
G1 X218.945 Y89.033 E2.16672
G1 X218.409 Y89.033 E2.17686
G1 X220.98 Y91.605 E2.24567
G1 X220.98 Y92.141 E2.25581
G1 X217.872 Y89.033 E2.33897
G1 X217.336 Y89.033 E2.34911
G1 X220.98 Y92.677 E2.44661
G1 X220.98 Y93.214 E2.45677
G1 X216.8 Y89.033 E2.56863
G1 X216.263 Y89.033 E2.57879
G1 X220.98 Y93.75 E2.705
G1 X220.98 Y94.286 E2.71514
G1 X215.727 Y89.033 E2.85569
G1 X215.191 Y89.033 E2.86583
G1 X220.98 Y94.822 E3.02073
G1 X220.98 Y95.359 E3.03089
G1 X214.654 Y89.033 E3.20016
G1 X214.118 Y89.033 E3.2103
G1 X220.98 Y95.895 E3.39391
G1 X220.98 Y96.431 E3.40405
G1 X213.582 Y89.033 E3.602
G1 X213.045 Y89.033 E3.61216
G1 X220.98 Y96.968 E3.82448
G1 X220.98 Y97.504 E3.83462
G1 X212.509 Y89.033 E4.06128
G1 X211.973 Y89.033 E4.07142
G1 X220.98 Y98.04 E4.31242
G1 X220.98 Y98.577 E4.32258
G1 X211.437 Y89.033 E4.57794
G1 X210.9 Y89.033 E4.5881
G1 X220.98 Y99.113 E4.85781
G1 X220.98 Y99.649 E4.86795
G1 X210.364 Y89.033 E5.152
G1 X209.828 Y89.033 E5.16214
G1 X220.98 Y100.186 E5.46055
G1 X220.98 Y100.722 E5.47069
G1 X209.291 Y89.033 E5.78345
G1 X208.755 Y89.033 E5.79359
G1 X220.98 Y101.258 E6.1207
G1 X220.98 Y101.795 E6.13086
G1 X208.219 Y89.033 E6.47232
G1 X207.682 Y89.033 E6.48248
G1 X220.98 Y102.331 E6.8383
G1 X220.98 Y102.867 E6.84844
G1 X207.146 Y89.033 E7.2186
G1 X206.61 Y89.033 E7.22874
G1 X220.98 Y103.404 E7.61325
G1 X220.98 Y103.94 E7.62339
G1 X206.073 Y89.033 E8.02226
G1 X205.537 Y89.033 E8.0324
G1 X220.98 Y104.476 E8.44561
G1 X220.98 Y105.013 E8.45577
G1 X205.001 Y89.033 E8.88333
G1 X204.464 Y89.033 E8.89349
G1 X220.98 Y105.549 E9.33541
G1 X220.98 Y106.085 E9.34555
G1 X203.928 Y89.033 E9.80181
G1 X203.392 Y89.033 E9.81195
G1 X220.98 Y106.622 E10.28257
G1 X220.98 Y107.158 E10.29271
G1 X202.855 Y89.033 E10.77768
G1 X202.319 Y89.033 E10.78782
G1 X220.98 Y107.694 E11.28713
G1 X220.98 Y108.23 E11.29727
G1 X201.783 Y89.033 E11.81093
G1 X201.246 Y89.033 E11.82109
G1 X220.98 Y108.767 E12.34911
G1 X220.98 Y109.303 E12.35925
G1 X200.71 Y89.033 E12.90162
G1 X200.174 Y89.033 E12.91176
G1 X220.98 Y109.839 E13.46847
G1 X220.98 Y110.376 E13.47863
G1 X199.638 Y89.033 E14.04969
G1 X199.101 Y89.033 E14.05985
G1 X220.98 Y110.912 E14.64527
G1 X220.98 Y111.448 E14.65541
G1 X198.565 Y89.033 E15.25517
G1 X198.029 Y89.033 E15.26531
G1 X220.98 Y111.985 E15.87943
G1 X220.98 Y112.521 E15.88957
G1 X197.492 Y89.033 E16.51804
G1 X196.956 Y89.033 E16.52818
G1 X220.98 Y113.057 E17.17099
G1 X220.98 Y113.594 E17.18115
G1 X196.42 Y89.033 E17.83832
G1 X195.883 Y89.033 E17.84848
G1 X220.98 Y114.13 E18.52
G1 X220.98 Y114.666 E18.53014
G1 X195.347 Y89.033 E19.216
G1 X194.811 Y89.033 E19.22614
G1 X220.98 Y115.203 E19.92636
G1 X220.98 Y115.739 E19.9365
G1 X194.274 Y89.033 E20.65107
G1 X193.738 Y89.033 E20.66121
G1 X220.98 Y116.275 E21.39013
G1 X220.98 Y116.812 E21.40029
G1 X193.202 Y89.033 E22.14356
G1 X192.665 Y89.033 E22.15372
G1 X220.98 Y117.348 E22.91135
G1 X220.98 Y117.884 E22.92149
G1 X192.129 Y89.033 E23.69346
G1 X191.593 Y89.033 E23.7036
G1 X220.98 Y118.421 E24.48992
G1 X220.98 Y118.957 E24.50006
G1 X191.056 Y89.033 E25.30074
G1 X190.52 Y89.033 E25.31088
G1 X220.98 Y119.493 E26.1259
G1 X220.98 Y120.029 E26.13604
G1 X189.984 Y89.033 E26.9654
G1 X189.447 Y89.033 E26.97556
G1 X220.98 Y120.566 E27.81929
G1 X220.98 Y121.102 E27.82943
G1 X188.911 Y89.033 E28.6875
G1 X188.375 Y89.033 E28.69764
G1 X220.98 Y121.638 E29.57005
G1 X220.98 Y122.175 E29.58021
G1 X187.838 Y89.033 E30.46699
G1 X187.302 Y89.033 E30.47713
G1 X220.98 Y122.711 E31.37825
G1 X220.98 Y123.247 E31.38839
G1 X186.766 Y89.033 E32.30386
G1 X186.23 Y89.033 E32.314
G1 X220.98 Y123.784 E33.24382
G1 X220.98 Y124.32 E33.25396
G1 X185.693 Y89.033 E34.19814
G1 X185.157 Y89.033 E34.20828
G1 X220.98 Y124.856 E35.1668
G1 X220.98 Y125.393 E35.17696
G1 X184.621 Y89.033 E36.14983
G1 X184.084 Y89.033 E36.15999
G1 X220.98 Y125.929 E37.14722
G1 X220.98 Y126.465 E37.15736
G1 X183.548 Y89.033 E38.15893
G1 X183.012 Y89.033 E38.16907
G1 X220.98 Y127.002 E39.185
G1 X220.98 Y127.538 E39.19514
G1 X182.475 Y89.033 E40.22542
G1 X181.939 Y89.033 E40.23556
G1 X220.98 Y128.074 E41.28018
G1 X220.98 Y128.611 E41.29034
G1 X181.403 Y89.033 E42.34932
G1 X180.866 Y89.033 E42.35948
G1 X220.98 Y129.147 E43.43281
G1 X220.98 Y129.683 E43.44295
G1 X180.33 Y89.033 E44.53063
G1 X179.794 Y89.033 E44.54077
G1 X220.98 Y130.22 E45.6428
G1 X220.98 Y130.756 E45.65294
G1 X179.257 Y89.033 E46.76933
G1 X179.02 Y89.033 E46.77381
G1 X179.02 Y89.332 E46.77947
G1 X220.98 Y131.292 E47.9022
G1 X220.98 Y131.829 E47.91236
G1 X179.02 Y89.869 E49.03509
G1 X179.02 Y90.405 E49.04523
G1 X220.98 Y132.365 E50.16796
G1 X220.98 Y132.901 E50.1781
G1 X179.02 Y90.941 E51.30083
G1 X179.02 Y91.478 E51.31099
G1 X220.98 Y133.437 E52.4337
G1 X220.98 Y133.974 E52.44386
G1 X179.02 Y92.014 E53.56659
G1 X179.02 Y92.55 E53.57673
G1 X220.98 Y134.51 E54.69946
G1 X220.98 Y135.046 E54.7096
G1 X179.02 Y93.086 E55.83233
G1 X179.02 Y93.623 E55.84249
G1 X220.98 Y135.583 E56.96522
G1 X220.98 Y136.119 E56.97536
G1 X179.02 Y94.159 E58.09809
G1 X179.02 Y94.695 E58.10823
G1 X220.98 Y136.655 E59.23096
G1 X220.98 Y137.192 E59.24112
G1 X179.02 Y95.232 E60.36385
G1 X179.02 Y95.768 E60.37399
G1 X220.98 Y137.728 E61.49672
G1 X220.98 Y138.264 E61.50686
G1 X179.02 Y96.304 E62.62959
G1 X179.02 Y96.841 E62.63975
G1 X220.98 Y138.801 E63.76248
G1 X220.98 Y139.337 E63.77262
G1 X179.02 Y97.377 E64.89535
G1 X179.02 Y97.913 E64.90549
G1 X220.98 Y139.873 E66.02822
G1 X220.98 Y140.41 E66.03838
G1 X179.02 Y98.45 E67.16111
G1 X179.02 Y98.986 E67.17125
G1 X220.98 Y140.946 E68.29398
G1 X220.98 Y141.482 E68.30412
G1 X179.02 Y99.522 E69.42685
G1 X179.02 Y100.059 E69.43701
G1 X220.98 Y142.019 E70.55974
G1 X220.98 Y142.555 E70.56988
G1 X179.02 Y100.595 E71.69261
G1 X179.02 Y101.131 E71.70275
G1 X220.98 Y143.091 E72.82548
G1 X220.98 Y143.628 E72.83564
G1 X179.02 Y101.668 E73.95837
G1 X179.02 Y102.204 E73.96851
G1 X220.98 Y144.164 E75.09124
G1 X220.98 Y144.7 E75.10138
G1 X179.02 Y102.74 E76.22411
G1 X179.02 Y103.277 E76.23427
G1 X220.98 Y145.236 E77.35698
G1 X220.98 Y145.773 E77.36714
G1 X179.02 Y103.813 E78.48987
G1 X179.02 Y104.349 E78.50001
G1 X220.98 Y146.309 E79.62274
G1 X220.98 Y146.845 E79.63288
G1 X179.02 Y104.886 E80.75559
G1 X179.02 Y105.422 E80.76573
G1 X220.98 Y147.382 E81.88846
G1 X220.98 Y147.918 E81.8986
G1 X179.02 Y105.958 E83.02133
G1 X179.02 Y106.494 E83.03147
G1 X220.98 Y148.454 E84.1542
G1 X220.98 Y148.991 E84.16436
G1 X179.02 Y107.031 E85.28709
G1 X179.02 Y107.567 E85.29723
G1 X220.98 Y149.527 E86.41996
G1 X220.98 Y150.063 E86.4301
G1 X179.02 Y108.103 E87.55283
G1 X179.02 Y108.64 E87.56299
G1 X220.98 Y150.6 E88.68572
G1 X220.98 Y151.136 E88.69586
G1 X179.02 Y109.176 E89.81859
G1 X179.02 Y109.712 E89.82873
G1 X220.98 Y151.672 E90.95146
G1 X220.98 Y152.209 E90.96162
G1 X179.02 Y110.249 E92.08435
G1 X179.02 Y110.785 E92.09449
G1 X220.98 Y152.745 E93.21722
G1 X220.98 Y153.281 E93.22736
G1 X179.02 Y111.321 E94.35009
G1 X179.02 Y111.858 E94.36025
G1 X220.98 Y153.818 E95.48298
G1 X220.98 Y154.354 E95.49312
G1 X179.02 Y112.394 E96.61585
G1 X179.02 Y112.93 E96.62599
G1 X220.98 Y154.89 E97.74872
G1 X220.98 Y155.427 E97.75888
G1 X179.02 Y113.467 E98.88161
G1 X179.02 Y114.003 E98.89175
G1 X220.98 Y155.963 E100.01448
G1 X220.98 Y156.499 E100.02462
G1 X179.02 Y114.539 E101.14735
G1 X179.02 Y115.076 E101.15751
G1 X220.98 Y157.036 E102.28024
G1 X220.98 Y157.572 E102.29038
G1 X179.02 Y115.612 E103.41311
G1 X179.02 Y116.148 E103.42325
G1 X220.98 Y158.108 E104.54598
G1 X220.98 Y158.644 E104.55612
G1 X179.02 Y116.685 E105.67883
G1 X179.02 Y117.221 E105.68897
G1 X220.98 Y159.181 E106.8117
G1 X220.98 Y159.717 E106.82184
G1 X179.02 Y117.757 E107.94457
G1 X179.02 Y118.294 E107.95473
G1 X220.98 Y160.253 E109.07744
G1 X220.98 Y160.79 E109.0876
G1 X179.02 Y118.83 E110.21033
G1 X179.02 Y119.366 E110.22047
G1 X220.98 Y161.326 E111.3432
G1 X220.98 Y161.862 E111.35334
G1 X179.02 Y119.902 E112.47607
G1 X179.02 Y120.439 E112.48623
G1 X220.98 Y162.399 E113.60896
G1 X220.98 Y162.935 E113.6191
G1 X179.02 Y120.975 E114.74183
G1 X179.02 Y121.511 E114.75197
G1 X220.98 Y163.471 E115.8747
G1 X220.98 Y164.008 E115.88486
G1 X179.02 Y122.048 E117.00759
G1 X179.02 Y122.584 E117.01773
G1 X220.98 Y164.544 E118.14046
G1 X220.98 Y165.08 E118.1506
G1 X179.02 Y123.12 E119.27333
G1 X179.02 Y123.657 E119.28349
G1 X220.98 Y165.617 E120.40622
G1 X220.98 Y166.153 E120.41636
G1 X179.02 Y124.193 E121.53909
G1 X179.02 Y124.729 E121.54923
G1 X220.98 Y166.689 E122.67196
G1 X220.98 Y167.226 E122.68212
G1 X179.02 Y125.266 E123.80485
G1 X179.02 Y125.802 E123.81499
G1 X220.98 Y167.762 E124.93772
G1 X220.98 Y168.298 E124.94786
G1 X179.02 Y126.338 E126.07059
G1 X179.02 Y126.875 E126.08075
G1 X220.98 Y168.835 E127.20348
G1 X220.98 Y169.371 E127.21362
G1 X179.02 Y127.411 E128.33635
G1 X179.02 Y127.947 E128.34649
G1 X220.98 Y169.907 E129.46922
G1 X220.98 Y170.443 E129.47936
G1 X179.02 Y128.484 E130.60207
G1 X179.02 Y129.02 E130.61221
G1 X220.98 Y170.98 E131.73494
G1 X220.98 Y171.516 E131.74508
G1 X179.02 Y129.556 E132.86781
G1 X179.02 Y130.093 E132.87797
G1 X220.98 Y172.052 E134.00068
G1 X220.98 Y172.589 E134.01084
G1 X179.02 Y130.629 E135.13357
G1 X179.02 Y131.165 E135.14371
G1 X220.98 Y173.125 E136.26644
G1 X220.98 Y173.661 E136.27658
G1 X179.02 Y131.701 E137.39931
G1 X179.02 Y132.238 E137.40947
G1 X220.98 Y174.198 E138.5322
G1 X220.98 Y174.734 E138.54234
G1 X179.02 Y132.774 E139.66507
G1 X179.02 Y133.31 E139.67521
G1 X220.98 Y175.27 E140.79794
G1 X220.98 Y175.807 E140.8081
G1 X179.02 Y133.847 E141.93083
G1 X179.02 Y134.383 E141.94097
G1 X220.98 Y176.343 E143.0637
G1 X220.98 Y176.879 E143.07384
G1 X179.02 Y134.919 E144.19657
G1 X179.02 Y135.456 E144.20673
G1 X220.98 Y177.416 E145.32946
G1 X220.98 Y177.952 E145.3396
G1 X179.02 Y135.992 E146.46233
G1 X179.02 Y136.528 E146.47247
G1 X220.98 Y178.488 E147.5952
G1 X220.98 Y179.025 E147.60536
G1 X179.02 Y137.065 E148.72809
G1 X179.02 Y137.601 E148.73823
G1 X220.98 Y179.561 E149.86096
G1 X220.98 Y180.097 E149.8711
G1 X179.02 Y138.137 E150.99383
G1 X179.02 Y138.674 E151.00399
