; generated by CreatWare 7.0.0 on 2022-06-26 at 22:05:58 UTC

; 

; external perimeters extrusion width = 0.40mm
; perimeters extrusion width = 0.40mm
; infill extrusion width = 0.40mm
; solid infill extrusion width = 0.40mm
; top infill extrusion width = 0.40mm
; support material extrusion width = 0.40mm

; external perimeters extrusion width = 0.40mm
; perimeters extrusion width = 0.40mm
; infill extrusion width = 0.40mm
; solid infill extrusion width = 0.40mm
; top infill extrusion width = 0.40mm
; support material extrusion width = 0.40mm

G21 ; set units to millimeters
G90 ; use absolute coordinates
M82 ; use absolute distances for extrusion
G92 E0
M107
M190 S45 ; set bed temperature and wait for it to be reached
M104 S210 ; set temperature
;TYPE:Custom
M109 S210 ; set temperature and wait for it to be reached
M6013 S0 ; set chamber temp

G28 X0 Y0  ;move X/Y to min endstops
G28 Z0     ;move Z to min endstops

;Add Clear Nozzle
G92 E0                   ;zero the extruded length again
G0 F4200 X0 Y0
G0 F400 X10 Z0.4         ;move a bit while down the Z
M221 T0 S300             ;set flow is 300%
G1 F200 X30 E8          ;extrude amont filament to clean the hotend
M221 T0 S100             ;reset flow is 100%
G92 E0                   ;zero the extruded length again
;Add End

G0 Z15.0 F4200 ;move the platform down 15mm

;Put printing message on LCD screen
M117 Printing...
; Filament gcode
M107
;LAYER_CHANGE
;Layer 1
;Z:0.1
;HEIGHT:0.1
;BEFORE_LAYER_CHANGE
;0.1


G1 Z.1 F4200
;AFTER_LAYER_CHANGE
;G92 E0   ;zero the extruded length again
;0.1
G1 E-2 F1800
G92 E0
G1 X189.99 Y123.833 F4200
G1 E2 F1800
;TYPE:Skirt/Brim
;WIDTH:0.4
G1 F720
G1 X192.333 Y121.49 E2.06258
G1 X194.18 Y120.204 E2.10508
G1 X196.843 Y119.621 E2.15656
G1 X203.157 Y119.621 E2.2758
G1 X205.372 Y120.018 E2.3183
G1 X207.667 Y121.49 E2.36979
G1 X210.568 Y124.471 E2.44835
G1 X223.858 Y141.864 E2.86174
G1 X224.887 Y143.865 E2.90423
G1 X225.168 Y145.736 E2.93996
G1 X225.168 Y153.066 E3.07839
G1 X224.771 Y155.281 E3.12089
G1 X223.978 Y156.775 E3.15283
G1 X210.689 Y175.366 E3.5844
G1 X210.01 Y176.167 E3.60423
G1 X207.667 Y178.51 E3.66681
G1 X205.82 Y179.796 E3.70931
G1 X203.157 Y180.379 E3.76079
G1 X196.843 Y180.379 E3.88003
G1 X194.628 Y179.982 E3.92253
G1 X192.333 Y178.51 E3.97402
G1 X189.99 Y176.167 E4.0366
G1 X188.704 Y174.32 E4.0791
G1 X188.121 Y171.657 E4.13058
G1 X188.121 Y128.343 E4.94858
G1 X188.518 Y126.128 E4.99108
G1 X189.957 Y123.883 E5.04144
G1 E3.04144 F1800
G92 E0
G1 X209.881 Y145.08 F4200
G1 E2 F1800
G1 F720
G1 X210.399 Y144.798 E2.01114
G1 X210.811 Y144.706 E2.01911
G1 X213.264 Y144.706 E2.06544
G1 X213.426 Y144.576 E2.06936
G1 X213.768 Y144.423 E2.07644
G1 X214.208 Y144.336 E2.08491
G1 X214.58 Y144.347 E2.09194
G1 X217.649 Y145.585 E2.15444
G1 X218.086 Y145.947 E2.16516
G1 X218.388 Y146.433 E2.17597
G1 X218.493 Y146.85 E2.18409
G1 X218.493 Y152.414 E2.28917
G1 X218.326 Y152.98 E2.30031
G1 X218.1 Y153.336 E2.30827
G1 X216.697 Y154.739 E2.34574
G1 X216.022 Y155.073 E2.35996
G1 X215.766 Y155.113 E2.36485
G1 X210.785 Y155.113 E2.45892
G1 X210.219 Y154.946 E2.47006
G1 X209.863 Y154.72 E2.47802
G1 X208.46 Y153.317 E2.51549
G1 X208.125 Y152.642 E2.52972
G1 X208.086 Y152.386 E2.53461
G1 X208.086 Y147.404 E2.6287
G1 X208.253 Y146.839 E2.63983
G1 X208.479 Y146.482 E2.64781
G1 X209.839 Y145.122 E2.68413
G1 X210.106 Y145.39 F4200
G1 F720
G1 X210.551 Y145.145 E2.69372
G1 X210.831 Y145.084 E2.69913
G1 X213.411 Y145.084 E2.74785
G1 X213.615 Y144.906 E2.75296
G1 X213.865 Y144.79 E2.75816
G1 X214.258 Y144.711 E2.76573
G1 X214.53 Y144.723 E2.77087
G1 X217.48 Y145.925 E2.83103
G1 X217.781 Y146.173 E2.8384
G1 X218.05 Y146.607 E2.84804
G1 X218.114 Y146.872 E2.85319
G1 X218.114 Y152.384 E2.95729
G1 X217.973 Y152.842 E2.96634
G1 X217.818 Y153.082 E2.97174
G1 X216.452 Y154.449 E3.00824
G1 X215.933 Y154.704 E3.01916
G1 X215.75 Y154.734 E3.02266
G1 X210.814 Y154.734 E3.11588
G1 X210.357 Y154.593 E3.12491
G1 X210.116 Y154.438 E3.13032
G1 X208.75 Y153.072 E3.1668
G1 X208.494 Y152.553 E3.17773
G1 X208.465 Y152.37 E3.18123
G1 X208.465 Y147.434 E3.27445
G1 X208.606 Y146.976 E3.2835
G1 X208.76 Y146.736 E3.28889
G1 X210.064 Y145.432 E3.32372
G1 X210.332 Y145.7 F4200
G1 F720
G1 X210.373 Y145.659 E3.32482
G1 X210.698 Y145.495 E3.33169
G1 X210.849 Y145.463 E3.33461
G1 X213.566 Y145.463 E3.38592
G1 X213.812 Y145.231 E3.39231
G1 X213.965 Y145.156 E3.39553
G1 X214.307 Y145.088 E3.40212
G1 X214.474 Y145.098 E3.40528
G1 X217.31 Y146.264 E3.46319
G1 X217.48 Y146.404 E3.46735
G1 X217.693 Y146.735 E3.47478
G1 X217.736 Y146.898 E3.47796
G1 X217.736 Y152.353 E3.58098
G1 X217.622 Y152.698 E3.58784
G1 X217.537 Y152.828 E3.59077
G1 X216.207 Y154.159 E3.62631
G1 X215.841 Y154.337 E3.634
G1 X215.733 Y154.356 E3.63607
G1 X210.846 Y154.356 E3.72836
G1 X210.5 Y154.242 E3.73524
G1 X210.371 Y154.157 E3.73816
G1 X209.04 Y152.827 E3.7737
G1 X208.862 Y152.461 E3.78139
G1 X208.843 Y152.352 E3.78348
G1 X208.843 Y147.466 E3.87575
G1 X208.957 Y147.12 E3.88263
G1 X209.041 Y146.99 E3.88555
G1 X210.289 Y145.743 E3.91887
G1 X210.557 Y146.01 F4200
G1 F720
G1 X210.616 Y145.951 E3.92045
G1 X210.867 Y145.841 E3.92563
G1 X213.726 Y145.841 E3.97962
G1 X214.02 Y145.547 E3.98747
G1 X214.069 Y145.521 E3.98852
G1 X214.35 Y145.465 E3.99393
G1 X214.405 Y145.471 E3.99497
G1 X217.139 Y146.603 E4.05085
G1 X217.182 Y146.639 E4.05191
G1 X217.341 Y146.876 E4.0573
G1 X217.357 Y146.93 E4.05836
G1 X217.357 Y152.317 E4.1601
G1 X217.257 Y152.573 E4.16529
G1 X215.963 Y153.867 E4.19985
G1 X215.712 Y153.977 E4.20503
G1 X210.881 Y153.977 E4.29627
G1 X210.626 Y153.877 E4.30144
G1 X209.332 Y152.583 E4.336
G1 X209.222 Y152.332 E4.34118
G1 X209.222 Y147.501 E4.43242
G1 X209.321 Y147.246 E4.43759
G1 X210.515 Y146.053 E4.46947
G1 X210.782 Y146.32 F4200
G1 F720
G1 X210.854 Y146.249 E4.47138
G1 X210.923 Y146.22 E4.47279
G1 X213.883 Y146.22 E4.52869
G1 X214.227 Y145.876 E4.53788
G1 X214.34 Y145.853 E4.54006
G1 X216.915 Y146.92 E4.5927
G1 X216.979 Y147.015 E4.59486
G1 X216.979 Y152.275 E4.6942
G1 X216.95 Y152.345 E4.69563
G1 X215.725 Y153.57 E4.72835
G1 X215.655 Y153.598 E4.72977
G1 X210.923 Y153.598 E4.81914
G1 X210.854 Y153.57 E4.82055
G1 X209.629 Y152.345 E4.85327
G1 X209.6 Y152.275 E4.8547
G1 X209.6 Y147.543 E4.94407
G1 X209.629 Y147.474 E4.94548
G1 X210.74 Y146.363 E4.97515
G1 E2.97515 F1800
G92 E0
G1 X205.203 Y146.363 F4200
G1 E2 F1800
G1 F720
G1 X205.203 Y171.005 E2.46537
G1 X205.037 Y171.571 E2.47651
G1 X204.811 Y171.927 E2.48447
G1 X203.407 Y173.33 E2.52195
G1 X202.837 Y173.631 E2.53412
G1 X202.475 Y173.703 E2.54109
G1 X197.495 Y173.703 E2.63514
G1 X196.929 Y173.537 E2.64628
G1 X196.573 Y173.311 E2.65424
G1 X195.139 Y171.863 E2.69273
G1 X194.963 Y171.572 E2.69915
G1 X194.797 Y171.005 E2.71031
G1 X194.797 Y128.995 E3.50369
G1 X194.963 Y128.429 E3.51483
G1 X195.189 Y128.073 E3.52279
G1 X196.593 Y126.67 E3.56027
G1 X197.163 Y126.369 E3.57244
G1 X197.525 Y126.297 E3.57941
G1 X202.519 Y126.3 E3.67372
G1 X202.893 Y126.39 E3.68098
G1 X203.408 Y126.671 E3.69206
G1 X204.811 Y128.073 E3.72952
G1 X205.037 Y128.429 E3.73748
G1 X205.203 Y128.995 E3.74862
G1 X205.203 Y146.303 E4.07549
G1 X204.825 Y146.303 F4200
G1 F720
G1 X204.825 Y170.975 E4.54143
G1 X204.684 Y171.433 E4.55048
G1 X204.529 Y171.673 E4.55588
G1 X203.162 Y173.041 E4.5924
G1 X202.691 Y173.28 E4.60237
G1 X202.458 Y173.325 E4.60685
G1 X197.525 Y173.325 E4.70001
G1 X197.067 Y173.184 E4.70906
G1 X196.827 Y173.029 E4.71446
G1 X195.447 Y171.644 E4.75138
G1 X195.317 Y171.434 E4.75604
G1 X195.175 Y170.975 E4.76511
G1 X195.175 Y129.025 E5.55735
G1 X195.316 Y128.567 E5.5664
G1 X195.471 Y128.327 E5.5718
G1 X196.838 Y126.959 E5.60832
G1 X197.309 Y126.72 E5.61829
G1 X197.542 Y126.675 E5.62277
G1 X202.497 Y126.679 E5.71635
G1 X202.739 Y126.736 E5.72105
G1 X203.161 Y126.959 E5.73006
G1 X204.529 Y128.327 E5.7666
G1 X204.684 Y128.567 E5.772
G1 X204.825 Y129.025 E5.78105
G1 X204.825 Y146.243 E6.10622
G1 X204.446 Y146.243 F4200
G1 F720
G1 X204.446 Y170.943 E6.57269
G1 X204.333 Y171.289 E6.57956
G1 X204.248 Y171.419 E6.58249
G1 X202.917 Y172.749 E6.61803
G1 X202.552 Y172.927 E6.6257
G1 X202.443 Y172.946 E6.62779
G1 X197.557 Y172.946 E6.72006
G1 X197.211 Y172.833 E6.72693
G1 X197.081 Y172.748 E6.72986
G1 X195.752 Y171.419 E6.76535
G1 X195.667 Y171.289 E6.76828
G1 X195.554 Y170.943 E6.77515
G1 X195.554 Y129.057 E7.56619
G1 X195.667 Y128.711 E7.57306
G1 X195.752 Y128.581 E7.57599
G1 X197.083 Y127.251 E7.61153
G1 X197.448 Y127.073 E7.6192
G1 X197.557 Y127.054 E7.62129
G1 X202.475 Y127.057 E7.71417
G1 X202.59 Y127.084 E7.7164
G1 X202.916 Y127.25 E7.72331
G1 X204.248 Y128.581 E7.75887
G1 X204.333 Y128.711 E7.7618
G1 X204.446 Y129.057 E7.76867
G1 X204.446 Y146.183 E8.0921
G1 X204.068 Y146.183 F4200
G1 F720
G1 X204.068 Y170.908 E8.55904
G1 X203.968 Y171.164 E8.56423
G1 X202.674 Y172.458 E8.59879
G1 X202.454 Y172.561 E8.60338
G1 X197.592 Y172.568 E8.6952
G1 X197.336 Y172.468 E8.70039
G1 X196.032 Y171.164 E8.73522
G1 X195.932 Y170.908 E8.74041
G1 X195.932 Y129.092 E9.53012
G1 X196.032 Y128.837 E9.53529
G1 X197.326 Y127.542 E9.56986
G1 X197.546 Y127.439 E9.57445
G1 X202.454 Y127.439 E9.66714
G1 X202.674 Y127.542 E9.67173
G1 X203.968 Y128.837 E9.7063
G1 X204.068 Y129.092 E9.71147
G1 X204.068 Y146.123 E10.03311
G1 X203.689 Y146.123 F4200
G1 F720
G1 X203.689 Y170.866 E10.50039
G1 X203.66 Y170.936 E10.50182
G1 X202.436 Y172.16 E10.53451
G1 X202.366 Y172.189 E10.53594
G1 X197.634 Y172.189 E10.62531
G1 X197.564 Y172.16 E10.62674
G1 X196.34 Y170.936 E10.65943
G1 X196.311 Y170.866 E10.66086
G1 X196.311 Y129.134 E11.44899
G1 X196.34 Y129.064 E11.45042
G1 X197.564 Y127.84 E11.48311
G1 X197.634 Y127.811 E11.48454
G1 X202.366 Y127.811 E11.57391
G1 X202.436 Y127.84 E11.57534
G1 X203.66 Y129.064 E11.60803
G1 X203.689 Y129.134 E11.60946
G1 X203.689 Y146.063 E11.92917
G1 E9.92917 F1800
G92 E0
G1 X214.476 Y149.928 F4200
G1 E2 F1800
;TYPE:Solid infill
;WIDTH:0.410796
G1 F288
G1 X214.216 Y149.667 E2.00716
G1 X213.94 Y149.943 E2.01474
G1 X214.306 Y150.308 E2.02478
G1 X214.306 Y150.858 E2.03546
G1 X213.665 Y150.218 E2.05305
G1 X213.39 Y150.493 E2.0606
G1 X213.822 Y150.925 E2.07247
G1 X213.271 Y150.925 E2.08317
G1 X212.994 Y150.648 E2.09078
G1 E.09078 F1800
G92 E0
G1 X212.976 Y149.529 F4200
G1 E2 F1800
G1 F288
G1 X212.34 Y148.893 E2.01747
G1 X212.273 Y148.893 E2.01877
G1 X212.273 Y149.377 E2.02817
G1 X212.806 Y149.909 E2.0428
G1 X212.806 Y150.46 E2.0535
G1 X212.273 Y149.927 E2.06814
G1 X212.273 Y150.478 E2.07884
G1 X212.891 Y151.096 E2.09582
G1 E.09582 F1800
G92 E0
G1 X213.089 Y150.392 F4200
G1 E2 F1800
;TYPE:External perimeter
;WIDTH:0.4
G1 F270
G1 X214.589 Y148.892 E2.04006
G1 X214.589 Y151.209 E2.08382
G1 X211.989 Y151.209 E2.13292
G1 X211.989 Y148.609 E2.18202
G1 X213.089 Y148.609 E2.20279
G1 X213.089 Y150.332 E2.23533
G1 E.23533 F1800
G92 E0
G1 X200.42 Y130.314 F4200
G1 E2 F1800
;TYPE:Solid infill
;WIDTH:0.400591
G1 F288
G1 X201.016 Y130.91 E2.01594
G1 X201.016 Y131.446 E2.02608
G1 X200.054 Y130.484 E2.05181
G1 X199.518 Y130.484 E2.06195
G1 X201.016 Y131.982 E2.10202
G1 X201.016 Y132.518 E2.11216
G1 X198.984 Y130.486 E2.16652
G1 X198.984 Y131.022 E2.17666
G1 X201.016 Y133.054 E2.23102
G1 X201.016 Y133.591 E2.24118
G1 X198.984 Y131.558 E2.29555
G1 X198.984 Y132.095 E2.30571
G1 X201.016 Y134.127 E2.36007
G1 X201.016 Y134.663 E2.37021
G1 X198.984 Y132.631 E2.42457
G1 X198.984 Y133.167 E2.43471
G1 X201.016 Y135.199 E2.48907
G1 X201.016 Y135.735 E2.49921
G1 X198.984 Y133.703 E2.55357
G1 X198.984 Y134.239 E2.56371
G1 X201.016 Y136.271 E2.61807
G1 X201.016 Y136.808 E2.62823
G1 X198.984 Y134.775 E2.6826
G1 X198.984 Y135.312 E2.69276
G1 X201.016 Y137.344 E2.74712
G1 X201.016 Y137.88 E2.75726
G1 X198.984 Y135.848 E2.81162
G1 X198.984 Y136.384 E2.82176
G1 X201.016 Y138.416 E2.87612
G1 X201.016 Y138.952 E2.88626
G1 X198.984 Y136.92 E2.94062
G1 X198.984 Y137.456 E2.95076
G1 X201.016 Y139.488 E3.00512
G1 X201.016 Y140.025 E3.01528
G1 X198.984 Y137.992 E3.06965
G1 X198.984 Y138.529 E3.07981
G1 X201.016 Y140.561 E3.13417
G1 X201.016 Y141.097 E3.14431
G1 X198.984 Y139.065 E3.19867
G1 X198.984 Y139.601 E3.20881
G1 X201.016 Y141.633 E3.26317
G1 X201.016 Y142.169 E3.27331
G1 X198.984 Y140.137 E3.32767
G1 X198.984 Y140.673 E3.33781
G1 X201.016 Y142.705 E3.39217
G1 X201.016 Y143.242 E3.40233
G1 X198.984 Y141.209 E3.4567
G1 X198.984 Y141.746 E3.46686
G1 X201.016 Y143.778 E3.52122
G1 X201.016 Y144.314 E3.53136
G1 X198.984 Y142.282 E3.58572
G1 X198.984 Y142.818 E3.59586
G1 X201.016 Y144.85 E3.65022
G1 X201.016 Y145.386 E3.66036
G1 X198.984 Y143.354 E3.71472
G1 X198.984 Y143.89 E3.72486
G1 X201.016 Y145.923 E3.77923
G1 X201.016 Y146.459 E3.78937
G1 X198.984 Y144.426 E3.84374
G1 X198.984 Y144.963 E3.8539
G1 X201.016 Y146.995 E3.90826
G1 X201.016 Y147.531 E3.9184
G1 X198.984 Y145.499 E3.97276
G1 X198.984 Y146.035 E3.9829
G1 X201.016 Y148.067 E4.03726
G1 X201.016 Y148.603 E4.0474
G1 X198.984 Y146.571 E4.10176
G1 X198.984 Y147.107 E4.1119
G1 X201.016 Y149.14 E4.16627
G1 X201.016 Y149.676 E4.17641
G1 X198.984 Y147.643 E4.23078
G1 X198.984 Y148.18 E4.24094
G1 X201.016 Y150.212 E4.2953
G1 X201.016 Y150.748 E4.30544
G1 X198.984 Y148.716 E4.3598
G1 X198.984 Y149.252 E4.36994
G1 X201.016 Y151.284 E4.4243
G1 X201.016 Y151.82 E4.43444
G1 X198.984 Y149.788 E4.4888
G1 X198.984 Y150.324 E4.49894
G1 X201.016 Y152.357 E4.55331
G1 X201.016 Y152.893 E4.56345
G1 X198.984 Y150.861 E4.61781
G1 X198.984 Y151.397 E4.62795
G1 X201.016 Y153.429 E4.68231
G1 X201.016 Y153.965 E4.69245
G1 X198.984 Y151.933 E4.74681
G1 X198.984 Y152.469 E4.75695
G1 X201.016 Y154.501 E4.81131
G1 X201.016 Y155.037 E4.82145
G1 X198.984 Y153.005 E4.87581
G1 X198.984 Y153.541 E4.88595
G1 X201.016 Y155.574 E4.94032
G1 X201.016 Y156.11 E4.95046
G1 X198.984 Y154.078 E5.00482
G1 X198.984 Y154.614 E5.01496
G1 X201.016 Y156.646 E5.06932
G1 X201.016 Y157.182 E5.07946
G1 X198.984 Y155.15 E5.13382
G1 X198.984 Y155.686 E5.14396
G1 X201.016 Y157.718 E5.19832
G1 X201.016 Y158.254 E5.20846
G1 X198.984 Y156.222 E5.26282
G1 X198.984 Y156.758 E5.27296
G1 X201.016 Y158.791 E5.32733
G1 X201.016 Y159.327 E5.33747
G1 X198.984 Y157.295 E5.39183
G1 X198.984 Y157.831 E5.40197
G1 X201.016 Y159.863 E5.45633
G1 X201.016 Y160.399 E5.46647
G1 X198.984 Y158.367 E5.52083
G1 X198.984 Y158.903 E5.53097
G1 X201.016 Y160.935 E5.58533
G1 X201.016 Y161.472 E5.59549
G1 X198.984 Y159.439 E5.64986
G1 X198.984 Y159.975 E5.66
G1 X201.016 Y162.008 E5.71437
G1 X201.016 Y162.544 E5.72451
G1 X198.984 Y160.512 E5.77887
G1 X198.984 Y161.048 E5.78901
G1 X201.016 Y163.08 E5.84337
G1 X201.016 Y163.616 E5.85351
G1 X198.984 Y161.584 E5.90787
G1 X198.984 Y162.12 E5.91801
G1 X201.016 Y164.152 E5.97237
G1 X201.016 Y164.689 E5.98253
G1 X198.984 Y162.656 E6.0369
G1 X198.984 Y163.192 E6.04704
G1 X201.016 Y165.225 E6.10141
G1 X201.016 Y165.761 E6.11155
G1 X198.984 Y163.729 E6.16591
G1 X198.984 Y164.265 E6.17605
G1 X201.016 Y166.297 E6.23041
G1 X201.016 Y166.833 E6.24055
G1 X198.984 Y164.801 E6.29491
G1 X198.984 Y165.337 E6.30505
G1 X201.016 Y167.369 E6.35941
G1 X201.016 Y167.906 E6.36957
G1 X198.984 Y165.873 E6.42394
G1 X198.984 Y166.41 E6.4341
G1 X201.016 Y168.442 E6.48846
G1 X201.016 Y168.978 E6.4986
G1 X198.984 Y166.946 E6.55296
G1 X198.984 Y167.482 E6.5631
G1 X201.016 Y169.516 E6.61748
G1 X200.482 Y169.516 E6.62758
G1 X198.984 Y168.018 E6.66765
G1 X198.984 Y168.554 E6.67779
G1 X199.946 Y169.516 E6.70352
G1 X199.41 Y169.516 E6.71366
G1 X198.814 Y168.92 E6.7296
G1 E4.7296 F1800
G92 E0
G1 X198.7 Y169.8 F4200
G1 E2 F1800
;TYPE:External perimeter
;WIDTH:0.4
G1 F252
G1 X198.7 Y130.2 E2.74786
G1 X201.3 Y130.2 E2.79696
G1 X201.3 Y169.8 E3.54482
G1 X198.76 Y169.8 E3.59279
;LAYER_CHANGE
;Layer 2
;Z:0.2
;HEIGHT:0.1
;BEFORE_LAYER_CHANGE
;0.2


G1 Z.2 F4200
;AFTER_LAYER_CHANGE
;G92 E0   ;zero the extruded length again
;0.2
G1 E1.59279 F1800
G92 E0
G1 X213.71 Y151.096 F4200
G1 E2 F1800
;TYPE:Solid infill
;WIDTH:0.40027
G1 F960
G1 X214.306 Y150.5 E2.01327
G1 X214.306 Y149.964 E2.02171
G1 X213.174 Y151.096 E2.04692
G1 E.04692 F1800
G92 E0
G1 X212.976 Y150.223 F4200
G1 E2 F1800
G1 F960
G1 X212.273 Y150.925 E2.01565
G1 X212.273 Y150.39 E2.02408
