; generated by CreatWare 7.0.0 on 2022-08-12 at 23:01:13 UTC

; 

; external perimeters extrusion width = 0.40mm
; perimeters extrusion width = 0.40mm
; infill extrusion width = 0.40mm
; solid infill extrusion width = 0.40mm
; top infill extrusion width = 0.40mm
; support material extrusion width = 0.40mm

G21 ; set units to millimeters
G90 ; use absolute coordinates
M82 ; use absolute distances for extrusion
G92 E0
M107
M190 S45 ; set bed temperature and wait for it to be reached
M104 S210 ; set temperature
;TYPE:Custom
M109 S210 ; set temperature and wait for it to be reached
M6013 S0 ; set chamber temp

G28 X0 Y0  ;move X/Y to min endstops
G28 Z0     ;move Z to min endstops

;Add Clear Nozzle
G92 E0                   ;zero the extruded length again
G0 F4200 X0 Y0
G0 F400 X10 Z0.4         ;move a bit while down the Z
M221 T0 S300             ;set flow is 300%
G1 F200 X30 E8          ;extrude amont filament to clean the hotend
M221 T0 S100             ;reset flow is 100%
G92 E0                   ;zero the extruded length again
;Add End

G0 Z15.0 F4200 ;move the platform down 15mm

;Put printing message on LCD screen
M117 Printing...
; Filament gcode
M107
;LAYER_CHANGE
;Layer 1
;Z:0.2
;HEIGHT:0.2
;BEFORE_LAYER_CHANGE
;0.2


G1 Z.2 F4200
;AFTER_LAYER_CHANGE
;G92 E0   ;zero the extruded length again
;0.2
G1 E-2 F1800
G92 E0
G1 X115.04 Y66.132 F4200
G1 E2 F1800
;TYPE:Skirt/Brim
;WIDTH:0.4
G1 F720
G1 X116.505 Y63.848 E2.09668
G1 X118.848 Y61.505 E2.21474
G1 X120.692 Y60.222 E2.29478
G1 X123.343 Y59.643 E2.39146
G1 X276.657 Y59.643 E7.85397
G1 X278.868 Y60.04 E7.93401
G1 X281.152 Y61.505 E8.03069
G1 X283.495 Y63.848 E8.14875
G1 X284.778 Y65.692 E8.22879
G1 X285.357 Y68.343 E8.32547
G1 X285.357 Y231.657 E14.14427
G1 X284.96 Y233.868 E14.22431
G1 X283.495 Y236.152 E14.32099
G1 X281.152 Y238.495 E14.43905
G1 X279.308 Y239.778 E14.51909
G1 X276.657 Y240.357 E14.61577
G1 X123.343 Y240.357 E20.07828
G1 X121.132 Y239.96 E20.15832
G1 X118.848 Y238.495 E20.255
G1 X116.505 Y236.152 E20.37306
G1 X115.222 Y234.308 E20.4531
G1 X114.643 Y231.657 E20.54978
G1 X114.643 Y68.343 E26.36858
G1 X115.029 Y66.191 E26.44648
G1 E24.44648 F1800
G92 E0
G1 X121.48 Y68.642 F4200
G1 E2 F1800
G1 F720
G1 X121.746 Y68.153 E2.01983
G1 X123.153 Y66.746 E2.09073
G1 X123.642 Y66.48 E2.11056
G1 X124.03 Y66.393 E2.12473
G1 X276.007 Y66.397 E7.5396
G1 X276.361 Y66.481 E7.55256
G1 X276.847 Y66.746 E7.57228
G1 X278.254 Y68.153 E7.64318
G1 X278.52 Y68.642 E7.66301
G1 X278.607 Y69.03 E7.67718
G1 X278.607 Y230.97 E13.44703
G1 X278.52 Y231.358 E13.4612
G1 X278.254 Y231.847 E13.48103
G1 X276.847 Y233.254 E13.55193
G1 X276.358 Y233.52 E13.57176
G1 X275.97 Y233.607 E13.58593
G1 X124.03 Y233.607 E18.99948
G1 X123.642 Y233.52 E19.01365
G1 X123.153 Y233.254 E19.03348
G1 X121.746 Y231.847 E19.10438
G1 X121.48 Y231.358 E19.12421
G1 X121.393 Y230.97 E19.13838
G1 X121.393 Y69.03 E24.90823
G1 X121.467 Y68.7 E24.92028
G1 X121.807 Y68.785 F4200
G1 F720
G1 X122.018 Y68.386 E24.93636
G1 X123.386 Y67.018 E25.00529
G1 X123.785 Y66.807 E25.02137
G1 X124.049 Y66.75 E25.03099
G1 X275.987 Y66.754 E30.44447
G1 X276.215 Y66.808 E30.45282
G1 X276.614 Y67.018 E30.46888
G1 X277.982 Y68.386 E30.53781
G1 X278.193 Y68.785 E30.55389
G1 X278.25 Y69.049 E30.56351
G1 X278.25 Y230.951 E36.33201
G1 X278.193 Y231.215 E36.34163
G1 X277.982 Y231.614 E36.35771
G1 X276.614 Y232.982 E36.42664
G1 X276.215 Y233.193 E36.44272
G1 X275.951 Y233.25 E36.45234
G1 X124.049 Y233.25 E41.86454
G1 X123.785 Y233.193 E41.87416
G1 X123.386 Y232.982 E41.89024
G1 X122.018 Y231.614 E41.95917
G1 X121.807 Y231.215 E41.97525
G1 X121.75 Y230.951 E41.98487
G1 X121.75 Y69.049 E47.75337
G1 X121.795 Y68.844 E47.76085
G1 X122.137 Y68.923 F4200
G1 F720
G1 X122.292 Y68.617 E47.77307
G1 X123.617 Y67.292 E47.83983
G1 X123.923 Y67.137 E47.85205
G1 X124.066 Y67.107 E47.85726
G1 X275.966 Y67.111 E53.26939
G1 X276.075 Y67.136 E53.27337
G1 X276.383 Y67.292 E53.28567
G1 X277.708 Y68.617 E53.35243
G1 X277.863 Y68.923 E53.36465
G1 X277.893 Y69.066 E53.36986
G1 X277.893 Y230.934 E59.13714
G1 X277.863 Y231.077 E59.14235
G1 X277.708 Y231.383 E59.15457
G1 X276.383 Y232.708 E59.22133
G1 X276.077 Y232.863 E59.23355
G1 X275.934 Y232.893 E59.23876
G1 X124.066 Y232.893 E64.64975
G1 X123.923 Y232.863 E64.65496
G1 X123.617 Y232.708 E64.66718
G1 X122.292 Y231.383 E64.73394
G1 X122.137 Y231.077 E64.74616
G1 X122.107 Y230.934 E64.75137
G1 X122.107 Y69.066 E70.51865
G1 X122.125 Y68.982 E70.52171
G1 X122.47 Y69.053 F4200
G1 F720
G1 X122.568 Y68.846 E70.52987
G1 X123.846 Y67.568 E70.59427
G1 X124.083 Y67.464 E70.60349
G1 X275.917 Y67.464 E76.01327
G1 X276.154 Y67.568 E76.02249
G1 X277.432 Y68.846 E76.08689
G1 X277.536 Y69.083 E76.09611
G1 X277.536 Y230.917 E81.86218
G1 X277.432 Y231.154 E81.8714
G1 X276.154 Y232.432 E81.9358
G1 X275.917 Y232.536 E81.94502
G1 X124.083 Y232.536 E87.3548
G1 X123.846 Y232.432 E87.36402
G1 X122.568 Y231.154 E87.42842
G1 X122.464 Y230.917 E87.43764
G1 X122.464 Y69.112 E93.20268
G1 X122.821 Y69.136 F4200
G1 F720
G1 X122.849 Y69.07 E93.20523
G1 X124.07 Y67.849 E93.26675
G1 X124.136 Y67.821 E93.2693
G1 X275.864 Y67.821 E98.6753
G1 X275.93 Y67.849 E98.67785
G1 X277.151 Y69.07 E98.73937
G1 X277.179 Y69.136 E98.74192
G1 X277.179 Y230.864 E104.50422
G1 X277.151 Y230.93 E104.50677
G1 X275.93 Y232.151 E104.56829
G1 X275.864 Y232.179 E104.57084
G1 X124.136 Y232.179 E109.97684
G1 X124.07 Y232.151 E109.97939
G1 X122.849 Y230.93 E110.04091
G1 X122.821 Y230.864 E110.04346
G1 X122.821 Y69.196 E115.80362
G1 E113.80362 F1800
G92 E0
G1 X273.613 Y70.664 F4200
G1 E2 F1800
;TYPE:Solid infill
;WIDTH:0.400444
G1 F288
G1 X274.175 Y71.226 E2.02835
G1 X274.175 Y71.732 E2.0464
G1 X273.268 Y70.825 E2.09216
G1 X272.762 Y70.825 E2.11021
G1 X274.175 Y72.238 E2.1815
G1 X274.175 Y72.743 E2.19952
G1 X272.257 Y70.825 E2.29628
G1 X271.751 Y70.825 E2.31433
G1 X274.175 Y73.249 E2.43662
G1 X274.175 Y73.754 E2.45464
G1 X271.246 Y70.825 E2.60241
G1 X270.74 Y70.825 E2.62046
G1 X274.175 Y74.26 E2.79376
G1 X274.175 Y74.766 E2.81181
G1 X270.234 Y70.825 E3.01064
G1 X269.729 Y70.825 E3.02866
G1 X274.175 Y75.271 E3.25296
G1 X274.175 Y75.777 E3.27101
G1 X269.223 Y70.825 E3.52084
G1 X268.718 Y70.825 E3.53886
G1 X274.175 Y76.282 E3.81417
G1 X274.175 Y76.788 E3.83222
G1 X268.212 Y70.825 E4.13306
G1 X267.706 Y70.825 E4.15111
G1 X274.175 Y77.294 E4.47747
G1 X274.175 Y77.799 E4.49549
G1 X267.201 Y70.825 E4.84733
G1 X266.695 Y70.825 E4.86538
G1 X274.175 Y78.305 E5.24275
G1 X274.175 Y78.811 E5.2608
G1 X266.189 Y70.825 E5.6637
G1 X265.684 Y70.825 E5.68172
G1 X274.175 Y79.316 E6.1101
G1 X274.175 Y79.822 E6.12815
G1 X265.178 Y70.825 E6.58205
G1 X264.673 Y70.825 E6.60007
G1 X274.175 Y80.327 E7.07945
G1 X274.175 Y80.833 E7.0975
G1 X264.167 Y70.825 E7.60241
G1 X263.661 Y70.825 E7.62046
G1 X274.175 Y81.339 E8.1509
G1 X274.175 Y81.844 E8.16892
G1 X263.156 Y70.825 E8.72483
G1 X262.65 Y70.825 E8.74288
G1 X274.175 Y82.35 E9.32432
G1 X274.175 Y82.855 E9.34234
G1 X262.145 Y70.825 E9.94926
G1 X261.639 Y70.825 E9.96731
G1 X274.175 Y83.361 E10.59976
G1 X274.175 Y83.867 E10.61781
G1 X261.133 Y70.825 E11.27579
G1 X260.628 Y70.825 E11.29381
G1 X274.175 Y84.372 E11.97726
G1 X274.175 Y84.878 E11.99531
G1 X260.122 Y70.825 E12.70429
G1 X259.616 Y70.825 E12.72234
G1 X274.175 Y85.384 E13.45685
G1 X274.175 Y85.889 E13.47487
G1 X259.111 Y70.825 E14.23486
G1 X258.605 Y70.825 E14.25291
G1 X274.175 Y86.395 E15.03842
G1 X274.175 Y86.9 E15.05644
G1 X258.1 Y70.825 E15.86743
G1 X257.594 Y70.825 E15.88548
G1 X274.175 Y87.406 E16.722
G1 X274.175 Y87.912 E16.74005
G1 X257.088 Y70.825 E17.6021
G1 X256.583 Y70.825 E17.62012
G1 X274.175 Y88.417 E18.50765
G1 X274.175 Y88.923 E18.5257
G1 X256.077 Y70.825 E19.43875
G1 X255.572 Y70.825 E19.45677
G1 X274.175 Y89.428 E20.3953
G1 X274.175 Y89.934 E20.41335
G1 X255.066 Y70.825 E21.37741
G1 X254.56 Y70.825 E21.39546
G1 X274.175 Y90.44 E22.38505
G1 X274.175 Y90.945 E22.40307
G1 X254.055 Y70.825 E23.41813
G1 X253.549 Y70.825 E23.43618
G1 X274.175 Y91.451 E24.47677
G1 X274.175 Y91.957 E24.49482
G1 X253.043 Y70.825 E25.56094
G1 X252.538 Y70.825 E25.57896
G1 X274.175 Y92.462 E26.67056
G1 X274.175 Y92.968 E26.68861
G1 X252.032 Y70.825 E27.80574
G1 X251.527 Y70.825 E27.82376
G1 X274.175 Y93.473 E28.96636
G1 X274.175 Y93.979 E28.98441
G1 X251.021 Y70.825 E30.15254
G1 X250.515 Y70.825 E30.17059
G1 X274.175 Y94.485 E31.36425
G1 X274.175 Y94.99 E31.38227
G1 X250.01 Y70.825 E32.60141
G1 X249.504 Y70.825 E32.61946
G1 X274.175 Y95.496 E33.86412
G1 X274.175 Y96.001 E33.88214
G1 X248.999 Y70.825 E35.15228
G1 X248.493 Y70.825 E35.17033
G1 X274.175 Y96.507 E36.466
G1 X274.175 Y97.013 E36.48405
G1 X247.987 Y70.825 E37.80525
G1 X247.482 Y70.825 E37.82327
G1 X274.175 Y97.518 E39.16995
G1 X274.175 Y98.024 E39.188
G1 X246.976 Y70.825 E40.5602
G1 X246.47 Y70.825 E40.57825
G1 X274.175 Y98.53 E41.97598
G1 X274.175 Y99.035 E41.994
G1 X245.965 Y70.825 E43.41721
G1 X245.459 Y70.825 E43.43526
G1 X274.175 Y99.541 E44.884
G1 X274.175 Y100.046 E44.90202
G1 X244.954 Y70.825 E46.37623
G1 X244.448 Y70.825 E46.39428
G1 X274.175 Y100.552 E47.89402
G1 X274.175 Y101.058 E47.91207
G1 X243.942 Y70.825 E49.43734
G1 X243.437 Y70.825 E49.45536
G1 X274.175 Y101.563 E51.00611
G1 X274.175 Y102.069 E51.02416
G1 X242.931 Y70.825 E52.60044
G1 X242.426 Y70.825 E52.61846
G1 X274.175 Y102.574 E54.22021
G1 X274.175 Y103.08 E54.23826
G1 X241.92 Y70.825 E55.86554
G1 X241.414 Y70.825 E55.88359
G1 X274.175 Y103.586 E57.5364
G1 X274.175 Y104.091 E57.55442
G1 X240.909 Y70.825 E59.23271
G1 X240.403 Y70.825 E59.25076
G1 X274.175 Y104.597 E60.95457
G1 X274.175 Y105.103 E60.97262
G1 X239.897 Y70.825 E62.70196
G1 X239.392 Y70.825 E62.71998
G1 X274.175 Y105.608 E64.4748
G1 X274.175 Y106.114 E64.49285
G1 X238.886 Y70.825 E66.2732
G1 X238.381 Y70.825 E66.29122
G1 X274.175 Y106.619 E68.09705
G1 X274.175 Y107.125 E68.1151
G1 X237.875 Y70.825 E69.94645
G1 X237.369 Y70.825 E69.9645
G1 X274.175 Y107.631 E71.82138
G1 X274.175 Y108.136 E71.8394
G1 X236.864 Y70.825 E73.72176
G1 X236.358 Y70.825 E73.73981
G1 X274.175 Y108.642 E75.6477
G1 X274.175 Y109.147 E75.66572
G1 X235.853 Y70.825 E77.59908
G1 X235.347 Y70.825 E77.61713
G1 X274.175 Y109.653 E79.57602
G1 X274.175 Y110.159 E79.59407
G1 X234.841 Y70.825 E81.57849
G1 X234.336 Y70.825 E81.59651
G1 X274.175 Y110.664 E83.60641
G1 X274.175 Y111.17 E83.62446
G1 X233.83 Y70.825 E85.65989
G1 X233.324 Y70.825 E85.67794
G1 X274.175 Y111.676 E87.73889
G1 X274.175 Y112.181 E87.75691
G1 X232.819 Y70.825 E89.84334
G1 X232.313 Y70.825 E89.86139
G1 X274.175 Y112.687 E91.97335
G1 X274.175 Y113.192 E91.99137
G1 X231.808 Y70.825 E94.12881
G1 X231.302 Y70.825 E94.14686
G1 X274.175 Y113.698 E96.30982
G1 X274.175 Y114.204 E96.32787
G1 X230.796 Y70.825 E98.51636
G1 X230.291 Y70.825 E98.53438
G1 X274.175 Y114.709 E100.74835
G1 X274.175 Y115.215 E100.7664
G1 X229.785 Y70.825 E103.0059
G1 X229.28 Y70.825 E103.02392
G1 X274.175 Y115.72 E105.2889
G1 X274.175 Y116.226 E105.30695
G1 X228.774 Y70.825 E107.59745
G1 X228.268 Y70.825 E107.6155
G1 X274.175 Y116.732 E109.93153
G1 X274.175 Y117.237 E109.94955
G1 X227.763 Y70.825 E112.29106
G1 X227.257 Y70.825 E112.30911
G1 X274.175 Y117.743 E114.67615
G1 X274.175 Y118.249 E114.6942
G1 X226.751 Y70.825 E117.08676
G1 X226.246 Y70.825 E117.10478
G1 X274.175 Y118.754 E119.52282
G1 X274.175 Y119.26 E119.54087
G1 X225.74 Y70.825 E121.98444
G1 X225.235 Y70.825 E122.00246
G1 X274.175 Y119.765 E124.47151
G1 X274.175 Y120.271 E124.48956
G1 X224.729 Y70.825 E126.98414
G1 X224.223 Y70.825 E127.00219
G1 X274.175 Y120.777 E129.52229
G1 X274.175 Y121.282 E129.54031
G1 X223.718 Y70.825 E132.08589
G1 X223.212 Y70.825 E132.10394
G1 X274.175 Y121.788 E134.67505
G1 X274.175 Y122.293 E134.69307
G1 X222.707 Y70.825 E137.28966
G1 X222.201 Y70.825 E137.30771
G1 X274.175 Y122.799 E139.92982
G1 X274.175 Y123.305 E139.94787
G1 X221.695 Y70.825 E142.59551
G1 X221.19 Y70.825 E142.61353
G1 X274.175 Y123.81 E145.28665
G1 X274.175 Y124.316 E145.3047
G1 X220.684 Y70.825 E148.00335
G1 X220.178 Y70.825 E148.0214
G1 X274.175 Y124.822 E150.74558
G1 X274.175 Y125.327 E150.7636
G1 X219.673 Y70.825 E153.51325
G1 X219.167 Y70.825 E153.5313
G1 X274.175 Y125.833 E156.30648
G1 X274.175 Y126.338 E156.3245
G1 X218.662 Y70.825 E159.12516
G1 X218.156 Y70.825 E159.14321
G1 X274.175 Y126.844 E161.9694
G1 X274.175 Y127.35 E161.98745
G1 X217.65 Y70.825 E164.83916
G1 X217.145 Y70.825 E164.85718
G1 X274.175 Y127.855 E167.73437
G1 X274.175 Y128.361 E167.75242
G1 X216.639 Y70.825 E170.65514
G1 X216.134 Y70.825 E170.67316
G1 X274.175 Y128.866 E173.60136
G1 X274.175 Y129.372 E173.61941
G1 X215.628 Y70.825 E176.57314
G1 X215.122 Y70.825 E176.59119
G1 X274.175 Y129.878 E179.57044
G1 X274.175 Y130.383 E179.58846
G1 X214.617 Y70.825 E182.59319
G1 X214.111 Y70.825 E182.61124
G1 X274.175 Y130.889 E185.6415
G1 X274.175 Y131.395 E185.65955
G1 X213.605 Y70.825 E188.71534
G1 X213.1 Y70.825 E188.73336
G1 X274.175 Y131.9 E191.81462
G1 X274.175 Y132.406 E191.83267
G1 X212.594 Y70.825 E194.93946
G1 X212.089 Y70.825 E194.95748
G1 X274.175 Y132.911 E198.08975
G1 X274.175 Y133.417 E198.1078
G1 X211.583 Y70.825 E201.2656
G1 X211.077 Y70.825 E201.28365
G1 X274.175 Y133.923 E204.46698
G1 X274.175 Y134.428 E204.485
G1 X210.572 Y70.825 E207.6938
G1 X210.066 Y70.825 E207.71185
G1 X274.175 Y134.934 E210.94618
G1 X274.175 Y135.439 E210.9642
G1 X209.561 Y70.825 E214.22401
G1 X209.055 Y70.825 E214.24206
G1 X274.175 Y135.945 E217.5274
G1 X274.175 Y136.451 E217.54545
G1 X208.549 Y70.825 E220.85631
G1 X208.044 Y70.825 E220.87433
G1 X274.175 Y136.956 E224.21067
G1 X274.175 Y137.462 E224.22872
G1 X207.538 Y70.825 E227.59059
G1 X207.032 Y70.825 E227.60864
G1 X274.175 Y137.968 E230.99604
G1 X274.175 Y138.473 E231.01406
G1 X206.527 Y70.825 E234.42694
G1 X206.021 Y70.825 E234.44499
G1 X274.175 Y138.979 E237.88339
G1 X274.175 Y139.484 E237.90141
G1 X205.516 Y70.825 E241.36529
G1 X205.01 Y70.825 E241.38334
G1 X274.175 Y139.99 E244.87275
G1 X274.175 Y140.496 E244.8908
G1 X204.504 Y70.825 E248.40574
G1 X203.999 Y70.825 E248.42376
G1 X274.175 Y141.001 E251.96417
G1 X274.175 Y141.507 E251.98222
G1 X203.493 Y70.825 E255.54816
G1 X202.988 Y70.825 E255.56618
G1 X274.175 Y142.012 E259.1576
G1 X274.175 Y142.518 E259.17565
G1 X202.482 Y70.825 E262.7926
G1 X201.976 Y70.825 E262.81065
G1 X274.175 Y143.024 E266.45313
G1 X274.175 Y143.529 E266.47115
G1 X201.471 Y70.825 E270.1391
G1 X200.965 Y70.825 E270.15715
G1 X274.175 Y144.035 E273.85063
G1 X274.175 Y144.541 E273.86868
G1 X200.459 Y70.825 E277.58769
G1 X199.954 Y70.825 E277.60571
G1 X274.175 Y145.046 E281.3502
G1 X274.175 Y145.552 E281.36825
G1 X199.448 Y70.825 E285.13826
G1 X198.943 Y70.825 E285.15628
G1 X274.175 Y146.057 E288.95177
G1 X274.175 Y146.563 E288.96982
G1 X198.437 Y70.825 E292.79084
G1 X197.931 Y70.825 E292.80889
G1 X274.175 Y147.069 E296.65544
G1 X274.175 Y147.574 E296.67346
G1 X197.426 Y70.825 E300.54549
G1 X196.92 Y70.825 E300.56354
G1 X274.175 Y148.08 E304.46109
G1 X274.175 Y148.585 E304.47911
G1 X196.415 Y70.825 E308.40214
G1 X195.909 Y70.825 E308.42019
G1 X274.175 Y149.091 E312.36875
G1 X274.175 Y149.597 E312.3868
G1 X195.403 Y70.825 E316.36089
G1 X194.898 Y70.825 E316.37891
G1 X274.175 Y150.102 E320.37847
G1 X274.175 Y150.608 E320.39652
G1 X194.392 Y70.825 E324.42161
G1 X193.886 Y70.825 E324.43966
G1 X274.175 Y151.114 E328.49028
G1 X274.175 Y151.619 E328.5083
G1 X193.381 Y70.825 E332.5844
G1 X192.875 Y70.825 E332.60245
G1 X274.175 Y152.125 E336.70408
G1 X274.175 Y152.63 E336.7221
G1 X192.37 Y70.825 E340.8492
G1 X191.864 Y70.825 E340.86725
G1 X274.175 Y153.136 E345.01988
G1 X274.175 Y153.642 E345.03793
G1 X191.358 Y70.825 E349.21609
G1 X190.853 Y70.825 E349.23411
G1 X274.175 Y154.147 E353.43775
G1 X274.175 Y154.653 E353.4558
G1 X190.347 Y70.825 E357.68496
G1 X189.842 Y70.825 E357.70298
G1 X274.175 Y155.158 E361.95762
G1 X274.175 Y155.664 E361.97567
G1 X189.336 Y70.825 E366.25584
G1 X188.83 Y70.825 E366.27389
G1 X274.175 Y156.17 E370.57959
G1 X274.175 Y156.675 E370.59761
G1 X188.325 Y70.825 E374.92879
G1 X187.819 Y70.825 E374.94684
G1 X274.175 Y157.181 E379.30354
G1 X274.175 Y157.687 E379.32159
