; generated by CreatWare 7.0.0 on 2022-07-21 at 05:36:26 UTC

; 

; external perimeters extrusion width = 0.40mm
; perimeters extrusion width = 0.40mm
; infill extrusion width = 0.40mm
; solid infill extrusion width = 0.40mm
; top infill extrusion width = 0.40mm

; external perimeters extrusion width = 0.40mm
; perimeters extrusion width = 0.40mm
; infill extrusion width = 0.40mm
; solid infill extrusion width = 0.40mm
; top infill extrusion width = 0.40mm

; external perimeters extrusion width = 0.40mm
; perimeters extrusion width = 0.40mm
; infill extrusion width = 0.40mm
; solid infill extrusion width = 0.40mm
; top infill extrusion width = 0.40mm

; external perimeters extrusion width = 0.40mm
; perimeters extrusion width = 0.40mm
; infill extrusion width = 0.40mm
; solid infill extrusion width = 0.40mm
; top infill extrusion width = 0.40mm

G21 ; set units to millimeters
G90 ; use absolute coordinates
M82 ; use absolute distances for extrusion
G92 E0
M107
M190 S45 ; set bed temperature and wait for it to be reached
M104 S210 ; set temperature
;TYPE:Custom
M109 S210 ; set temperature and wait for it to be reached
M6013 S0 ; set chamber temp

G28 X0 Y0  ;move X/Y to min endstops
G28 Z0     ;move Z to min endstops

;Add Clear Nozzle
G92 E0                   ;zero the extruded length again
G0 F4200 X0 Y0
G0 F400 X10 Z0.4         ;move a bit while down the Z
M221 T0 S300             ;set flow is 300%
G1 F200 X30 E8          ;extrude amont filament to clean the hotend
M221 T0 S100             ;reset flow is 100%
G92 E0                   ;zero the extruded length again
;Add End

G0 Z15.0 F4200 ;move the platform down 15mm

;Put printing message on LCD screen
M117 Printing...
; Filament gcode
M107
;LAYER_CHANGE
;Layer 1
;Z:0.2
;HEIGHT:0.2
;BEFORE_LAYER_CHANGE
;0.2


G1 Z.2 F4200
;AFTER_LAYER_CHANGE
;G92 E0   ;zero the extruded length again
;0.2
G1 E-2 F1800
G92 E0
G1 X79.353 Y92.932 F4200
G1 E2 F1800
;TYPE:Skirt/Brim
;WIDTH:0.4
G1 F720
G1 X81.548 Y91.501 E2.09336
G1 X119.246 Y76.921 E3.53348
G1 X226.451 Y50.15 E7.47044
G1 X227.991 Y49.96 E7.52573
G1 X276.243 Y49.96 E9.24493
G1 X278.064 Y50.227 E9.31051
G1 X297.064 Y55.909 E10.01709
G1 X299.738 Y57.505 E10.12804
G1 X302.081 Y59.848 E10.2461
G1 X303.364 Y61.692 E10.32614
G1 X303.943 Y64.343 E10.42282
G1 X303.931 Y73.723 E10.75703
G1 X297.552 Y179.216 E14.52256
G1 X297.023 Y181.399 E14.60259
G1 X295.702 Y183.327 E14.68586
G1 X293.359 Y185.67 E14.80392
G1 X290.732 Y187.252 E14.91318
G1 X147.783 Y231.205 E20.24171
G1 X145.915 Y231.486 E20.30901
G1 X127.601 Y231.486 E20.96153
G1 X125.301 Y231.055 E21.0449
G1 X88.363 Y216.717 E22.45666
G1 X86.168 Y215.285 E22.55004
G1 X83.825 Y212.942 E22.6681
G1 X82.542 Y211.098 E22.74814
G1 X81.978 Y208.878 E22.82975
G1 X75.163 Y108.515 E26.41387
G1 X75.148 Y99.77 E26.72545
G1 X75.545 Y97.559 E26.80549
G1 X77.01 Y95.275 E26.90217
G1 X79.311 Y92.974 E27.01811
G1 E25.01811 F1800
G92 E0
G1 X91.228 Y198.197 F4200
G1 E2 F1800
G1 F720
G1 X138.35 Y198.197 E3.67894
G1 X138.618 Y198.271 E3.68885
G1 X139.105 Y198.536 E3.7086
G1 X140.512 Y199.943 E3.7795
G1 X140.778 Y200.432 E3.79933
G1 X140.865 Y200.82 E3.8135
G1 X140.865 Y203.866 E3.92203
G1 X157.35 Y203.88 E4.50938
G1 X157.618 Y203.953 E4.51928
G1 X158.105 Y204.219 E4.53905
G1 X159.512 Y205.626 E4.60995
G1 X159.828 Y206.263 E4.63529
G1 X159.865 Y206.504 E4.64398
G1 X159.865 Y214.125 E4.91551
G1 X159.778 Y214.514 E4.92971
G1 X159.512 Y215.002 E4.94951
G1 X158.105 Y216.409 E5.02041
G1 X157.618 Y216.675 E5.04018
G1 X157.35 Y216.748 E5.05008
G1 X147.865 Y216.762 E5.38803
G1 X147.865 Y222.097 E5.57811
G1 X147.828 Y222.338 E5.5868
G1 X147.512 Y222.975 E5.61214
G1 X146.105 Y224.383 E5.68306
G1 X145.468 Y224.698 E5.70838
G1 X145.226 Y224.735 E5.7171
G1 X128.288 Y224.735 E6.32059
G1 X127.898 Y224.648 E6.33483
G1 X127.453 Y224.413 E6.35276
G1 X126.004 Y222.975 E6.4255
G1 X125.738 Y222.488 E6.44527
G1 X125.665 Y222.221 E6.45513
G1 X125.651 Y210.397 E6.87641
G1 X91.35 Y210.397 E8.09854
G1 X90.962 Y210.311 E8.1127
G1 X90.473 Y210.044 E8.13255
G1 X89.066 Y208.637 E8.20345
G1 X88.8 Y208.15 E8.22322
G1 X88.727 Y207.882 E8.23312
G1 X88.713 Y200.822 E8.48467
G1 X88.75 Y200.581 E8.49336
G1 X89.066 Y199.944 E8.5187
G1 X90.473 Y198.536 E8.58962
G1 X90.96 Y198.271 E8.60937
G1 X91.17 Y198.213 E8.61713
G1 X91.259 Y198.558 F4200
G1 F720
G1 X138.284 Y198.549 E10.29261
G1 X138.472 Y198.597 E10.29952
G1 X138.872 Y198.809 E10.31565
G1 X140.24 Y200.176 E10.38456
G1 X140.451 Y200.575 E10.40064
G1 X140.508 Y200.839 E10.41026
G1 X140.508 Y204.223 E10.53083
G1 X157.284 Y204.231 E11.12855
G1 X157.472 Y204.28 E11.13547
G1 X157.872 Y204.491 E11.15158
G1 X159.239 Y205.858 E11.22046
G1 X159.48 Y206.347 E11.23988
G1 X159.508 Y206.519 E11.24609
G1 X159.508 Y214.107 E11.51645
G1 X159.451 Y214.37 E11.52604
G1 X159.24 Y214.769 E11.54212
G1 X157.872 Y216.137 E11.61105
G1 X157.472 Y216.348 E11.62716
G1 X157.284 Y216.397 E11.63408
G1 X147.508 Y216.405 E11.98239
G1 X147.508 Y222.082 E12.18466
G1 X147.48 Y222.254 E12.19087
G1 X147.239 Y222.744 E12.21033
G1 X145.873 Y224.109 E12.27913
G1 X145.384 Y224.35 E12.29855
G1 X145.211 Y224.378 E12.30479
G1 X128.307 Y224.378 E12.90707
G1 X128.043 Y224.321 E12.91669
G1 X127.644 Y224.11 E12.93277
G1 X126.276 Y222.743 E13.00168
G1 X126.065 Y222.342 E13.01782
G1 X126.016 Y222.155 E13.02471
G1 X126.008 Y210.04 E13.45636
G1 X91.369 Y210.04 E14.69053
G1 X91.105 Y209.983 E14.70015
G1 X90.706 Y209.772 E14.71623
G1 X89.339 Y208.405 E14.78511
G1 X89.127 Y208.004 E14.80127
G1 X89.079 Y207.816 E14.80818
G1 X89.07 Y200.837 E15.05684
G1 X89.098 Y200.664 E15.06308
G1 X89.339 Y200.175 E15.0825
G1 X90.706 Y198.809 E15.15135
G1 X91.106 Y198.597 E15.16748
G1 X91.201 Y198.573 E15.17097
G1 X91.282 Y198.918 F4200
G1 F720
G1 X91.354 Y198.901 E15.17361
G1 X138.224 Y198.901 E16.84357
G1 X138.333 Y198.927 E16.84756
G1 X138.641 Y199.082 E16.85985
G1 X139.966 Y200.407 E16.92661
G1 X140.121 Y200.714 E16.93886
G1 X140.151 Y200.857 E16.94407
G1 X140.151 Y204.58 E17.07672
G1 X157.224 Y204.583 E17.68502
G1 X157.333 Y204.609 E17.68901
G1 X157.641 Y204.765 E17.70131
G1 X158.965 Y206.089 E17.76802
G1 X159.133 Y206.433 E17.78166
G1 X159.151 Y206.536 E17.78539
G1 X159.151 Y214.089 E18.0545
G1 X159.121 Y214.232 E18.05971
G1 X158.966 Y214.538 E18.07193
G1 X157.641 Y215.863 E18.13869
G1 X157.333 Y216.019 E18.15099
G1 X157.224 Y216.044 E18.15497
G1 X147.151 Y216.048 E18.51387
G1 X147.151 Y222.065 E18.72825
G1 X147.133 Y222.168 E18.73198
G1 X146.965 Y222.512 E18.74562
G1 X145.642 Y223.835 E18.81228
G1 X145.297 Y224.003 E18.82595
G1 X145.195 Y224.021 E18.82964
G1 X128.324 Y224.021 E19.43075
G1 X128.181 Y223.991 E19.43596
G1 X127.875 Y223.836 E19.44818
G1 X126.55 Y222.512 E19.51492
G1 X126.394 Y222.203 E19.52725
G1 X126.369 Y222.095 E19.5312
G1 X126.365 Y209.683 E19.97343
G1 X91.386 Y209.683 E21.21972
G1 X91.243 Y209.653 E21.22493
G1 X90.937 Y209.498 E21.23715
G1 X89.612 Y208.173 E21.30391
G1 X89.456 Y207.865 E21.31621
G1 X89.431 Y207.757 E21.32016
G1 X89.427 Y200.854 E21.56611
G1 X89.445 Y200.751 E21.56984
G1 X89.613 Y200.406 E21.58351
G1 X90.937 Y199.082 E21.65022
G1 X91.226 Y198.937 E21.66174
G1 X91.373 Y199.261 F4200
G1 F720
G1 X138.205 Y199.261 E23.33034
G1 X138.412 Y199.358 E23.33848
G1 X139.69 Y200.636 E23.40288
G1 X139.788 Y200.843 E23.41104
G1 X139.794 Y204.937 E23.55691
G1 X157.175 Y204.937 E24.17619
G1 X157.412 Y205.041 E24.18541
G1 X158.69 Y206.319 E24.24981
G1 X158.794 Y206.556 E24.25903
G1 X158.788 Y214.102 E24.52789
G1 X158.69 Y214.309 E24.53605
G1 X157.412 Y215.587 E24.60045
G1 X157.175 Y215.691 E24.60967
G1 X146.502 Y215.691 E24.98994
G1 X146.717 Y216.01 E25.00365
G1 X146.794 Y216.225 E25.01179
G1 X146.794 Y222.046 E25.21919
G1 X146.69 Y222.283 E25.22841
G1 X145.412 Y223.56 E25.29278
G1 X145.205 Y223.658 E25.30094
G1 X128.311 Y223.658 E25.90287
G1 X128.104 Y223.56 E25.91103
G1 X126.826 Y222.283 E25.9754
G1 X126.722 Y222.046 E25.98462
G1 X126.722 Y209.326 E26.43783
G1 X91.373 Y209.32 E27.6973
G1 X91.166 Y209.222 E27.70546
G1 X89.888 Y207.944 E27.76986
G1 X89.785 Y207.707 E27.77907
G1 X89.785 Y200.873 E28.02256
G1 X89.888 Y200.636 E28.03177
G1 X91.166 Y199.358 E28.09617
G1 X91.319 Y199.286 E28.10219
G1 X91.454 Y199.613 F4200
G1 F720
G1 X138.122 Y199.612 E29.76495
G1 X138.188 Y199.639 E29.76749
G1 X139.409 Y200.861 E29.82904
G1 X139.437 Y200.926 E29.83156
G1 X139.437 Y205.294 E29.98719
G1 X157.122 Y205.294 E30.6173
G1 X157.188 Y205.321 E30.61984
G1 X158.409 Y206.543 E30.68139
G1 X158.437 Y206.609 E30.68394
G1 X158.437 Y214.019 E30.94795
G1 X158.409 Y214.085 E30.9505
G1 X157.188 Y215.306 E31.01202
G1 X157.122 Y215.334 E31.01457
G1 X145.544 Y215.334 E31.42709
G1 X146.409 Y216.199 E31.47068
G1 X146.437 Y216.265 E31.47323
G1 X146.437 Y221.992 E31.67728
G1 X146.409 Y222.058 E31.67983
G1 X145.188 Y223.28 E31.74138
G1 X145.122 Y223.307 E31.74392
G1 X128.394 Y223.307 E32.33993
G1 X128.328 Y223.28 E32.34247
G1 X127.107 Y222.058 E32.40402
G1 X127.079 Y221.992 E32.40657
G1 X127.079 Y208.969 E32.87057
G1 X91.456 Y208.969 E34.1398
G1 X91.391 Y208.942 E34.14231
G1 X90.169 Y207.72 E34.20388
G1 X90.142 Y207.654 E34.20642
G1 X90.142 Y200.926 E34.44614
G1 X90.169 Y200.861 E34.44865
G1 X91.398 Y199.636 E34.51048
G1 E32.51048 F1800
G92 E0
G1 X91.398 Y110.034 F4200
G1 E2 F1800
G1 F720
G1 X84.535 Y110.034 E2.24453
G1 X84.147 Y109.947 E2.2587
G1 X83.658 Y109.681 E2.27853
G1 X82.269 Y108.292 E2.34852
G1 X82.056 Y107.956 E2.36269
G1 X81.898 Y107.422 E2.38253
G1 X81.912 Y100.335 E2.63504
G1 X81.986 Y100.067 E2.64495
G1 X82.251 Y99.58 E2.6647
G1 X83.641 Y98.191 E2.73471
G1 X83.977 Y97.977 E2.7489
G1 X84.51 Y97.82 E2.7687
G1 X118.836 Y97.82 E3.99172
G1 X118.85 Y85.997 E4.41297
G1 X118.924 Y85.729 E4.42288
G1 X119.189 Y85.242 E4.44263
G1 X120.638 Y83.804 E4.51537
G1 X121.084 Y83.569 E4.53333
G1 X121.473 Y83.482 E4.54753
G1 X138.451 Y83.485 E5.15245
G1 X138.804 Y83.57 E5.16539
G1 X139.29 Y83.835 E5.18511
G1 X140.698 Y85.243 E5.25606
G1 X140.998 Y85.832 E5.27961
G1 X141.05 Y86.123 E5.29014
G1 X141.05 Y91.456 E5.48015
G1 X150.535 Y91.469 E5.8181
G1 X150.803 Y91.543 E5.82801
G1 X151.29 Y91.808 E5.84776
G1 X152.678 Y93.197 E5.91772
G1 X152.823 Y93.393 E5.92641
G1 X153.05 Y94.067 E5.95175
G1 X153.036 Y101.837 E6.22859
G1 X152.963 Y102.104 E6.23845
G1 X152.697 Y102.592 E6.25825
G1 X151.309 Y103.98 E6.32819
G1 X151.112 Y104.124 E6.33688
G1 X150.438 Y104.352 E6.36223
G1 X134.05 Y104.352 E6.94613
G1 X134.05 Y107.397 E7.05462
G1 X133.963 Y107.785 E7.06879
G1 X133.697 Y108.274 E7.08862
G1 X132.29 Y109.681 E7.15952
G1 X131.802 Y109.947 E7.17932
G1 X131.413 Y110.034 E7.19352
G1 X91.458 Y110.034 E8.6171
G1 X91.458 Y109.677 F4200
G1 F720
G1 X84.554 Y109.677 E8.86309
G1 X84.291 Y109.62 E8.87268
G1 X83.891 Y109.409 E8.88879
G1 X82.535 Y108.052 E8.95714
G1 X82.389 Y107.826 E8.96673
G1 X82.256 Y107.394 E8.98283
G1 X82.264 Y100.401 E9.23199
G1 X82.312 Y100.213 E9.2389
G1 X82.524 Y99.813 E9.25503
G1 X83.88 Y98.456 E9.32338
G1 X84.107 Y98.311 E9.33298
G1 X84.538 Y98.177 E9.34906
G1 X119.193 Y98.177 E10.5838
G1 X119.202 Y86.063 E11.01542
G1 X119.25 Y85.875 E11.02233
G1 X119.462 Y85.475 E11.03846
G1 X120.829 Y84.107 E11.10737
G1 X121.228 Y83.896 E11.12345
G1 X121.492 Y83.839 E11.13307
G1 X138.43 Y83.842 E11.73656
G1 X138.659 Y83.896 E11.74494
G1 X139.057 Y84.107 E11.76099
G1 X140.424 Y85.474 E11.82987
G1 X140.665 Y85.963 E11.84929
G1 X140.693 Y86.136 E11.85553
G1 X140.693 Y91.812 E12.05776
G1 X150.469 Y91.821 E12.40607
G1 X150.657 Y91.869 E12.41298
G1 X151.057 Y92.081 E12.42911
G1 X152.415 Y93.438 E12.49751
G1 X152.518 Y93.58 E12.50376
G1 X152.693 Y94.097 E12.52321
G1 X152.685 Y101.771 E12.79663
G1 X152.636 Y101.958 E12.80352
G1 X152.425 Y102.359 E12.81966
G1 X151.067 Y103.717 E12.88809
G1 X150.925 Y103.819 E12.89432
G1 X150.409 Y103.994 E12.91373
G1 X133.693 Y103.994 E13.50931
G1 X133.693 Y107.378 E13.62988
G1 X133.636 Y107.642 E13.6395
G1 X133.425 Y108.041 E13.65558
G1 X132.057 Y109.409 E13.72451
G1 X131.658 Y109.62 E13.74059
G1 X131.395 Y109.677 E13.75018
G1 X91.518 Y109.677 E15.17098
G1 X91.518 Y109.32 F4200
G1 F720
G1 X84.572 Y109.32 E15.41846
G1 X84.429 Y109.29 E15.42367
G1 X84.122 Y109.135 E15.43592
G1 X82.8 Y107.812 E15.50256
G1 X82.72 Y107.69 E15.50776
G1 X82.613 Y107.364 E15.51998
G1 X82.616 Y100.461 E15.76593
G1 X82.642 Y100.352 E15.76992
G1 X82.797 Y100.044 E15.78221
G1 X84.12 Y98.721 E15.84887
G1 X84.242 Y98.641 E15.85407
G1 X84.568 Y98.534 E15.86629
G1 X119.55 Y98.534 E17.11268
G1 X119.554 Y86.123 E17.55488
G1 X119.579 Y86.014 E17.55886
G1 X119.735 Y85.706 E17.57116
G1 X121.06 Y84.381 E17.63792
G1 X121.366 Y84.226 E17.65014
G1 X121.51 Y84.196 E17.65538
G1 X138.41 Y84.2 E18.25752
G1 X138.518 Y84.225 E18.26147
G1 X138.826 Y84.381 E18.27377
G1 X140.15 Y85.705 E18.34048
G1 X140.318 Y86.05 E18.35415
G1 X140.336 Y86.152 E18.35784
G1 X140.336 Y92.169 E18.57222
G1 X150.41 Y92.173 E18.93115
G1 X150.518 Y92.199 E18.93511
G1 X150.826 Y92.354 E18.9474
G1 X152.151 Y93.679 E19.01416
G1 X152.211 Y93.764 E19.01787
G1 X152.336 Y94.127 E19.03155
G1 X152.332 Y101.711 E19.30176
G1 X152.307 Y101.819 E19.30571
G1 X152.151 Y102.128 E19.31804
G1 X150.826 Y103.452 E19.38478
G1 X150.741 Y103.512 E19.38849
G1 X150.379 Y103.637 E19.40214
G1 X133.336 Y103.637 E20.00937
G1 X133.336 Y107.361 E20.14205
G1 X133.306 Y107.504 E20.14726
G1 X133.151 Y107.81 E20.15948
G1 X131.826 Y109.135 E20.22624
G1 X131.52 Y109.29 E20.23846
G1 X131.377 Y109.32 E20.24367
G1 X91.578 Y109.32 E21.66169
G1 X91.578 Y108.963 F4200
G1 F720
G1 X84.588 Y108.963 E21.91074
G1 X84.351 Y108.859 E21.91996
G1 X83.064 Y107.572 E21.98481
G1 X82.97 Y107.331 E21.99403
G1 X82.97 Y100.51 E22.23706
G1 X83.073 Y100.273 E22.24627
G1 X84.361 Y98.986 E22.31114
G1 X84.602 Y98.891 E22.32037
G1 X119.908 Y98.891 E23.57831
G1 X119.908 Y86.172 E24.03148
G1 X120.011 Y85.935 E24.04069
G1 X121.289 Y84.657 E24.10509
G1 X121.496 Y84.559 E24.11325
G1 X138.39 Y84.559 E24.71518
G1 X138.597 Y84.657 E24.72334
G1 X139.875 Y85.935 E24.78774
G1 X139.979 Y86.172 E24.79696
G1 X139.979 Y91.992 E25.00432
G1 X139.902 Y92.207 E25.01246
G1 X139.687 Y92.527 E25.0262
G1 X150.36 Y92.527 E25.40647
G1 X150.597 Y92.63 E25.41568
G1 X151.885 Y93.918 E25.48058
G1 X151.979 Y94.159 E25.4898
G1 X151.979 Y101.662 E25.75713
G1 X151.875 Y101.899 E25.76635
G1 X150.588 Y103.186 E25.8312
G1 X150.347 Y103.28 E25.84042
G1 X132.979 Y103.28 E26.45923
G1 X132.973 Y107.374 E26.6051
G1 X132.875 Y107.581 E26.61326
G1 X131.597 Y108.859 E26.67766
G1 X131.39 Y108.957 E26.68582
G1 X91.638 Y108.963 E28.10217
G1 X91.638 Y108.606 F4200
G1 F720
G1 X84.641 Y108.606 E28.35147
G1 X84.576 Y108.578 E28.35399
G1 X83.354 Y107.357 E28.41554
G1 X83.327 Y107.291 E28.41808
G1 X83.327 Y100.563 E28.6578
G1 X83.354 Y100.497 E28.66034
G1 X84.576 Y99.276 E28.72189
G1 X84.641 Y99.248 E28.72441
G1 X120.265 Y99.248 E29.99368
G1 X120.265 Y86.225 E30.45768
G1 X120.292 Y86.159 E30.46022
G1 X121.514 Y84.937 E30.52179
G1 X121.579 Y84.91 E30.5243
G1 X138.307 Y84.91 E31.12031
G1 X138.373 Y84.937 E31.12285
G1 X139.595 Y86.159 E31.18442
G1 X139.622 Y86.225 E31.18696
G1 X139.622 Y91.953 E31.39105
G1 X139.595 Y92.018 E31.39356
G1 X138.729 Y92.884 E31.4372
G1 X150.307 Y92.884 E31.84972
G1 X150.373 Y92.911 E31.85226
G1 X151.595 Y94.133 E31.91383
G1 X151.622 Y94.198 E31.91634
G1 X151.622 Y101.609 E32.18039
G1 X151.595 Y101.674 E32.1829
G1 X150.373 Y102.896 E32.24447
G1 X150.307 Y102.923 E32.24701
G1 X132.622 Y102.923 E32.87712
G1 X132.622 Y107.291 E33.03275
G1 X132.595 Y107.357 E33.03529
G1 X131.373 Y108.578 E33.09684
G1 X131.307 Y108.606 E33.09939
G1 X91.698 Y108.606 E34.51064
G1 E32.51064 F1800
G92 E0
G1 X226.128 Y66.677 F4200
G1 E2 F1800
G1 F720
G1 X226.055 Y66.409 E2.0099
G1 X226.041 Y59.349 E2.26145
G1 X226.078 Y59.108 E2.27014
G1 X226.394 Y58.471 E2.29548
G1 X227.801 Y57.064 E2.36638
G1 X228.288 Y56.798 E2.38615
G1 X228.556 Y56.724 E2.39606
G1 X275.678 Y56.724 E4.075
G1 X275.945 Y56.798 E4.08487
G1 X276.433 Y57.064 E4.10467
G1 X277.84 Y58.47 E4.17554
G1 X278.106 Y58.959 E4.19537
G1 X278.193 Y59.347 E4.20954
G1 X278.193 Y62.393 E4.31807
G1 X294.678 Y62.407 E4.90542
G1 X294.945 Y62.48 E4.91528
