; generated by CreatWare 7.0.0 on 2022-06-29 at 05:29:15 UTC

; 

; external perimeters extrusion width = 0.40mm
; perimeters extrusion width = 0.40mm
; infill extrusion width = 0.40mm
; solid infill extrusion width = 0.40mm
; top infill extrusion width = 0.40mm
; support material extrusion width = 0.40mm

; external perimeters extrusion width = 0.40mm
; perimeters extrusion width = 0.40mm
; infill extrusion width = 0.40mm
; solid infill extrusion width = 0.40mm
; top infill extrusion width = 0.40mm
; support material extrusion width = 0.40mm

; external perimeters extrusion width = 0.40mm
; perimeters extrusion width = 0.40mm
; infill extrusion width = 0.40mm
; solid infill extrusion width = 0.40mm
; top infill extrusion width = 0.40mm
; support material extrusion width = 0.40mm

G21 ; set units to millimeters
G90 ; use absolute coordinates
M82 ; use absolute distances for extrusion
G92 E0
M107
M190 S45 ; set bed temperature and wait for it to be reached
M104 S210 ; set temperature
;TYPE:Custom
M109 S210 ; set temperature and wait for it to be reached
M6013 S0 ; set chamber temp

G28 X0 Y0  ;move X/Y to min endstops
G28 Z0     ;move Z to min endstops

;Add Clear Nozzle
G92 E0                   ;zero the extruded length again
G0 F4200 X0 Y0
G0 F400 X10 Z0.4         ;move a bit while down the Z
M221 T0 S300             ;set flow is 300%
G1 F200 X30 E8          ;extrude amont filament to clean the hotend
M221 T0 S100             ;reset flow is 100%
G92 E0                   ;zero the extruded length again
;Add End

G0 Z15.0 F4200 ;move the platform down 15mm

;Put printing message on LCD screen
M117 Printing...
; Filament gcode
M107
;LAYER_CHANGE
;Layer 1
;Z:0.1
;HEIGHT:0.1
;BEFORE_LAYER_CHANGE
;0.1


G1 Z.1 F4200
;AFTER_LAYER_CHANGE
;G92 E0   ;zero the extruded length again
;0.1
G1 E-2 F1800
G92 E0
G1 X189.49 Y141.279 F4200
G1 E2 F1800
;TYPE:Skirt/Brim
;WIDTH:0.4
G1 F720
G1 X191.833 Y138.936 E2.06258
G1 X193.68 Y137.651 E2.10507
G1 X196.343 Y137.068 E2.15655
G1 X203.763 Y137.069 E2.29668
G1 X215.813 Y137.284 E2.52429
G1 X218.019 Y137.723 E2.56677
G1 X220.201 Y139.151 E2.61602
G1 X222.544 Y141.494 E2.6786
G1 X223.829 Y143.341 E2.72109
G1 X224.412 Y146.005 E2.77259
G1 X224.412 Y154.425 E2.93161
G1 X224.015 Y156.64 E2.97411
G1 X222.544 Y158.936 E3.02561
G1 X220.201 Y161.279 E3.08819
G1 X218.354 Y162.564 E3.13068
G1 X215.69 Y163.147 E3.18218
G1 X208.263 Y163.146 E3.32244
G1 X196.229 Y162.931 E3.54974
G1 X194.022 Y162.495 E3.59223
G1 X191.833 Y161.064 E3.64162
G1 X189.49 Y158.721 E3.7042
G1 X188.204 Y156.874 E3.7467
G1 X187.621 Y154.21 E3.7982
G1 X187.621 Y145.79 E3.95722
G1 X188.018 Y143.575 E3.99972
G1 X189.457 Y141.33 E4.05008
G1 E2.05008 F1800
G92 E0
G1 X194.691 Y145.518 F4200
G1 E2 F1800
G1 F720
G1 X196.073 Y144.136 E2.03691
G1 X196.416 Y143.915 E2.04462
G1 X196.801 Y143.777 E2.05234
G1 X203.113 Y143.759 E2.17155
G1 X203.402 Y143.844 E2.17724
G1 X209.12 Y143.844 E2.28523
G1 X209.515 Y143.958 E2.29299
G1 X215.038 Y143.958 E2.39729
G1 X215.601 Y144.124 E2.40838
G1 X215.894 Y144.297 E2.41481
G1 X217.395 Y145.798 E2.4549
G1 X217.57 Y146.09 E2.46133
G1 X217.737 Y146.657 E2.47249
G1 X217.737 Y153.773 E2.60688
G1 X217.571 Y154.336 E2.61797
G1 X217.398 Y154.629 E2.6244
G1 X215.897 Y156.13 E2.66449
G1 X215.605 Y156.305 E2.67092
G1 X215.038 Y156.472 E2.68208
G1 X209.025 Y156.472 E2.79564
G1 X208.63 Y156.358 E2.8034
G1 X203.107 Y156.358 E2.9077
G1 X202.734 Y156.257 E2.915
G1 X196.995 Y156.257 E3.02338
G1 X196.432 Y156.091 E3.03447
G1 X196.139 Y155.918 E3.0409
G1 X194.639 Y154.417 E3.08098
G1 X194.463 Y154.124 E3.08743
G1 X194.305 Y153.613 E3.09753
G1 X194.297 Y146.441 E3.23298
G1 X194.538 Y145.727 E3.24721
G1 X194.655 Y145.567 E3.25095
G1 X194.961 Y145.787 F4200
G1 F720
G1 X196.327 Y144.417 E3.28749
G1 X196.564 Y144.263 E3.29283
G1 X196.898 Y144.144 E3.29953
G1 X203.032 Y144.13 E3.41537
G1 X203.347 Y144.223 E3.42157
G1 X209.089 Y144.223 E3.53001
G1 X209.456 Y144.337 E3.53727
G1 X215.009 Y144.337 E3.64214
G1 X215.468 Y144.478 E3.65121
G1 X215.644 Y144.583 E3.65508
G1 X217.086 Y146.018 E3.6935
G1 X217.217 Y146.227 E3.69816
G1 X217.358 Y146.686 E3.70723
G1 X217.358 Y153.744 E3.84052
G1 X217.217 Y154.203 E3.84959
G1 X217.112 Y154.379 E3.85346
G1 X215.677 Y155.821 E3.89188
G1 X215.468 Y155.952 E3.89654
G1 X215.009 Y156.093 E3.90561
G1 X209.056 Y156.093 E4.01803
G1 X208.689 Y155.98 E4.02528
G1 X203.136 Y155.98 E4.13015
G1 X202.791 Y155.878 E4.13694
G1 X197.025 Y155.878 E4.24583
G1 X196.566 Y155.737 E4.2549
G1 X196.389 Y155.632 E4.25879
G1 X194.947 Y154.197 E4.29721
G1 X194.817 Y153.988 E4.30186
G1 X194.675 Y153.529 E4.31093
G1 X194.675 Y146.473 E4.44419
G1 X194.861 Y145.925 E4.45512
G1 X194.926 Y145.836 E4.4572
G1 X195.234 Y146.053 F4200
G1 F720
G1 X196.581 Y144.698 E4.49328
G1 X196.713 Y144.612 E4.49626
G1 X196.995 Y144.511 E4.50192
G1 X202.976 Y144.504 E4.61487
G1 X203.261 Y144.601 E4.62056
G1 X209.056 Y144.601 E4.73
G1 X209.391 Y144.715 E4.73668
G1 X214.977 Y144.715 E4.84217
G1 X215.325 Y144.829 E4.84909
G1 X215.425 Y144.892 E4.85132
G1 X216.782 Y146.243 E4.88748
G1 X216.866 Y146.372 E4.89039
G1 X216.98 Y146.718 E4.89727
G1 X216.98 Y153.712 E5.02935
G1 X216.866 Y154.06 E5.03627
G1 X216.803 Y154.16 E5.0385
G1 X215.452 Y155.517 E5.07466
G1 X215.322 Y155.601 E5.07758
G1 X214.977 Y155.715 E5.08444
G1 X209.089 Y155.715 E5.19564
G1 X208.754 Y155.601 E5.20232
G1 X203.168 Y155.601 E5.30781
G1 X202.852 Y155.5 E5.31408
G1 X197.057 Y155.5 E5.42352
G1 X196.709 Y155.386 E5.43044
G1 X196.608 Y155.323 E5.43269
G1 X195.252 Y153.972 E5.46884
G1 X195.167 Y153.843 E5.47176
G1 X195.054 Y153.497 E5.47863
G1 X195.054 Y146.505 E5.61068
G1 X195.199 Y146.102 E5.61877
G1 X195.514 Y146.31 F4200
G1 F720
G1 X196.836 Y144.978 E5.65421
G1 X197.092 Y144.879 E5.65939
G1 X202.922 Y144.879 E5.76949
G1 X203.185 Y144.98 E5.77481
G1 X209.018 Y144.98 E5.88497
G1 X209.319 Y145.094 E5.89105
G1 X214.942 Y145.094 E5.99724
G1 X215.197 Y145.193 E6.00241
G1 X216.501 Y146.498 E6.03725
G1 X216.601 Y146.753 E6.04242
G1 X216.601 Y153.677 E6.17318
G1 X216.501 Y153.932 E6.17835
G1 X215.197 Y155.236 E6.21318
G1 X214.942 Y155.336 E6.21835
G1 X209.127 Y155.336 E6.32817
G1 X208.827 Y155.223 E6.33422
G1 X203.204 Y155.223 E6.44041
G1 X202.922 Y155.121 E6.44607
G1 X197.092 Y155.121 E6.55617
G1 X196.836 Y155.022 E6.56135
G1 X195.532 Y153.717 E6.59619
G1 X195.432 Y153.462 E6.60136
G1 X195.432 Y146.538 E6.73212
G1 X195.494 Y146.367 E6.73556
G1 X195.84 Y146.511 F4200
G1 F720
G1 X197.064 Y145.286 E6.76826
G1 X197.134 Y145.257 E6.76969
G1 X202.866 Y145.257 E6.87794
G1 X202.936 Y145.286 E6.87937
G1 X203.078 Y145.428 E6.88316
G1 X203.246 Y145.359 E6.88659
G1 X208.978 Y145.359 E6.99484
G1 X209.047 Y145.387 E6.99625
G1 X209.132 Y145.472 E6.99852
G1 X214.9 Y145.472 E7.10745
G1 X214.969 Y145.501 E7.10886
G1 X216.194 Y146.726 E7.14158
G1 X216.223 Y146.795 E7.14299
G1 X216.223 Y153.635 E7.27217
G1 X216.194 Y153.704 E7.27358
G1 X214.969 Y154.929 E7.3063
G1 X214.9 Y154.958 E7.30771
G1 X209.167 Y154.958 E7.41598
G1 X209.098 Y154.929 E7.41739
G1 X209.013 Y154.844 E7.41966
G1 X203.246 Y154.844 E7.52857
G1 X203.176 Y154.815 E7.53
G1 X203.034 Y154.673 E7.53379
G1 X202.866 Y154.743 E7.53723
G1 X197.134 Y154.743 E7.64548
G1 X197.064 Y154.714 E7.64691
G1 X195.84 Y153.489 E7.67961
G1 X195.811 Y153.42 E7.68102
G1 X195.817 Y146.566 E7.81046
G1 E5.81046 F1800
G92 E0
G1 X201.686 Y148.572 F4200
G1 E2 F1800
;TYPE:Solid infill
;WIDTH:0.421917
G1 F720
G1 X201.045 Y147.93 E2.01813
G1 X200.479 Y147.93 E2.02944
G1 X201.516 Y148.968 E2.05875
G1 X201.516 Y149.534 E2.07006
G1 X199.912 Y147.93 E2.11538
G1 X199.346 Y147.93 E2.12669
G1 X201.516 Y150.1 E2.188
G1 X201.516 Y150.667 E2.19933
G1 X198.78 Y147.93 E2.27665
G1 X198.484 Y147.93 E2.28256
G1 X198.484 Y148.201 E2.28797
G1 X199.848 Y149.565 E2.32651
G1 X199.743 Y149.578 E2.32862
G1 X199.505 Y149.677 E2.33377
G1 X199.442 Y149.725 E2.33535
G1 X198.484 Y148.767 E2.36242
G1 X198.484 Y149.333 E2.37373
G1 X199.287 Y150.137 E2.39643
G1 E.39643 F1800
G92 E0
G1 X200.815 Y150.532 F4200
G1 E2 F1800
G1 F720
G1 X201.516 Y151.233 E2.01981
G1 X201.516 Y151.799 E2.03112
G1 X200.806 Y151.089 E2.05118
G1 X200.7 Y151.23 E2.0547
G1 X200.519 Y151.369 E2.05926
G1 X201.22 Y152.07 E2.07907
G1 X200.654 Y152.07 E2.09038
G1 X200.093 Y151.509 E2.10623
G1 X199.999 Y151.521 E2.10812
G1 X199.743 Y151.487 E2.11328
G1 X199.505 Y151.388 E2.11843
G1 X199.301 Y151.231 E2.12357
G1 X199.143 Y151.027 E2.12873
G1 X199.045 Y150.788 E2.13389
G1 X199.011 Y150.533 E2.13903
G1 X199.023 Y150.439 E2.14092
G1 X198.484 Y149.9 E2.15615
G1 X198.484 Y150.466 E2.16746
G1 X200.087 Y152.07 E2.21277
G1 X199.521 Y152.07 E2.22408
G1 X198.484 Y151.032 E2.25339
G1 X198.484 Y151.599 E2.26472
G1 X199.125 Y152.24 E2.28283
G1 E.28283 F1800
G92 E0
G1 X198.2 Y152.354 F4200
G1 E2 F1800
;TYPE:External perimeter
;WIDTH:0.4
G1 F270
G1 X198.2 Y147.646 E2.08891
G1 X201.8 Y147.646 E2.1569
G1 X201.8 Y152.354 E2.24581
G1 X198.26 Y152.354 E2.31266
G1 E.31266 F1800
G92 E0
G1 X199.503 Y151.029 F4200
G1 E2 F1800
G1 F270
G1 X199.391 Y150.884 E2.00346
G1 X199.321 Y150.714 E2.00693
G1 X199.297 Y150.533 E2.01038
G1 X199.321 Y150.351 E2.01385
G1 X199.391 Y150.182 E2.0173
G1 X199.503 Y150.037 E2.02076
G1 X199.648 Y149.925 E2.02422
G1 X199.818 Y149.855 E2.02769
G1 X199.992 Y149.832 E2.031
G1 X200.18 Y149.854 E2.03457
G1 X200.35 Y149.925 E2.03805
G1 X200.495 Y150.037 E2.04151
G1 X200.607 Y150.182 E2.04497
G1 X200.677 Y150.351 E2.04842
G1 X200.701 Y150.533 E2.05189
G1 X200.677 Y150.714 E2.05534
G1 X200.61 Y150.877 E2.05867
G1 X200.496 Y151.028 E2.06224
G1 X200.35 Y151.14 E2.06572
G1 X200.181 Y151.211 E2.06918
G1 X199.999 Y151.234 E2.07264
G1 X199.818 Y151.211 E2.07609
G1 X199.648 Y151.14 E2.07957
G1 X199.551 Y151.065 E2.08189
G1 E.08189 F1800
G92 E0
G1 X207.798 Y148.673 F4200
G1 E2 F1800
;TYPE:Solid infill
;WIDTH:0.421917
G1 F720
G1 X207.157 Y148.032 E2.01811
G1 X206.591 Y148.032 E2.02942
G1 X207.628 Y149.069 E2.05872
G1 X207.628 Y149.635 E2.07003
G1 X206.024 Y148.032 E2.11534
G1 X205.458 Y148.032 E2.12665
G1 X207.628 Y150.202 E2.18796
G1 X207.628 Y150.768 E2.19927
G1 X204.892 Y148.032 E2.27657
G1 X204.596 Y148.032 E2.28248
G1 X204.596 Y148.302 E2.28787
G1 X205.96 Y149.666 E2.32641
G1 X205.855 Y149.68 E2.32853
G1 X205.617 Y149.778 E2.33367
G1 X205.554 Y149.827 E2.33526
G1 X204.596 Y148.869 E2.36233
G1 X204.596 Y149.435 E2.37364
G1 X205.399 Y150.238 E2.39633
G1 E.39633 F1800
G92 E0
G1 X206.927 Y150.634 F4200
G1 E2 F1800
G1 F720
G1 X207.628 Y151.334 E2.01979
G1 X207.628 Y151.901 E2.03112
G1 X206.917 Y151.19 E2.05121
G1 X206.812 Y151.331 E2.05472
G1 X206.631 Y151.47 E2.05928
G1 X207.332 Y152.171 E2.07909
G1 X206.766 Y152.171 E2.0904
G1 X206.204 Y151.61 E2.10626
G1 X206.111 Y151.622 E2.10813
G1 X205.855 Y151.589 E2.11329
G1 X205.617 Y151.49 E2.11844
G1 X205.412 Y151.333 E2.1236
G1 X205.255 Y151.128 E2.12876
G1 X205.157 Y150.89 E2.1339
G1 X205.123 Y150.634 E2.13906
G1 X205.135 Y150.541 E2.14093
G1 X204.596 Y150.001 E2.15617
G1 X204.596 Y150.567 E2.16748
G1 X206.199 Y152.171 E2.21279
G1 X205.633 Y152.171 E2.2241
G1 X204.596 Y151.134 E2.2534
G1 X204.596 Y151.7 E2.26471
G1 X205.237 Y152.341 E2.28282
G1 E.28282 F1800
G92 E0
G1 X204.312 Y152.455 F4200
G1 E2 F1800
;TYPE:External perimeter
;WIDTH:0.4
G1 F270
G1 X204.312 Y147.748 E2.08889
G1 X207.912 Y147.748 E2.15688
G1 X207.912 Y152.455 E2.24577
G1 X204.372 Y152.455 E2.31262
G1 E.31262 F1800
G92 E0
G1 X205.615 Y151.13 F4200
G1 E2 F1800
G1 F270
G1 X205.503 Y150.985 E2.00346
G1 X205.433 Y150.816 E2.00691
G1 X205.409 Y150.634 E2.01038
G1 X205.433 Y150.453 E2.01383
G1 X205.503 Y150.283 E2.0173
G1 X205.615 Y150.138 E2.02076
G1 X205.76 Y150.026 E2.02422
G1 X205.929 Y149.956 E2.02767
G1 X206.104 Y149.933 E2.031
G1 X206.291 Y149.956 E2.03456
G1 X206.462 Y150.026 E2.03805
G1 X206.607 Y150.138 E2.04151
G1 X206.719 Y150.283 E2.04497
G1 X206.789 Y150.453 E2.04844
G1 X206.813 Y150.634 E2.05189
G1 X206.789 Y150.816 E2.05536
G1 X206.721 Y150.978 E2.05868
G1 X206.608 Y151.13 E2.06226
G1 X206.462 Y151.242 E2.06574
G1 X206.293 Y151.312 E2.06919
G1 X206.111 Y151.336 E2.07266
G1 X205.929 Y151.312 E2.07613
G1 X205.76 Y151.242 E2.07958
G1 X205.662 Y151.167 E2.08191
G1 E.08191 F1800
G92 E0
G1 X213.72 Y148.787 F4200
G1 E2 F1800
;TYPE:Solid infill
;WIDTH:0.421917
G1 F720
G1 X213.079 Y148.145 E2.01813
G1 X212.512 Y148.145 E2.02946
G1 X213.55 Y149.183 E2.05879
G1 X213.55 Y149.749 E2.0701
G1 X211.946 Y148.145 E2.11542
G1 X211.38 Y148.145 E2.12673
G1 X213.55 Y150.315 E2.18804
G1 X213.55 Y150.882 E2.19937
G1 X210.813 Y148.145 E2.2767
G1 X210.517 Y148.145 E2.28261
G1 X210.517 Y148.416 E2.28802
G1 X211.881 Y149.78 E2.32656
G1 X211.777 Y149.793 E2.32865
G1 X211.539 Y149.892 E2.3338
G1 X211.476 Y149.94 E2.33538
G1 X210.517 Y148.982 E2.36246
G1 X210.517 Y149.548 E2.37377
G1 X211.321 Y150.352 E2.39649
G1 E.39649 F1800
G92 E0
G1 X212.849 Y150.747 F4200
G1 E2 F1800
G1 F720
G1 X213.55 Y151.448 E2.01981
G1 X213.55 Y152.014 E2.03112
G1 X212.839 Y151.304 E2.05119
G1 X212.734 Y151.445 E2.0547
G1 X212.553 Y151.584 E2.05926
G1 X213.254 Y152.285 E2.07907
G1 X212.687 Y152.285 E2.0904
G1 X212.126 Y151.724 E2.10625
G1 X212.033 Y151.736 E2.10812
G1 X211.777 Y151.702 E2.11328
G1 X211.539 Y151.603 E2.11843
G1 X211.334 Y151.446 E2.12359
G1 X211.177 Y151.242 E2.12873
G1 X211.078 Y151.003 E2.1339
G1 X211.045 Y150.748 E2.13904
G1 X211.057 Y150.654 E2.14093
G1 X210.517 Y150.115 E2.15617
G1 X210.517 Y150.681 E2.16748
G1 X212.121 Y152.285 E2.2128
G1 X211.555 Y152.285 E2.22411
G1 X210.517 Y151.247 E2.25344
G1 X210.517 Y151.814 E2.26477
G1 X211.159 Y152.455 E2.2829
G1 E.2829 F1800
G92 E0
G1 X210.233 Y152.569 F4200
G1 E2 F1800
;TYPE:External perimeter
;WIDTH:0.4
G1 F270
G1 X210.233 Y147.861 E2.08891
G1 X213.833 Y147.861 E2.1569
G1 X213.833 Y152.569 E2.24581
G1 X210.293 Y152.569 E2.31266
G1 E.31266 F1800
G92 E0
G1 X211.536 Y151.244 F4200
G1 E2 F1800
G1 F270
G1 X211.425 Y151.099 E2.00345
G1 X211.355 Y150.929 E2.00692
G1 X211.331 Y150.748 E2.01037
G1 X211.355 Y150.566 E2.01384
G1 X211.425 Y150.397 E2.01729
G1 X211.536 Y150.252 E2.02074
G1 X211.682 Y150.14 E2.02422
G1 X211.851 Y150.07 E2.02767
G1 X212.025 Y150.047 E2.03098
G1 X212.213 Y150.069 E2.03455
G1 X212.383 Y150.14 E2.03803
G1 X212.529 Y150.252 E2.04151
G1 X212.64 Y150.397 E2.04496
G1 X212.71 Y150.566 E2.04841
G1 X212.734 Y150.748 E2.05188
G1 X212.71 Y150.929 E2.05533
G1 X212.643 Y151.092 E2.05866
G1 X212.53 Y151.243 E2.06222
G1 X212.383 Y151.355 E2.06571
G1 X212.214 Y151.426 E2.06917
G1 X212.033 Y151.449 E2.07262
G1 X211.851 Y151.426 E2.07608
G1 X211.682 Y151.355 E2.07954
G1 X211.584 Y151.28 E2.08187
;LAYER_CHANGE
;Layer 2
;Z:0.2
;HEIGHT:0.1
;BEFORE_LAYER_CHANGE
;0.2


G1 Z.2 F4200
;AFTER_LAYER_CHANGE
;G92 E0   ;zero the extruded length again
;0.2
G1 E.08187 F1800
G92 E0
G1 X200.875 Y152.24 F4200
G1 E2 F1800
;TYPE:Solid infill
;WIDTH:0.421917
G1 F2400
G1 X201.516 Y151.599 E2.01509
G1 X201.516 Y151.032 E2.02453
G1 X200.479 Y152.07 E2.04896
G1 X199.912 Y152.07 E2.0584
G1 X201.516 Y150.466 E2.09617
G1 X201.516 Y149.9 E2.10559
G1 X200.975 Y150.441 E2.11833
G1 X200.987 Y150.533 E2.11987
G1 X200.954 Y150.788 E2.12415
G1 X200.855 Y151.027 E2.12846
G1 X200.698 Y151.231 E2.13275
G1 X200.493 Y151.388 E2.13705
G1 X200.255 Y151.487 E2.14134
G1 X199.999 Y151.521 E2.14564
G1 X199.907 Y151.509 E2.14718
G1 X199.346 Y152.07 E2.16039
G1 X198.78 Y152.07 E2.16981
G1 X199.48 Y151.369 E2.1863
G1 X199.301 Y151.231 E2.19006
G1 X199.192 Y151.091 E2.19301
G1 X198.484 Y151.799 E2.20968
G1 X198.484 Y151.233 E2.2191
G1 X199.183 Y150.534 E2.23556
G1 E.23556 F1800
G92 E0
G1 X200.712 Y150.138 F4200
G1 E2 F1800
G1 F2400
G1 X201.516 Y149.333 E2.01894
G1 X201.516 Y148.767 E2.02836
G1 X200.557 Y149.726 E2.05094
G1 X200.493 Y149.677 E2.05228
G1 X200.248 Y149.575 E2.0567
G1 X200.151 Y149.566 E2.05832
G1 X201.516 Y148.201 E2.09046
G1 X201.516 Y147.93 E2.09497
G1 X201.22 Y147.93 E2.0999
G1 X198.484 Y150.667 E2.16433
G1 X198.484 Y150.1 E2.17377
G1 X200.654 Y147.93 E2.22486
G1 X200.087 Y147.93 E2.2343
G1 X198.484 Y149.534 E2.27205
G1 X198.484 Y148.968 E2.28147
G1 X199.521 Y147.93 E2.3059
G1 X198.955 Y147.93 E2.31532
G1 X198.314 Y148.572 E2.33042
