; generated by CreatWare 7.0.0 on 2022-07-19 at 03:58:04 UTC

; 

; external perimeters extrusion width = 0.40mm
; perimeters extrusion width = 0.40mm
; infill extrusion width = 0.40mm
; solid infill extrusion width = 0.40mm
; top infill extrusion width = 0.40mm
; support material extrusion width = 0.40mm

; external perimeters extrusion width = 0.40mm
; perimeters extrusion width = 0.40mm
; infill extrusion width = 0.40mm
; solid infill extrusion width = 0.40mm
; top infill extrusion width = 0.40mm
; support material extrusion width = 0.40mm

; external perimeters extrusion width = 0.40mm
; perimeters extrusion width = 0.40mm
; infill extrusion width = 0.40mm
; solid infill extrusion width = 0.40mm
; top infill extrusion width = 0.40mm
; support material extrusion width = 0.40mm

; external perimeters extrusion width = 0.40mm
; perimeters extrusion width = 0.40mm
; infill extrusion width = 0.40mm
; solid infill extrusion width = 0.40mm
; top infill extrusion width = 0.40mm
; support material extrusion width = 0.40mm

; external perimeters extrusion width = 0.40mm
; perimeters extrusion width = 0.40mm
; infill extrusion width = 0.40mm
; solid infill extrusion width = 0.40mm
; top infill extrusion width = 0.40mm
; support material extrusion width = 0.40mm

; external perimeters extrusion width = 0.40mm
; perimeters extrusion width = 0.40mm
; infill extrusion width = 0.40mm
; solid infill extrusion width = 0.40mm
; top infill extrusion width = 0.40mm
; support material extrusion width = 0.40mm

G21 ; set units to millimeters
G90 ; use absolute coordinates
M82 ; use absolute distances for extrusion
G92 E0
M107
M190 S45 ; set bed temperature and wait for it to be reached
M104 S210 ; set temperature
;TYPE:Custom
M109 S210 ; set temperature and wait for it to be reached
M6013 S0 ; set chamber temp

G28 X0 Y0  ;move X/Y to min endstops
G28 Z0     ;move Z to min endstops

;Add Clear Nozzle
G92 E0                   ;zero the extruded length again
G0 F4200 X0 Y0
G0 F400 X10 Z0.4         ;move a bit while down the Z
M221 T0 S300             ;set flow is 300%
G1 F200 X30 E8          ;extrude amont filament to clean the hotend
M221 T0 S100             ;reset flow is 100%
G92 E0                   ;zero the extruded length again
;Add End

G0 Z15.0 F4200 ;move the platform down 15mm

;Put printing message on LCD screen
M117 Printing...
; Filament gcode
M107
;LAYER_CHANGE
;Layer 1
;Z:0.2
;HEIGHT:0.2
;BEFORE_LAYER_CHANGE
;0.2


G1 Z.2 F4200
;AFTER_LAYER_CHANGE
;G92 E0   ;zero the extruded length again
;0.2
G1 E-2 F1800
G92 E0
G1 X177.184 Y84.493 F4200
G1 E2 F1800
;TYPE:Skirt/Brim
;WIDTH:0.4
G1 F720
G1 X178.646 Y82.216 E2.09641
G1 X180.989 Y79.873 E2.21447
G1 X182.833 Y78.591 E2.29449
G1 X185.165 Y78.019 E2.38004
G1 X198.096 Y77.368 E2.84135
G1 X207.585 Y77.36 E3.17944
G1 X209.795 Y77.757 E3.25944
G1 X212.08 Y79.222 E3.35615
G1 X214.423 Y81.565 E3.47421
G1 X215.706 Y83.409 E3.55425
G1 X216.284 Y85.946 E3.64696
G1 X218.468 Y207.159 E7.96643
G1 X218.468 Y213.666 E8.19827
G1 X217.794 Y247.128 E9.39075
G1 X217.353 Y249.33 E9.47076
G1 X215.934 Y251.495 E9.56299
G1 X213.591 Y253.838 E9.68105
G1 X211.747 Y255.121 E9.76109
G1 X209.745 Y255.667 E9.83503
G1 X197.409 Y256.9 E10.27675
G1 X192.095 Y256.9 E10.46609
G1 X186.375 Y256.37 E10.67076
G1 X184.213 Y255.759 E10.75081
G1 X182.5 Y254.538 E10.82576
G1 X180.157 Y252.195 E10.94382
G1 X178.874 Y250.351 E11.02386
G1 X178.296 Y247.779 E11.11778
G1 X176.745 Y124.016 E15.52775
G1 X176.784 Y86.703 E16.8572
G1 X177.173 Y84.552 E16.93508
G1 E14.93508 F1800
G92 E0
G1 X187.682 Y239.436 F4200
G1 E2 F1800
G1 F720
G1 X199.443 Y239.436 E2.41904
G1 X199.888 Y239.031 E2.44048
G1 X200.237 Y238.866 E2.45423
G1 X200.613 Y238.785 E2.46793
G1 X208.446 Y238.788 E2.74702
G1 X208.799 Y238.873 E2.75996
G1 X209.285 Y239.138 E2.77968
G1 X210.692 Y240.545 E2.85058
G1 X210.959 Y241.033 E2.8704
G1 X211.045 Y241.422 E2.88459
G1 X211.045 Y246.311 E3.05878
G1 X211.008 Y246.552 E3.06747
G1 X210.693 Y247.19 E3.09282
G1 X209.285 Y248.597 E3.16374
G1 X208.797 Y248.863 E3.18354
G1 X208.409 Y248.95 E3.19771
G1 X198.446 Y248.95 E3.55269
G1 X197.599 Y249.797 E3.59537
G1 X196.962 Y250.113 E3.62071
G1 X196.72 Y250.15 E3.62943
G1 X192.782 Y250.15 E3.76974
G1 X192.406 Y250.069 E3.78344
G1 X192.057 Y249.904 E3.79719
G1 X191.765 Y249.65 E3.81098
G1 X187.682 Y249.65 E3.95646
G1 X187.294 Y249.563 E3.97063
G1 X186.805 Y249.297 E3.99046
G1 X185.398 Y247.89 E4.06136
G1 X185.132 Y247.401 E4.08119
G1 X185.045 Y247.013 E4.09536
G1 X185.045 Y242.075 E4.2713
G1 X185.082 Y241.833 E4.28002
G1 X185.398 Y241.196 E4.30536
G1 X186.805 Y239.789 E4.37626
G1 X187.294 Y239.523 E4.39609
G1 X187.624 Y239.449 E4.40814
G1 X187.698 Y239.794 F4200
G1 F720
G1 X199.586 Y239.793 E4.8317
G1 X200.067 Y239.341 E4.85522
G1 X200.371 Y239.198 E4.86719
G1 X200.632 Y239.142 E4.8767
G1 X208.426 Y239.145 E5.1544
G1 X208.654 Y239.199 E5.16275
G1 X209.053 Y239.41 E5.17883
G1 X210.42 Y240.777 E5.24771
G1 X210.631 Y241.177 E5.26382
G1 X210.688 Y241.44 E5.27341
G1 X210.688 Y246.296 E5.44643
G1 X210.66 Y246.469 E5.45267
G1 X210.419 Y246.958 E5.47209
G1 X209.053 Y248.324 E5.54092
G1 X208.653 Y248.535 E5.55703
G1 X208.39 Y248.593 E5.56663
G1 X198.298 Y248.593 E5.9262
G1 X197.367 Y249.524 E5.97311
G1 X196.878 Y249.765 E5.99253
G1 X196.705 Y249.793 E5.99877
G1 X192.8 Y249.793 E6.1379
G1 X192.54 Y249.737 E6.14738
G1 X192.235 Y249.593 E6.1594
G1 X191.906 Y249.293 E6.17526
G1 X187.701 Y249.293 E6.32508
G1 X187.437 Y249.235 E6.33471
G1 X187.038 Y249.024 E6.35079
G1 X185.671 Y247.657 E6.41967
G1 X185.46 Y247.258 E6.43575
G1 X185.402 Y246.994 E6.44538
G1 X185.402 Y242.09 E6.62011
G1 X185.43 Y241.917 E6.62635
G1 X185.671 Y241.428 E6.64577
G1 X187.038 Y240.061 E6.71465
G1 X187.437 Y239.85 E6.73073
G1 X187.64 Y239.806 E6.73813
G1 X187.712 Y240.152 F4200
G1 F720
G1 X199.733 Y240.15 E7.16643
G1 X200.248 Y239.651 E7.19198
G1 X200.504 Y239.53 E7.20207
G1 X200.65 Y239.499 E7.20739
G1 X208.405 Y239.502 E7.4837
G1 X208.513 Y239.528 E7.48766
G1 X208.822 Y239.684 E7.49999
G1 X210.146 Y241.009 E7.56673
G1 X210.301 Y241.315 E7.57895
G1 X210.331 Y241.458 E7.58416
G1 X210.331 Y246.28 E7.75597
G1 X210.313 Y246.382 E7.75966
G1 X210.145 Y246.727 E7.77333
G1 X208.822 Y248.051 E7.84002
G1 X208.515 Y248.206 E7.85227
G1 X208.372 Y248.236 E7.85748
G1 X198.15 Y248.236 E8.22169
G1 X197.136 Y249.25 E8.27278
G1 X196.791 Y249.418 E8.28645
G1 X196.689 Y249.436 E8.29014
G1 X192.818 Y249.436 E8.42806
G1 X192.673 Y249.405 E8.43334
G1 X192.416 Y249.284 E8.44346
G1 X192.052 Y248.936 E8.4614
G1 X187.718 Y248.936 E8.61582
G1 X187.575 Y248.906 E8.62103
G1 X187.269 Y248.751 E8.63325
G1 X185.944 Y247.426 E8.70001
G1 X185.789 Y247.12 E8.71223
G1 X185.759 Y246.977 E8.71744
G1 X185.759 Y242.106 E8.89099
G1 X185.777 Y242.004 E8.89468
G1 X185.945 Y241.659 E8.90835
G1 X187.269 Y240.335 E8.97506
G1 X187.575 Y240.18 E8.98728
G1 X187.653 Y240.164 E8.99012
G1 X187.722 Y240.51 F4200
G1 F720
G1 X199.882 Y240.507 E9.42338
G1 X200.429 Y239.96 E9.45094
G1 X200.666 Y239.856 E9.46016
G1 X208.386 Y239.862 E9.73522
G1 X208.593 Y239.96 E9.74338
G1 X209.87 Y241.238 E9.80775
G1 X209.968 Y241.445 E9.81591
G1 X209.968 Y246.29 E9.98854
G1 X209.87 Y246.497 E9.9967
G1 X208.593 Y247.775 E10.06107
G1 X208.386 Y247.872 E10.06921
G1 X198.002 Y247.878 E10.43919
G1 X196.906 Y248.975 E10.49444
G1 X196.669 Y249.078 E10.50365
G1 X192.835 Y249.078 E10.64025
G1 X192.598 Y248.975 E10.64946
G1 X192.202 Y248.578 E10.66944
G1 X187.705 Y248.572 E10.82967
G1 X187.498 Y248.475 E10.83781
G1 X186.22 Y247.197 E10.90221
G1 X186.117 Y246.96 E10.91142
G1 X186.123 Y242.096 E11.08472
G1 X186.22 Y241.889 E11.09286
G1 X187.498 Y240.611 E11.15726
G1 X187.667 Y240.531 E11.16392
G1 X187.788 Y240.864 F4200
G1 F720
G1 X200.03 Y240.864 E11.6001
G1 X200.654 Y240.24 E11.63154
G1 X200.72 Y240.213 E11.63408
G1 X208.302 Y240.213 E11.90422
G1 X208.368 Y240.24 E11.90676
G1 X209.59 Y241.462 E11.96833
G1 X209.617 Y241.528 E11.97087
G1 X209.617 Y246.207 E12.13758
G1 X209.59 Y246.272 E12.14009
G1 X208.368 Y247.494 E12.20166
G1 X208.302 Y247.521 E12.2042
G1 X197.854 Y247.521 E12.57646
G1 X196.682 Y248.694 E12.63554
G1 X196.616 Y248.721 E12.63808
G1 X192.888 Y248.721 E12.77091
G1 X192.823 Y248.694 E12.77342
G1 X192.35 Y248.221 E12.79725
G1 X187.788 Y248.221 E12.95979
G1 X187.723 Y248.194 E12.9623
G1 X186.501 Y246.972 E13.02387
G1 X186.474 Y246.907 E13.02638
G1 X186.474 Y242.179 E13.19484
G1 X186.501 Y242.113 E13.19738
G1 X187.733 Y240.887 E13.25931
G1 E11.25931 F1800
G92 E0
G1 X188.356 Y216.188 F4200
G1 E2 F1800
G1 F720
G1 X187.967 Y216.102 E2.01419
G1 X187.479 Y215.835 E2.03401
G1 X186.072 Y214.428 E2.10491
G1 X185.806 Y213.94 E2.12471
G1 X185.719 Y213.552 E2.13888
G1 X185.719 Y208.613 E2.31485
G1 X185.756 Y208.372 E2.32354
G1 X186.072 Y207.735 E2.34888
G1 X187.479 Y206.328 E2.41978
G1 X187.967 Y206.061 E2.4396
G1 X188.356 Y205.975 E2.45379
G1 X200.117 Y205.975 E2.87283
G1 X200.562 Y205.569 E2.89429
G1 X200.911 Y205.404 E2.90804
G1 X201.287 Y205.324 E2.92174
G1 X209.12 Y205.327 E3.20083
G1 X209.473 Y205.411 E3.21376
G1 X209.959 Y205.677 E3.2335
G1 X211.366 Y207.083 E3.30437
G1 X211.632 Y207.572 E3.3242
G1 X211.719 Y207.96 E3.33837
G1 X211.719 Y212.85 E3.5126
G1 X211.682 Y213.091 E3.52129
G1 X211.366 Y213.728 E3.54663
G1 X209.959 Y215.135 E3.61753
G1 X209.471 Y215.402 E3.63735
G1 X209.082 Y215.488 E3.65154
G1 X199.12 Y215.488 E4.00648
G1 X198.273 Y216.336 E4.04918
G1 X197.635 Y216.651 E4.07453
G1 X197.394 Y216.688 E4.08322
G1 X193.455 Y216.688 E4.22356
G1 X193.08 Y216.607 E4.23723
G1 X192.731 Y216.442 E4.25098
G1 X192.439 Y216.188 E4.26477
G1 X188.416 Y216.188 E4.40811
G1 X188.416 Y215.831 F4200
G1 F720
G1 X188.111 Y215.774 E4.41917
G1 X187.712 Y215.563 E4.43525
G1 X186.344 Y214.196 E4.50416
G1 X186.133 Y213.796 E4.52027
G1 X186.076 Y213.533 E4.52986
G1 X186.076 Y208.628 E4.70462
G1 X186.104 Y208.456 E4.71083
G1 X186.345 Y207.966 E4.73029
G1 X187.712 Y206.6 E4.79914
G1 X188.111 Y206.389 E4.81522
G1 X188.374 Y206.332 E4.82481
G1 X200.26 Y206.332 E5.2483
G1 X200.741 Y205.88 E5.27182
G1 X201.045 Y205.736 E5.28381
G1 X201.305 Y205.681 E5.29328
G1 X209.099 Y205.684 E5.57098
G1 X209.327 Y205.738 E5.57933
G1 X209.726 Y205.949 E5.59541
G1 X211.094 Y207.316 E5.66432
G1 X211.305 Y207.716 E5.68043
G1 X211.362 Y207.979 E5.69002
G1 X211.362 Y212.835 E5.86304
G1 X211.334 Y213.007 E5.86925
G1 X211.093 Y213.497 E5.88871
G1 X209.726 Y214.863 E5.95756
G1 X209.327 Y215.074 E5.97364
G1 X209.064 Y215.131 E5.98323
G1 X198.972 Y215.131 E6.3428
G1 X198.041 Y216.062 E6.38971
G1 X197.552 Y216.303 E6.40913
G1 X197.379 Y216.331 E6.41537
G1 X193.474 Y216.331 E6.5545
G1 X193.213 Y216.276 E6.564
G1 X192.909 Y216.132 E6.57599
G1 X192.58 Y215.831 E6.59188
G1 X188.476 Y215.831 E6.7381
G1 X188.476 Y215.474 F4200
G1 F720
G1 X188.249 Y215.444 E6.74626
G1 X187.943 Y215.289 E6.75848
G1 X186.618 Y213.965 E6.82522
G1 X186.463 Y213.658 E6.83747
G1 X186.433 Y213.515 E6.84268
G1 X186.433 Y208.645 E7.0162
G1 X186.451 Y208.542 E7.01993
G1 X186.619 Y208.198 E7.03357
G1 X187.943 Y206.874 E7.10028
G1 X188.249 Y206.719 E7.1125
G1 X188.392 Y206.689 E7.11771
G1 X200.406 Y206.689 E7.54576
G1 X200.921 Y206.189 E7.57133
G1 X201.178 Y206.068 E7.58145
G1 X201.323 Y206.038 E7.58673
G1 X209.078 Y206.041 E7.86304
G1 X209.187 Y206.067 E7.86703
G1 X209.495 Y206.223 E7.87933
G1 X210.82 Y207.547 E7.94607
G1 X210.975 Y207.854 E7.95832
G1 X211.005 Y207.997 E7.96353
G1 X211.005 Y212.818 E8.1353
G1 X210.987 Y212.921 E8.13903
G1 X210.819 Y213.265 E8.15267
G1 X209.495 Y214.589 E8.21938
G1 X209.189 Y214.744 E8.2316
G1 X209.046 Y214.774 E8.23681
G1 X198.824 Y214.774 E8.60102
G1 X197.81 Y215.788 E8.65211
G1 X197.465 Y215.956 E8.66578
G1 X197.362 Y215.974 E8.66951
G1 X193.492 Y215.974 E8.8074
G1 X193.347 Y215.944 E8.81268
G1 X193.09 Y215.822 E8.82282
G1 X192.725 Y215.474 E8.84079
G1 X188.536 Y215.474 E8.99004
G1 X188.536 Y215.117 F4200
G1 F720
G1 X188.379 Y215.111 E8.99564
G1 X188.172 Y215.013 E9.0038
G1 X186.894 Y213.736 E9.06817
G1 X186.79 Y213.499 E9.07739
G1 X186.796 Y208.634 E9.25073
G1 X186.894 Y208.428 E9.25886
G1 X188.172 Y207.15 E9.32326
G1 X188.379 Y207.052 E9.33142
G1 X200.556 Y207.046 E9.76528
G1 X201.103 Y206.499 E9.79284
G1 X201.34 Y206.395 E9.80206
G1 X209.029 Y206.395 E10.07602
G1 X209.266 Y206.499 E10.08524
G1 X210.544 Y207.776 E10.14961
G1 X210.642 Y207.983 E10.15777
G1 X210.642 Y212.829 E10.33043
G1 X210.544 Y213.036 E10.33859
G1 X209.266 Y214.313 E10.40296
G1 X209.059 Y214.411 E10.41112
G1 X198.676 Y214.417 E10.78106
G1 X197.58 Y215.513 E10.83629
G1 X197.343 Y215.617 E10.84551
G1 X193.509 Y215.617 E10.98211
G1 X193.272 Y215.513 E10.99133
G1 X192.876 Y215.117 E11.01128
G1 X188.596 Y215.117 E11.16377
G1 X188.596 Y214.76 F4200
G1 F720
G1 X188.462 Y214.76 E11.16854
G1 X188.396 Y214.733 E11.17108
G1 X187.174 Y213.511 E11.23265
G1 X187.147 Y213.445 E11.23519
G1 X187.147 Y208.718 E11.40361
G1 X187.174 Y208.652 E11.40615
G1 X188.396 Y207.43 E11.46772
G1 X188.462 Y207.403 E11.47026
G1 X200.704 Y207.403 E11.90644
G1 X201.328 Y206.779 E11.93788
G1 X201.393 Y206.752 E11.94039
G1 X208.976 Y206.752 E12.21057
G1 X209.042 Y206.779 E12.21311
G1 X210.264 Y208.001 E12.27468
G1 X210.291 Y208.066 E12.27719
G1 X210.291 Y212.745 E12.4439
G1 X210.264 Y212.811 E12.44644
G1 X209.042 Y214.033 E12.50801
G1 X208.976 Y214.06 E12.51055
G1 X198.528 Y214.06 E12.88281
G1 X197.355 Y215.233 E12.94191
G1 X197.29 Y215.26 E12.94442
G1 X193.562 Y215.26 E13.07725
G1 X193.496 Y215.233 E13.07979
G1 X193.023 Y214.76 E13.10362
G1 X188.656 Y214.76 E13.25921
G1 E11.25921 F1800
G92 E0
G1 X192.203 Y185.565 F4200
G1 E2 F1800
G1 F720
G1 X191.827 Y185.485 E2.0137
G1 X191.478 Y185.32 E2.02745
G1 X191.187 Y185.065 E2.04124
G1 X187.103 Y185.065 E2.18675
G1 X186.715 Y184.979 E2.20091
G1 X186.226 Y184.712 E2.22076
G1 X184.82 Y183.306 E2.29161
G1 X184.553 Y182.817 E2.31146
G1 X184.467 Y182.429 E2.32562
G1 X184.467 Y177.49 E2.50159
G1 X184.504 Y177.249 E2.51028
G1 X184.819 Y176.612 E2.5356
G1 X186.227 Y175.205 E2.60652
G1 X186.715 Y174.938 E2.62634
G1 X187.103 Y174.852 E2.6405
G1 X198.865 Y174.852 E3.05957
G1 X199.31 Y174.447 E3.08101
G1 X199.659 Y174.282 E3.09476
G1 X200.035 Y174.201 E3.10846
G1 X207.868 Y174.204 E3.38755
G1 X208.221 Y174.288 E3.40048
G1 X208.707 Y174.554 E3.42022
G1 X210.114 Y175.961 E3.49112
G1 X210.38 Y176.449 E3.51092
G1 X210.467 Y176.837 E3.52509
G1 X210.467 Y181.727 E3.69932
G1 X210.43 Y181.968 E3.70801
G1 X210.114 Y182.605 E3.73335
G1 X208.707 Y184.012 E3.80425
G1 X208.218 Y184.279 E3.8241
G1 X207.83 Y184.365 E3.83826
G1 X197.867 Y184.365 E4.19324
G1 X197.02 Y185.213 E4.23594
G1 X196.383 Y185.528 E4.26126
G1 X196.142 Y185.565 E4.26995
G1 X192.263 Y185.565 E4.40816
G1 X192.263 Y185.208 F4200
G1 F720
G1 X191.961 Y185.153 E4.4191
G1 X191.657 Y185.009 E4.43109
G1 X191.327 Y184.708 E4.447
G1 X187.122 Y184.708 E4.59682
G1 X186.859 Y184.651 E4.60641
G1 X186.459 Y184.44 E4.62252
G1 X185.092 Y183.073 E4.6914
G1 X184.881 Y182.673 E4.70751
G1 X184.824 Y182.41 E4.7171
G1 X184.824 Y177.505 E4.89186
G1 X184.852 Y177.333 E4.89807
G1 X185.093 Y176.843 E4.91753
G1 X186.459 Y175.477 E4.98636
G1 X186.859 Y175.266 E5.00247
G1 X187.122 Y175.209 E5.01206
G1 X199.008 Y175.209 E5.43555
G1 X199.489 Y174.757 E5.45907
G1 X199.792 Y174.613 E5.47102
G1 X200.053 Y174.558 E5.48052
G1 X207.847 Y174.561 E5.75822
G1 X208.075 Y174.615 E5.76657
G1 X208.474 Y174.826 E5.78265
G1 X209.841 Y176.193 E5.85153
G1 X210.052 Y176.593 E5.86764
G1 X210.11 Y176.856 E5.87724
G1 X210.11 Y181.712 E6.05026
G1 X210.082 Y181.884 E6.05647
G1 X209.841 Y182.374 E6.07593
G1 X208.474 Y183.74 E6.14478
G1 X208.075 Y183.951 E6.16086
G1 X207.811 Y184.008 E6.17048
G1 X197.72 Y184.008 E6.53002
G1 X196.789 Y184.939 E6.57693
G1 X196.299 Y185.18 E6.59639
G1 X196.127 Y185.208 E6.6026
G1 X192.323 Y185.208 E6.73813
G1 X192.323 Y184.851 F4200
G1 F720
G1 X192.094 Y184.821 E6.74636
G1 X191.837 Y184.699 E6.7565
G1 X191.473 Y184.351 E6.77444
G1 X187.14 Y184.351 E6.92882
G1 X186.997 Y184.321 E6.93403
G1 X186.69 Y184.166 E6.94628
G1 X185.366 Y182.842 E7.01299
G1 X185.211 Y182.535 E7.02524
G1 X185.181 Y182.392 E7.03045
