; generated by CreatWare 7.0.0 on 2022-06-24 at 18:56:24 UTC

; 

; external perimeters extrusion width = 0.40mm
; perimeters extrusion width = 0.40mm
; infill extrusion width = 0.40mm
; solid infill extrusion width = 0.40mm
; top infill extrusion width = 0.40mm
; support material extrusion width = 0.40mm

G21 ; set units to millimeters
G90 ; use absolute coordinates
M82 ; use absolute distances for extrusion
G92 E0
M107
M190 S45 ; set bed temperature and wait for it to be reached
M104 S210 ; set temperature
;TYPE:Custom
M109 S210 ; set temperature and wait for it to be reached
M6013 S0 ; set chamber temp

G28 X0 Y0  ;move X/Y to min endstops
G28 Z0     ;move Z to min endstops

;Add Clear Nozzle
G92 E0                   ;zero the extruded length again
G0 F4200 X0 Y0
G0 F400 X10 Z0.4         ;move a bit while down the Z
M221 T0 S300             ;set flow is 300%
G1 F200 X30 E8          ;extrude amont filament to clean the hotend
M221 T0 S100             ;reset flow is 100%
G92 E0                   ;zero the extruded length again
;Add End

G0 Z15.0 F4200 ;move the platform down 15mm

;Put printing message on LCD screen
M117 Printing...
; Filament gcode
M107
;LAYER_CHANGE
;Layer 1
;Z:0.2
;HEIGHT:0.2
;BEFORE_LAYER_CHANGE
;0.2


G1 Z.2 F4200
;AFTER_LAYER_CHANGE
;G92 E0   ;zero the extruded length again
;0.2
G1 E-2 F1800
G92 E0
G1 X185.081 Y135.031 F4200
G1 E2 F1800
;TYPE:Skirt/Brim
;WIDTH:0.4
G1 F720
G1 X186.838 Y133.274 E2.08853
G1 X188.682 Y131.991 E2.16857
G1 X191.334 Y131.412 E2.26529
G1 X197.797 Y131.436 E2.49557
G1 X209.221 Y132.436 E2.90416
G1 X211.389 Y133.025 E2.9842
G1 X213.162 Y134.274 E3.06147
G1 X214.919 Y136.031 E3.15
G1 X216.202 Y137.875 E3.23004
G1 X216.781 Y140.527 E3.32676
G1 X216.781 Y159.473 E4.0018
G1 X216.384 Y161.684 E4.08184
G1 X214.919 Y163.969 E4.17855
G1 X213.162 Y165.726 E4.26708
G1 X211.318 Y167.009 E4.34712
G1 X209.221 Y167.564 E4.42441
G1 X197.797 Y168.564 E4.833
G1 X191.334 Y168.588 E5.06328
G1 X189.123 Y168.191 E5.14332
G1 X186.838 Y166.726 E5.24003
G1 X185.081 Y164.969 E5.32856
G1 X183.798 Y163.125 E5.4086
G1 X183.219 Y160.473 E5.50532
G1 X183.219 Y139.527 E6.25162
G1 X183.616 Y137.316 E6.33166
G1 X185.049 Y135.082 E6.42622
G1 E4.42622 F1800
G92 E0
G1 X190.322 Y139.337 F4200
G1 E2 F1800
G1 F720
G1 X191.144 Y138.515 E2.04142
G1 X191.781 Y138.199 E2.06676
G1 X192.022 Y138.162 E2.07545
G1 X196.594 Y138.166 E2.23835
G1 X196.945 Y138.249 E2.2512
G1 X197.342 Y138.45 E2.26705
G1 X198.078 Y139.162 E2.30354
G1 X208.102 Y139.176 E2.66069
G1 X208.369 Y139.25 E2.67056
G1 X208.857 Y139.515 E2.69035
G1 X209.659 Y140.318 E2.73079
G1 X209.803 Y140.515 E2.73948
G1 X210.031 Y141.188 E2.7648
G1 X210.031 Y158.787 E3.39184
G1 X209.944 Y159.176 E3.40604
G1 X209.708 Y159.622 E3.42402
G1 X208.875 Y160.466 E3.46627
G1 X208.679 Y160.61 E3.47494
G1 X208.005 Y160.838 E3.50029
G1 X198.078 Y160.838 E3.85398
G1 X197.342 Y161.55 E3.89047
G1 X196.942 Y161.752 E3.90644
G1 X196.632 Y161.829 E3.91782
G1 X191.983 Y161.834 E4.08346
G1 X191.63 Y161.75 E4.09639
G1 X191.143 Y161.485 E4.11614
G1 X190.341 Y160.682 E4.15658
G1 X190.197 Y160.485 E4.16527
G1 X189.969 Y159.812 E4.19059
G1 X189.969 Y140.215 E4.88882
G1 X190.006 Y139.974 E4.89751
G1 X190.295 Y139.39 E4.92073
G1 X190.595 Y139.568 F4200
G1 F720
G1 X191.375 Y138.789 E4.96001
G1 X191.864 Y138.547 E4.97945
G1 X192.037 Y138.519 E4.98569
G1 X196.573 Y138.523 E5.14731
G1 X196.803 Y138.577 E5.15573
G1 X197.156 Y138.756 E5.16983
G1 X197.931 Y139.519 E5.20858
G1 X208.036 Y139.528 E5.56862
G1 X208.223 Y139.576 E5.5755
G1 X208.624 Y139.788 E5.59166
G1 X209.396 Y140.56 E5.63056
G1 X209.498 Y140.701 E5.63676
G1 X209.674 Y141.218 E5.65622
G1 X209.674 Y158.768 E6.28152
G1 X209.616 Y159.031 E6.29112
G1 X209.405 Y159.431 E6.30723
G1 X208.634 Y160.203 E6.3461
G1 X208.492 Y160.305 E6.35233
G1 X207.975 Y160.481 E6.37179
G1 X197.931 Y160.481 E6.72965
G1 X197.156 Y161.244 E6.7684
G1 X196.801 Y161.424 E6.78258
G1 X196.572 Y161.477 E6.79095
G1 X192.003 Y161.477 E6.95374
G1 X191.775 Y161.423 E6.96209
G1 X191.376 Y161.212 E6.97817
G1 X190.604 Y160.44 E7.01707
G1 X190.502 Y160.299 E7.02327
G1 X190.326 Y159.782 E7.04273
G1 X190.326 Y140.23 E7.73936
G1 X190.354 Y140.058 E7.74557
G1 X190.569 Y139.622 E7.76289
G1 X190.869 Y139.8 F4200
G1 F720
G1 X191.606 Y139.062 E7.80005
G1 X191.951 Y138.894 E7.81372
G1 X192.054 Y138.877 E7.81744
G1 X196.552 Y138.88 E7.9777
G1 X196.66 Y138.906 E7.98166
G1 X196.969 Y139.061 E7.99398
G1 X197.782 Y139.877 E8.03502
G1 X207.976 Y139.88 E8.39823
G1 X208.084 Y139.906 E8.40219
G1 X208.393 Y140.061 E8.41451
G1 X209.132 Y140.8 E8.45175
G1 X209.192 Y140.886 E8.45549
G1 X209.317 Y141.248 E8.46914
G1 X209.317 Y158.75 E9.09273
G1 X209.287 Y158.893 E9.09794
G1 X209.132 Y159.2 E9.11019
G1 X208.393 Y159.939 E9.14743
G1 X208.308 Y159.998 E9.15112
G1 X207.945 Y160.123 E9.1648
G1 X197.782 Y160.123 E9.5269
G1 X196.969 Y160.939 E9.56794
G1 X196.662 Y161.093 E9.58018
G1 X196.519 Y161.123 E9.58539
G1 X192.024 Y161.12 E9.74554
G1 X191.916 Y161.094 E9.7495
G1 X191.607 Y160.939 E9.76182
G1 X190.868 Y160.2 E9.79906
G1 X190.808 Y160.114 E9.8028
G1 X190.683 Y159.752 E9.81645
G1 X190.683 Y140.247 E10.5114
G1 X190.701 Y140.144 E10.51513
G1 X190.843 Y139.853 E10.52667
G1 X191.144 Y140.029 F4200
G1 F720
G1 X191.836 Y139.337 E10.56154
G1 X192.073 Y139.234 E10.57075
G1 X196.503 Y139.234 E10.72859
G1 X196.74 Y139.337 E10.7378
G1 X197.435 Y140.032 E10.77282
G1 X197.541 Y140.234 E10.78095
G1 X207.927 Y140.234 E11.151
G1 X208.164 Y140.337 E11.16021
G1 X208.865 Y141.039 E11.19556
G1 X208.959 Y141.28 E11.20478
G1 X208.959 Y158.734 E11.82666
G1 X208.856 Y158.971 E11.83587
G1 X208.154 Y159.672 E11.87122
G1 X207.913 Y159.766 E11.88044
G1 X197.541 Y159.766 E12.24999
G1 X197.435 Y159.968 E12.25812
G1 X196.74 Y160.663 E12.29314
G1 X196.503 Y160.766 E12.30235
G1 X192.073 Y160.766 E12.46019
G1 X191.836 Y160.663 E12.4694
G1 X191.135 Y159.961 E12.50475
G1 X191.041 Y159.72 E12.51397
G1 X191.041 Y140.266 E13.20711
G1 X191.119 Y140.084 E13.21417
G1 X191.425 Y140.254 F4200
G1 F720
G1 X192.061 Y139.618 E13.24622
G1 X192.126 Y139.591 E13.24873
G1 X196.45 Y139.591 E13.40279
G1 X196.515 Y139.618 E13.4053
G1 X197.151 Y140.254 E13.43735
G1 X197.178 Y140.32 E13.43989
G1 X197.178 Y140.591 E13.44955
G1 X207.874 Y140.591 E13.83064
G1 X207.939 Y140.618 E13.83315
G1 X208.575 Y141.254 E13.8652
G1 X208.602 Y141.32 E13.86774
G1 X208.602 Y158.68 E14.48627
G1 X208.575 Y158.746 E14.48881
G1 X207.939 Y159.382 E14.52086
G1 X207.874 Y159.409 E14.52337
G1 X197.178 Y159.409 E14.90446
G1 X197.178 Y159.68 E14.91412
G1 X197.151 Y159.746 E14.91666
G1 X196.515 Y160.382 E14.94871
G1 X196.45 Y160.409 E14.95122
G1 X192.126 Y160.409 E15.10528
G1 X192.061 Y160.382 E15.10779
G1 X191.425 Y159.746 E15.13984
G1 X191.398 Y159.68 E15.14238
G1 X191.402 Y140.309 E15.83256
G1 E13.83256 F1800
G92 E0
G1 X192.776 Y140.969 F4200
G1 E2 F1800
;TYPE:External perimeter
G1 F252
G1 X195.8 Y140.969 E2.10774
G1 X195.8 Y141.969 E2.14337
G1 X207.224 Y141.969 E2.5504
G1 X207.224 Y158.031 E3.12268
G1 X195.8 Y158.031 E3.52971
G1 X195.8 Y159.031 E3.56534
G1 X192.776 Y159.031 E3.67308
G1 X192.776 Y141.029 E4.31448
G1 X193.133 Y141.15 F4200
G1 X193.133 Y141.326
;TYPE:Inner perimeter
G1 F360
G1 X195.443 Y141.326 E4.39678
G1 X195.443 Y142.326 E4.43241
G1 X206.867 Y142.326 E4.83944
G1 X206.867 Y157.674 E5.38628
G1 X195.443 Y157.674 E5.79331
G1 X195.443 Y158.674 E5.82894
G1 X193.133 Y158.674 E5.91124
G1 X193.133 Y141.386 E6.5272
G1 E4.5272 F1800
G92 E0
G1 X193.112 Y141.386 F4200
G1 X194.694 Y153.512
G1 X194.737 Y153.845
G1 E2 F1800
;TYPE:External perimeter
G1 F270
G1 X194.996 Y153.811 E2.00931
G1 X195.27 Y153.845 E2.01915
G1 X195.519 Y153.948 E2.02875
G1 X195.733 Y154.112 E2.03836
G1 X195.897 Y154.325 E2.04794
G1 X195.999 Y154.574 E2.05753
G1 X196.035 Y154.84 E2.06709
G1 X195.999 Y155.107 E2.07669
G1 X195.9 Y155.348 E2.08597
G1 X195.733 Y155.569 E2.09584
G1 X195.519 Y155.733 E2.10545
G1 X195.271 Y155.836 E2.11502
G1 X195.004 Y155.871 E2.12461
G1 X194.737 Y155.836 E2.1342
G1 X194.489 Y155.733 E2.14377
G1 X194.275 Y155.569 E2.15338
G1 X194.112 Y155.356 E2.16294
G1 X194.012 Y155.115 E2.17224
G1 X193.974 Y154.841 E2.1821
G1 X194.009 Y154.574 E2.19169
G1 X194.112 Y154.325 E2.20129
G1 X194.275 Y154.112 E2.21085
G1 X194.489 Y153.948 E2.22046
G1 X194.682 Y153.868 E2.2279
G1 X194.805 Y153.593 F4200
G1 X194.644 Y153.497
;TYPE:Inner perimeter
G1 F270
G1 X194.995 Y153.451 E2.24051
G1 X195.362 Y153.496 E2.25368
G1 X195.699 Y153.636 E2.26668
G1 X195.987 Y153.857 E2.27961
G1 X196.208 Y154.145 E2.29254
G1 X196.347 Y154.481 E2.3055
G1 X196.395 Y154.84 E2.3184
G1 X196.347 Y155.2 E2.33134
G1 X196.212 Y155.527 E2.34394
G1 X195.989 Y155.822 E2.35712
G1 X195.699 Y156.045 E2.37015
G1 X195.364 Y156.184 E2.38307
G1 X195.004 Y156.231 E2.39601
G1 X194.644 Y156.184 E2.40895
G1 X194.309 Y156.045 E2.42187
G1 X194.021 Y155.824 E2.4348
G1 X193.8 Y155.536 E2.44773
G1 X193.665 Y155.209 E2.46033
G1 X193.613 Y154.843 E2.4735
G1 X193.661 Y154.481 E2.48651
G1 X193.8 Y154.145 E2.49947
G1 X194.021 Y153.857 E2.5124
G1 X194.309 Y153.636 E2.52533
G1 X194.589 Y153.52 E2.53613
G1 E.53613 F1800
G92 E0
G1 X195.004 Y146.183 F4200
G1 E2 F1800
;TYPE:External perimeter
G1 F270
G1 X194.737 Y146.147 E2.0096
G1 X194.496 Y146.048 E2.01888
G1 X194.276 Y145.881 E2.02872
G1 X194.112 Y145.667 E2.03833
G1 X194.012 Y145.426 E2.04763
G1 X193.974 Y145.153 E2.05745
G1 X194.009 Y144.885 E2.06708
G1 X194.112 Y144.637 E2.07665
G1 X194.275 Y144.423 E2.08623
G1 X194.489 Y144.26 E2.09581
G1 X194.737 Y144.157 E2.10538
G1 X194.996 Y144.123 E2.11469
G1 X195.27 Y144.156 E2.12452
G1 X195.519 Y144.26 E2.13413
G1 X195.733 Y144.423 E2.14371
G1 X195.897 Y144.637 E2.15332
G1 X195.999 Y144.885 E2.16287
G1 X196.035 Y145.152 E2.17247
G1 X195.999 Y145.419 E2.18207
G1 X195.897 Y145.667 E2.19162
G1 X195.733 Y145.881 E2.20123
G1 X195.519 Y146.045 E2.21084
G1 X195.271 Y146.147 E2.22039
G1 X195.064 Y146.175 E2.22783
G1 X194.87 Y146.416 F4200
G1 X195.004 Y146.543
;TYPE:Inner perimeter
G1 F270
G1 X194.644 Y146.495 E2.24077
G1 X194.318 Y146.36 E2.25334
G1 X194.022 Y146.137 E2.26654
G1 X193.8 Y145.847 E2.27955
G1 X193.665 Y145.521 E2.29212
G1 X193.613 Y145.154 E2.30533
G1 X193.661 Y144.792 E2.31834
G1 X193.8 Y144.457 E2.33126
G1 X194.021 Y144.169 E2.34419
G1 X194.309 Y143.948 E2.35712
G1 X194.644 Y143.809 E2.37004
G1 X194.995 Y143.763 E2.38265
G1 X195.362 Y143.808 E2.39582
G1 X195.699 Y143.948 E2.40882
G1 X195.987 Y144.169 E2.42175
G1 X196.208 Y144.457 E2.43468
G1 X196.347 Y144.792 E2.4476
G1 X196.395 Y145.152 E2.46054
G1 X196.347 Y145.512 E2.47348
G1 X196.208 Y145.847 E2.4864
G1 X195.987 Y146.135 E2.49933
G1 X195.699 Y146.356 E2.51226
G1 X195.364 Y146.495 E2.52518
G1 X195.064 Y146.535 E2.53596
G1 E.53596 F1800
G92 E0
G1 X203.866 Y146.143 F4200
G1 E2 F1800
;TYPE:External perimeter
G1 F270
G1 X203.89 Y145.962 E2.00651
G1 X203.96 Y145.792 E2.01306
G1 X204.072 Y145.647 E2.01959
G1 X204.217 Y145.536 E2.0261
G1 X204.386 Y145.465 E2.03263
G1 X204.538 Y145.446 E2.03809
G1 X204.745 Y145.464 E2.04549
G1 X204.919 Y145.536 E2.0522
G1 X205.064 Y145.647 E2.05871
G1 X205.176 Y145.792 E2.06524
G1 X205.246 Y145.962 E2.07179
G1 X205.27 Y146.143 E2.0783
G1 X205.246 Y146.325 E2.08484
G1 X205.176 Y146.494 E2.09136
G1 X205.064 Y146.639 E2.09789
G1 X204.919 Y146.751 E2.10442
G1 X204.749 Y146.821 E2.11097
G1 X204.568 Y146.845 E2.11748
G1 X204.386 Y146.821 E2.12402
G1 X204.217 Y146.751 E2.13054
G1 X204.072 Y146.639 E2.13707
G1 X203.96 Y146.494 E2.1436
G1 X203.89 Y146.325 E2.15012
G1 X203.874 Y146.203 E2.1545
G1 X203.707 Y146.052 F4200
G1 X203.52 Y146.249
;TYPE:Inner perimeter
G1 F270
G1 X203.506 Y146.143 E2.15831
G1 X203.542 Y145.868 E2.16819
G1 X203.648 Y145.612 E2.17806
G1 X203.817 Y145.392 E2.18794
G1 X204.037 Y145.224 E2.1978
G1 X204.293 Y145.118 E2.20767
G1 X204.53 Y145.086 E2.21619
G1 X204.831 Y145.113 E2.22696
G1 X205.099 Y145.224 E2.2373
G1 X205.319 Y145.392 E2.24716
G1 X205.487 Y145.612 E2.25702
G1 X205.594 Y145.868 E2.26691
G1 X205.63 Y146.143 E2.27679
G1 X205.594 Y146.418 E2.28667
G1 X205.487 Y146.674 E2.29656
G1 X205.319 Y146.894 E2.30642
G1 X205.099 Y147.063 E2.3163
G1 X204.843 Y147.169 E2.32617
G1 X204.568 Y147.205 E2.33605
G1 X204.293 Y147.169 E2.34593
G1 X204.037 Y147.063 E2.3558
G1 X203.817 Y146.894 E2.36568
G1 X203.648 Y146.674 E2.37556
G1 X203.542 Y146.418 E2.38543
G1 X203.528 Y146.309 E2.38935
G1 E.38935 F1800
G92 E0
G1 X204.386 Y153.179 F4200
G1 E2 F1800
;TYPE:External perimeter
G1 F270
G1 X204.538 Y153.159 E2.00546
G1 X204.745 Y153.177 E2.01286
G1 X204.919 Y153.249 E2.01957
G1 X205.064 Y153.361 E2.0261
G1 X205.176 Y153.506 E2.03263
G1 X205.246 Y153.675 E2.03915
G1 X205.27 Y153.857 E2.04569
G1 X205.246 Y154.038 E2.0522
G1 X205.176 Y154.208 E2.05875
G1 X205.064 Y154.353 E2.06528
G1 X204.919 Y154.464 E2.07179
G1 X204.749 Y154.535 E2.07835
G1 X204.568 Y154.558 E2.08485
G1 X204.386 Y154.535 E2.09139
G1 X204.217 Y154.464 E2.09792
G1 X204.072 Y154.353 E2.10443
G1 X203.96 Y154.208 E2.11096
G1 X203.89 Y154.038 E2.11751
G1 X203.866 Y153.857 E2.12402
G1 X203.89 Y153.675 E2.13056
G1 X203.96 Y153.506 E2.13708
G1 X204.072 Y153.361 E2.14361
G1 X204.217 Y153.249 E2.15014
G1 X204.331 Y153.202 E2.15453
G1 X204.426 Y153.031 F4200
G1 X204.194 Y152.872
;TYPE:Inner perimeter
G1 F270
G1 X204.293 Y152.831 E2.15835
G1 X204.53 Y152.8 E2.16687
G1 X204.831 Y152.826 E2.17763
G1 X205.099 Y152.937 E2.18797
G1 X205.319 Y153.106 E2.19785
G1 X205.487 Y153.326 E2.20771
G1 X205.594 Y153.582 E2.2176
G1 X205.63 Y153.857 E2.22748
G1 X205.594 Y154.132 E2.23736
G1 X205.487 Y154.388 E2.24725
G1 X205.319 Y154.608 E2.25711
G1 X205.099 Y154.776 E2.26697
G1 X204.843 Y154.882 E2.27684
G1 X204.568 Y154.919 E2.28673
G1 X204.293 Y154.882 E2.29662
G1 X204.037 Y154.776 E2.30649
G1 X203.817 Y154.608 E2.31635
G1 X203.648 Y154.388 E2.32623
G1 X203.542 Y154.132 E2.3361
G1 X203.506 Y153.857 E2.34598
G1 X203.542 Y153.582 E2.35586
G1 X203.648 Y153.326 E2.36573
G1 X203.817 Y153.106 E2.37561
G1 X204.037 Y152.937 E2.38549
G1 X204.139 Y152.895 E2.38942
G1 E.38942 F1800
G92 E0
G1 X206.76 Y143.167 F4200
G1 E2 F1800
;TYPE:Solid infill
;WIDTH:0.405297
G1 F288
G1 X206.187 Y142.594 E2.0293
G1 X205.675 Y142.594 E2.04781
G1 X206.599 Y143.518 E2.09506
G1 X206.599 Y144.031 E2.11361
G1 X205.162 Y142.594 E2.18709
G1 X204.65 Y142.594 E2.2056
G1 X206.599 Y144.543 E2.30526
G1 X206.599 Y145.056 E2.32381
G1 X204.137 Y142.594 E2.44971
G1 X203.625 Y142.594 E2.46822
G1 X206.599 Y145.568 E2.6203
G1 X206.599 Y146.081 E2.63885
G1 X203.112 Y142.594 E2.81716
G1 X202.6 Y142.594 E2.83567
G1 X204.852 Y144.846 E2.95083
G1 X205.234 Y144.99 E2.96559
G1 X205.51 Y145.201 E2.97815
G1 X205.721 Y145.477 E2.99071
G1 X205.854 Y145.799 E3.00331
G1 X205.862 Y145.856 E3.00539
G1 X206.599 Y146.593 E3.04308
G1 X206.599 Y147.106 E3.06163
G1 X205.869 Y146.376 E3.09896
G1 X205.854 Y146.488 E3.10305
G1 X205.742 Y146.761 E3.11372
G1 X206.599 Y147.618 E3.15754
G1 X206.599 Y148.131 E3.17609
G1 X205.529 Y147.06 E3.23083
G1 X205.244 Y147.289 E3.24405
G1 X206.599 Y148.643 E3.31331
G1 X206.599 Y149.156 E3.33186
G1 X204.735 Y147.291 E3.4272
G1 E1.4272 F1800
G92 E0
G1 X204.718 Y147.164 F4200
G1 X204.837 Y147.148
G1 X205.088 Y147.044
G1 X205.303 Y146.879
G1 X205.469 Y146.663
G1 X205.573 Y146.413
G1 X205.608 Y146.143
G1 X205.573 Y145.874
G1 X205.469 Y145.623
G1 X205.303 Y145.408
G1 X205.088 Y145.242
G1 X204.837 Y145.138
G1 X204.568 Y145.103
G1 X204.495 Y145.112
G1 X204.478 Y144.985
G1 E2 F1800
G1 F288
G1 X202.087 Y142.594 E2.12226
G1 X201.575 Y142.594 E2.14077
G1 X203.95 Y144.97 E2.26224
G1 X203.651 Y145.182 E2.27549
G1 X201.062 Y142.594 E2.40785
G1 X200.55 Y142.594 E2.42636
G1 X203.422 Y145.467 E2.57325
G1 X203.277 Y145.833 E2.58748
G1 X200.038 Y142.594 E2.75311
G1 X199.525 Y142.594 E2.77166
G1 X203.26 Y146.329 E2.96265
G1 X203.281 Y146.488 E2.96845
G1 X203.414 Y146.809 E2.98101
G1 X203.626 Y147.085 E2.99359
G1 X203.902 Y147.297 E3.00617
G1 X204.223 Y147.43 E3.01873
G1 X204.382 Y147.451 E3.02453
G1 X206.599 Y149.668 E3.1379
G1 X206.599 Y150.181 E3.15645
G1 X199.013 Y142.594 E3.54439
G1 X198.5 Y142.594 E3.56294
G1 X206.599 Y150.693 E3.97708
G1 X206.599 Y151.206 E3.99563
