; generated by CreatWare 7.0.0 on 2022-08-16 at 22:28:04 UTC

; 

; external perimeters extrusion width = 0.40mm
; perimeters extrusion width = 0.40mm
; infill extrusion width = 0.40mm
; solid infill extrusion width = 0.40mm
; top infill extrusion width = 0.40mm
; support material extrusion width = 0.40mm

; external perimeters extrusion width = 0.40mm
; perimeters extrusion width = 0.40mm
; infill extrusion width = 0.40mm
; solid infill extrusion width = 0.40mm
; top infill extrusion width = 0.40mm
; support material extrusion width = 0.40mm

; external perimeters extrusion width = 0.40mm
; perimeters extrusion width = 0.40mm
; infill extrusion width = 0.40mm
; solid infill extrusion width = 0.40mm
; top infill extrusion width = 0.40mm
; support material extrusion width = 0.40mm

; external perimeters extrusion width = 0.40mm
; perimeters extrusion width = 0.40mm
; infill extrusion width = 0.40mm
; solid infill extrusion width = 0.40mm
; top infill extrusion width = 0.40mm
; support material extrusion width = 0.40mm

; external perimeters extrusion width = 0.40mm
; perimeters extrusion width = 0.40mm
; infill extrusion width = 0.40mm
; solid infill extrusion width = 0.40mm
; top infill extrusion width = 0.40mm
; support material extrusion width = 0.40mm

; external perimeters extrusion width = 0.40mm
; perimeters extrusion width = 0.40mm
; infill extrusion width = 0.40mm
; solid infill extrusion width = 0.40mm
; top infill extrusion width = 0.40mm
; support material extrusion width = 0.40mm

G21 ; set units to millimeters
G90 ; use absolute coordinates
M82 ; use absolute distances for extrusion
G92 E0
M107
M190 S45 ; set bed temperature and wait for it to be reached
M104 S210 ; set temperature
;TYPE:Custom
M109 S210 ; set temperature and wait for it to be reached
M6013 S0 ; set chamber temp

G28 X0 Y0  ;move X/Y to min endstops
G28 Z0     ;move Z to min endstops

;Add Clear Nozzle
G92 E0                   ;zero the extruded length again
G0 F4200 X0 Y0
G0 F400 X10 Z0.4         ;move a bit while down the Z
M221 T0 S300             ;set flow is 300%
G1 F200 X30 E8          ;extrude amont filament to clean the hotend
M221 T0 S100             ;reset flow is 100%
G92 E0                   ;zero the extruded length again
;Add End

G0 Z15.0 F4200 ;move the platform down 15mm

;Put printing message on LCD screen
M117 Printing...
; Filament gcode
M107
;LAYER_CHANGE
;Layer 1
;Z:0.2
;HEIGHT:0.2
;BEFORE_LAYER_CHANGE
;0.2


G1 Z.2 F4200
;AFTER_LAYER_CHANGE
;G92 E0   ;zero the extruded length again
;0.2
G1 E-2 F1800
G92 E0
G1 X80.649 Y78.101 F4200
G1 E2 F1800
;TYPE:Skirt/Brim
;WIDTH:0.4
G1 F720
G1 X82.993 Y75.758 E2.11808
G1 X84.837 Y74.475 E2.19812
G1 X87.371 Y73.897 E2.29072
G1 X241.042 Y71.065 E7.76688
G1 X250.164 Y71.064 E8.09189
G1 X252.646 Y71.569 E8.18213
G1 X254.825 Y72.492 E8.26644
G1 X256.838 Y73.85 E8.35296
G1 X259.181 Y76.193 E8.47102
G1 X260.335 Y77.772 E8.5407
G1 X261.675 Y80.367 E8.64476
G1 X262.383 Y83.283 E8.75167
G1 X262.383 Y92.161 E9.06799
G1 X262.244 Y93.482 E9.11532
G1 X248.226 Y159.421 E11.5172
G1 X247.379 Y161.501 E11.59722
G1 X246.503 Y162.594 E11.64713
G1 X244.16 Y164.937 E11.76519
G1 X242.316 Y166.22 E11.84523
G1 X241.237 Y166.602 E11.88601
G1 X177.675 Y182.824 E14.22329
G1 X176.454 Y183.012 E14.26731
G1 X157.456 Y184.062 E14.94523
G1 X148.812 Y184.072 E15.25321
G1 X146.601 Y183.675 E15.33325
G1 X144.317 Y182.21 E15.42993
G1 X141.394 Y179.201 E15.5794
G1 X80.07 Y97.932 E19.20685
G1 X79.055 Y95.928 E19.28689
G1 X78.787 Y94.103 E19.35261
G1 X78.787 Y82.596 E19.7626
G1 X79.184 Y80.385 E19.84264
G1 X80.617 Y78.152 E19.93717
G1 E17.93717 F1800
G92 E0
G1 X85.908 Y82.389 F4200
G1 E2 F1800
G1 F720
G1 X87.298 Y80.999 E2.07004
G1 X87.935 Y80.683 E2.09538
G1 X88.177 Y80.646 E2.1041
G1 X94.152 Y80.65 E2.31699
G1 X94.505 Y80.734 E2.32992
G1 X94.991 Y80.999 E2.34964
G1 X96.396 Y82.407 E2.42051
G1 X96.548 Y82.629 E2.4301
G1 X96.742 Y83.201 E2.45162
G1 X96.753 Y84.339 E2.49217
G1 X133.876 Y84.339 E3.81485
G1 X134.117 Y84.376 E3.82354
G1 X134.755 Y84.692 E3.84891
G1 X136.162 Y86.099 E3.91981
G1 X136.478 Y86.736 E3.94515
G1 X136.515 Y86.978 E3.95387
G1 X136.515 Y93.414 E4.18318
G1 X136.478 Y93.656 E4.1919
G1 X136.162 Y94.293 E4.21724
G1 X134.755 Y95.7 E4.28814
G1 X134.266 Y95.966 E4.30797
G1 X133.878 Y96.053 E4.32214
G1 X88.15 Y96.053 E5.95141
G1 X87.616 Y95.896 E5.97124
G1 X87.28 Y95.682 E5.98543
G1 X85.891 Y94.293 E6.05542
G1 X85.625 Y93.806 E6.07519
G1 X85.552 Y93.538 E6.08509
G1 X85.538 Y83.259 E6.45133
G1 X85.695 Y82.725 E6.47116
G1 X85.876 Y82.439 E6.48322
G1 X86.173 Y82.63 F4200
G1 F720
G1 X87.529 Y81.272 E6.5516
G1 X88.019 Y81.031 E6.57106
G1 X88.191 Y81.003 E6.57727
G1 X94.132 Y81.007 E6.78895
G1 X94.36 Y81.061 E6.7973
G1 X94.759 Y81.272 E6.81338
G1 X96.117 Y82.629 E6.88178
G1 X96.219 Y82.771 E6.88801
G1 X96.394 Y83.288 E6.90746
G1 X96.394 Y84.696 E6.95763
G1 X133.861 Y84.696 E8.29256
G1 X134.034 Y84.724 E8.2988
G1 X134.523 Y84.965 E8.31822
G1 X135.889 Y86.331 E8.38705
G1 X136.13 Y86.82 E8.40647
G1 X136.158 Y86.993 E8.41271
G1 X136.158 Y93.399 E8.64095
G1 X136.13 Y93.572 E8.64719
G1 X135.889 Y94.061 E8.66661
G1 X134.522 Y95.428 E8.73549
G1 X134.123 Y95.639 E8.75157
G1 X133.859 Y95.696 E8.76119
G1 X88.178 Y95.696 E10.38878
G1 X87.746 Y95.562 E10.4049
G1 X87.519 Y95.417 E10.4145
G1 X86.163 Y94.06 E10.48285
G1 X85.951 Y93.66 E10.49898
G1 X85.903 Y93.472 E10.50589
G1 X85.895 Y83.286 E10.86881
G1 X86.028 Y82.855 E10.88488
G1 X86.14 Y82.681 E10.89225
G1 X86.435 Y82.873 F4200
G1 F720
G1 X87.761 Y81.546 E10.95909
G1 X88.105 Y81.378 E10.97273
G1 X88.208 Y81.361 E10.97645
G1 X94.111 Y81.364 E11.18677
G1 X94.219 Y81.39 E11.19073
G1 X94.528 Y81.545 E11.20305
G1 X95.852 Y82.87 E11.26979
G1 X95.912 Y82.955 E11.2735
G1 X96.037 Y83.318 E11.28718
G1 X96.037 Y85.053 E11.349
G1 X133.844 Y85.053 E12.69605
G1 X133.947 Y85.071 E12.69978
G1 X134.292 Y85.239 E12.71345
G1 X135.615 Y86.562 E12.78011
G1 X135.783 Y86.907 E12.79378
G1 X135.8 Y87.009 E12.79746
G1 X135.8 Y93.383 E13.02456
G1 X135.783 Y93.485 E13.02824
G1 X135.615 Y93.83 E13.04191
G1 X134.291 Y95.154 E13.10862
G1 X133.985 Y95.309 E13.12084
G1 X133.841 Y95.339 E13.12608
G1 X88.208 Y95.339 E14.75196
G1 X87.882 Y95.232 E14.76418
G1 X87.759 Y95.152 E14.76941
G1 X86.437 Y93.829 E14.83605
G1 X86.281 Y93.521 E14.84835
G1 X86.255 Y93.412 E14.85234
G1 X86.252 Y83.316 E15.21206
G1 X86.359 Y82.99 E15.22428
G1 X86.402 Y82.924 E15.22709
G1 X86.696 Y83.12 F4200
G1 F720
G1 X87.991 Y81.821 E15.29244
G1 X88.228 Y81.718 E15.30165
G1 X94.092 Y81.724 E15.51058
G1 X94.299 Y81.821 E15.51872
G1 X95.603 Y83.134 E15.58465
G1 X95.68 Y83.35 E15.59282
G1 X95.68 Y85.41 E15.66622
G1 X133.855 Y85.416 E17.02638
G1 X134.062 Y85.514 E17.03454
G1 X135.34 Y86.792 E17.09894
G1 X135.443 Y87.029 E17.10815
G1 X135.437 Y93.393 E17.3349
G1 X135.34 Y93.6 E17.34304
G1 X134.062 Y94.878 E17.40744
G1 X133.825 Y94.982 E17.41666
G1 X88.241 Y94.982 E19.0408
G1 X88 Y94.887 E19.05003
G1 X86.713 Y93.6 E19.11488
G1 X86.609 Y93.363 E19.1241
G1 X86.609 Y83.35 E19.48086
G1 X86.672 Y83.174 E19.48752
G1 X86.993 Y83.324 F4200
G1 F720
G1 X88.215 Y82.102 E19.54909
G1 X88.281 Y82.075 E19.55163
G1 X94.009 Y82.075 E19.75572
G1 X94.074 Y82.102 E19.75823
G1 X95.296 Y83.324 E19.8198
G1 X95.323 Y83.389 E19.82231
G1 X95.323 Y85.767 E19.90704
G1 X133.772 Y85.767 E21.27696
G1 X133.837 Y85.795 E21.27948
G1 X135.059 Y87.016 E21.34103
G1 X135.086 Y87.082 E21.34357
G1 X135.086 Y93.31 E21.56547
G1 X135.059 Y93.375 E21.56798
G1 X133.837 Y94.597 E21.62955
G1 X133.772 Y94.624 E21.63206
G1 X88.281 Y94.624 E23.25288
G1 X88.215 Y94.597 E23.25542
G1 X86.993 Y93.375 E23.31699
G1 X86.966 Y93.31 E23.3195
G1 X86.97 Y83.379 E23.67334
G1 E21.67334 F1800
G92 E0
G1 X161.962 Y84.371 F4200
G1 E2 F1800
G1 F720
G1 X162.049 Y83.983 E2.01417
G1 X162.315 Y83.494 E2.034
G1 X163.722 Y82.087 E2.1049
G1 X164.209 Y81.822 E2.12465
G1 X164.477 Y81.748 E2.13456
G1 X173.831 Y81.748 E2.46784
G1 X174.098 Y81.822 E2.47771
G1 X174.586 Y82.087 E2.4975
G1 X175.993 Y83.494 E2.5684
G1 X176.258 Y83.982 E2.58819
G1 X176.332 Y84.249 E2.59806
G1 X176.346 Y94.313 E2.95664
G1 X176.259 Y94.702 E2.97084
G1 X175.993 Y95.19 E2.99064
G1 X174.586 Y96.598 E3.06156
G1 X173.948 Y96.913 E3.08691
G1 X173.707 Y96.95 E3.0956
G1 X168.599 Y96.95 E3.2776
G1 X168.21 Y96.864 E3.29179
G1 X167.722 Y96.597 E3.31161
G1 X166.315 Y95.19 E3.38251
G1 X166.049 Y94.702 E3.40231
G1 X165.962 Y94.314 E3.41648
G1 X165.962 Y91.951 E3.50067
G1 X164.562 Y91.946 E3.55055
G1 X164.21 Y91.864 E3.56343
G1 X163.764 Y91.628 E3.58141
G1 X162.332 Y90.208 E3.65326
G1 X162.14 Y89.917 E3.66568
G1 X161.962 Y89.338 E3.68726
G1 X161.962 Y84.431 E3.86209
G1 X162.319 Y84.431 F4200
G1 F720
G1 X162.376 Y84.126 E3.87315
G1 X162.587 Y83.727 E3.88923
G1 X163.954 Y82.36 E3.95811
G1 X164.355 Y82.148 E3.97427
G1 X164.543 Y82.1 E3.98118
G1 X173.765 Y82.1 E4.30976
G1 X173.953 Y82.148 E4.31667
G1 X174.353 Y82.36 E4.3328
G1 X175.72 Y83.727 E4.40168
G1 X175.932 Y84.127 E4.41781
G1 X175.98 Y84.315 E4.42472
G1 X175.989 Y94.295 E4.7803
G1 X175.931 Y94.558 E4.7899
G1 X175.72 Y94.958 E4.80601
G1 X174.354 Y96.324 E4.87484
G1 X173.865 Y96.565 E4.89426
G1 X173.692 Y96.593 E4.9005
G1 X168.617 Y96.593 E5.08132
G1 X168.354 Y96.536 E5.09091
G1 X167.954 Y96.325 E5.10702
G1 X166.587 Y94.958 E5.1759
G1 X166.376 Y94.558 E5.19201
G1 X166.319 Y94.295 E5.2016
G1 X166.319 Y91.593 E5.29787
G1 X164.617 Y91.593 E5.35851
G1 X164.354 Y91.536 E5.3681
G1 X163.954 Y91.325 E5.38421
G1 X162.597 Y89.967 E5.45261
G1 X162.471 Y89.781 E5.46061
G1 X162.319 Y89.309 E5.47828
G1 X162.319 Y84.491 E5.64994
G1 X162.676 Y84.491 F4200
G1 F720
G1 X162.706 Y84.264 E5.6581
G1 X162.861 Y83.958 E5.67032
G1 X164.186 Y82.633 E5.73708
G1 X164.494 Y82.477 E5.74938
G1 X164.602 Y82.452 E5.75333
G1 X173.705 Y82.452 E6.07767
G1 X173.814 Y82.477 E6.08165
G1 X174.122 Y82.633 E6.09395
G1 X175.447 Y83.958 E6.16071
G1 X175.603 Y84.266 E6.17301
G1 X175.628 Y84.375 E6.17699
G1 X175.631 Y94.277 E6.52979
G1 X175.602 Y94.42 E6.53499
G1 X175.447 Y94.726 E6.54721
G1 X174.123 Y96.05 E6.61392
G1 X173.778 Y96.218 E6.62759
G1 X173.676 Y96.236 E6.63128
G1 X168.635 Y96.236 E6.81089
G1 X168.492 Y96.206 E6.8161
G1 X168.186 Y96.051 E6.82832
G1 X166.861 Y94.726 E6.89508
G1 X166.706 Y94.42 E6.9073
G1 X166.676 Y94.277 E6.91251
G1 X166.676 Y91.236 E7.02086
G1 X164.635 Y91.236 E7.09358
G1 X164.492 Y91.206 E7.09879
G1 X164.186 Y91.051 E7.11101
G1 X162.863 Y89.729 E7.17765
G1 X162.783 Y89.606 E7.18288
G1 X162.676 Y89.28 E7.1951
G1 X162.676 Y84.551 E7.36359
G1 X163.033 Y84.551 F4200
G1 F720
G1 X163.039 Y84.394 E7.36919
G1 X163.137 Y84.187 E7.37735
G1 X164.415 Y82.909 E7.44175
G1 X164.652 Y82.806 E7.45096
G1 X173.656 Y82.806 E7.77177
G1 X173.893 Y82.909 E7.78098
G1 X175.171 Y84.187 E7.84538
G1 X175.274 Y84.424 E7.85459
G1 X175.274 Y94.261 E8.20508
G1 X175.171 Y94.497 E8.21425
G1 X173.893 Y95.775 E8.27865
G1 X173.656 Y95.879 E8.28787
G1 X168.652 Y95.879 E8.46616
G1 X168.415 Y95.775 E8.47538
G1 X167.137 Y94.497 E8.53978
G1 X167.039 Y94.291 E8.54791
G1 X167.033 Y90.879 E8.66948
G1 X164.621 Y90.873 E8.75542
G1 X164.415 Y90.775 E8.76355
G1 X163.11 Y89.462 E8.82951
G1 X163.033 Y89.247 E8.83765
G1 X163.033 Y84.611 E9.00283
G1 X163.39 Y84.611 F4200
G1 F720
G1 X163.39 Y84.477 E9.0076
G1 X163.417 Y84.412 E9.01011
G1 X164.639 Y83.19 E9.07168
G1 X164.705 Y83.163 E9.07422
G1 X173.603 Y83.163 E9.39125
G1 X173.668 Y83.19 E9.39376
G1 X174.89 Y84.412 E9.45533
G1 X174.917 Y84.477 E9.45784
G1 X174.917 Y94.207 E9.80452
G1 X174.89 Y94.273 E9.80706
G1 X173.668 Y95.495 E9.86863
G1 X173.603 Y95.522 E9.87114
G1 X168.705 Y95.522 E10.04565
G1 X168.639 Y95.495 E10.04819
G1 X167.417 Y94.273 E10.10976
G1 X167.39 Y94.207 E10.1123
G1 X167.39 Y90.522 E10.24359
G1 X164.705 Y90.522 E10.33926
G1 X164.639 Y90.495 E10.3418
G1 X163.417 Y89.273 E10.40337
G1 X163.39 Y89.207 E10.40591
G1 X163.39 Y84.671 E10.56753
G1 E8.56753 F1800
G92 E0
G1 X201.256 Y84.671 F4200
G1 E2 F1800
G1 F720
G1 X201.256 Y83.424 E2.04443
G1 X201.343 Y83.035 E2.05863
G1 X201.609 Y82.547 E2.07843
G1 X203.016 Y81.14 E2.14933
G1 X203.503 Y80.874 E2.1691
G1 X203.771 Y80.801 E2.179
G1 X213.125 Y80.801 E2.51228
G1 X213.393 Y80.874 E2.52218
G1 X213.88 Y81.14 E2.54195
G1 X215.287 Y82.547 E2.61285
G1 X215.553 Y83.034 E2.63262
G1 X215.626 Y83.302 E2.64252
G1 X215.64 Y93.366 E3.0011
G1 X215.553 Y93.754 E3.01527
G1 X215.287 Y94.243 E3.0351
G1 X213.88 Y95.65 E3.106
G1 X213.243 Y95.966 E3.13134
G1 X213.001 Y96.003 E3.14006
G1 X207.893 Y96.003 E3.32206
G1 X207.505 Y95.916 E3.33623
G1 X207.016 Y95.65 E3.35606
G1 X205.609 Y94.243 E3.42696
G1 X205.343 Y93.754 E3.44679
G1 X205.256 Y93.366 E3.46096
G1 X205.256 Y91.003 E3.54515
G1 X203.856 Y90.999 E3.59503
G1 X203.504 Y90.916 E3.60792
G1 X203.058 Y90.681 E3.62588
G1 X201.627 Y89.26 E3.69773
G1 X201.434 Y88.969 E3.71017
G1 X201.256 Y88.391 E3.73172
G1 X201.256 Y84.731 E3.86212
G1 X201.613 Y84.731 F4200
G1 F720
G1 X201.613 Y83.442 E3.90805
G1 X201.67 Y83.179 E3.91764
G1 X201.881 Y82.779 E3.93375
G1 X203.249 Y81.412 E4.00266
G1 X203.649 Y81.2 E4.01879
G1 X203.837 Y81.152 E4.0257
G1 X213.059 Y81.152 E4.35428
G1 X213.247 Y81.2 E4.36119
G1 X213.647 Y81.412 E4.37732
G1 X215.015 Y82.779 E4.44623
G1 X215.226 Y83.18 E4.46237
G1 X215.275 Y83.368 E4.46929
G1 X215.283 Y93.347 E4.82484
G1 X215.226 Y93.611 E4.83446
G1 X215.015 Y94.01 E4.85054
G1 X213.648 Y95.377 E4.91942
G1 X213.159 Y95.618 E4.93884
G1 X212.986 Y95.646 E4.94508
G1 X207.912 Y95.646 E5.12586
G1 X207.648 Y95.589 E5.13548
G1 X207.249 Y95.378 E5.15156
G1 X205.881 Y94.01 E5.22049
G1 X205.67 Y93.611 E5.23657
G1 X205.613 Y93.347 E5.24619
G1 X205.613 Y90.646 E5.34243
G1 X203.912 Y90.646 E5.40304
G1 X203.648 Y90.589 E5.41266
G1 X203.249 Y90.378 E5.42874
G1 X201.891 Y89.02 E5.49717
G1 X201.766 Y88.834 E5.50515
G1 X201.613 Y88.362 E5.52283
G1 X201.613 Y84.791 E5.65006
G1 X201.97 Y84.791 F4200
G1 F720
G1 X201.97 Y83.46 E5.69748
G1 X202 Y83.317 E5.70269
G1 X202.155 Y83.011 E5.71491
G1 X203.48 Y81.686 E5.78167
G1 X203.788 Y81.53 E5.79397
G1 X203.897 Y81.504 E5.79796
G1 X212.999 Y81.504 E6.12226
G1 X213.108 Y81.53 E6.12625
G1 X213.416 Y81.686 E6.13855
G1 X214.741 Y83.011 E6.20531
G1 X214.897 Y83.319 E6.21761
G1 X214.922 Y83.427 E6.22156
G1 X214.926 Y93.33 E6.5744
G1 X214.896 Y93.473 E6.57961
G1 X214.741 Y93.779 E6.59183
G1 X213.417 Y95.103 E6.65854
G1 X213.072 Y95.271 E6.67221
G1 X212.97 Y95.289 E6.6759
G1 X207.929 Y95.289 E6.85551
G1 X207.786 Y95.259 E6.86072
G1 X207.48 Y95.104 E6.87294
G1 X206.155 Y93.779 E6.9397
G1 X206 Y93.473 E6.95192
G1 X205.97 Y93.33 E6.95713
G1 X205.97 Y90.289 E7.06548
G1 X203.929 Y90.289 E7.1382
G1 X203.786 Y90.259 E7.14341
G1 X203.48 Y90.104 E7.15563
G1 X202.157 Y88.781 E7.22229
G1 X202.077 Y88.659 E7.22749
G1 X201.97 Y88.333 E7.23971
G1 X201.97 Y84.851 E7.36377
G1 X202.327 Y84.851 F4200
G1 F720
G1 X202.327 Y83.477 E7.41273
G1 X202.431 Y83.24 E7.42195
G1 X203.709 Y81.962 E7.48635
G1 X203.916 Y81.864 E7.49451
G1 X212.95 Y81.858 E7.81639
G1 X213.187 Y81.962 E7.82561
G1 X214.465 Y83.24 E7.89001
G1 X214.569 Y83.477 E7.89923
G1 X214.569 Y93.313 E8.24968
G1 X214.465 Y93.55 E8.2589
G1 X213.187 Y94.828 E8.3233
G1 X212.95 Y94.932 E8.33252
G1 X207.946 Y94.932 E8.51081
G1 X207.709 Y94.828 E8.52003
G1 X206.431 Y93.55 E8.58443
G1 X206.333 Y93.343 E8.59259
G1 X206.327 Y89.932 E8.71412
G1 X203.916 Y89.926 E8.80002
G1 X203.709 Y89.828 E8.80818
G1 X202.405 Y88.515 E8.87411
G1 X202.327 Y88.3 E8.88226
G1 X202.327 Y84.911 E9.00301
G1 X202.684 Y84.911 F4200
G1 F720
G1 X202.684 Y83.53 E9.05221
G1 X202.712 Y83.464 E9.05476
G1 X203.933 Y82.242 E9.11631
G1 X203.999 Y82.215 E9.11885
G1 X212.897 Y82.215 E9.43588
G1 X212.963 Y82.242 E9.43842
G1 X214.184 Y83.464 E9.49997
G1 X214.212 Y83.53 E9.50252
G1 X214.212 Y93.26 E9.8492
G1 X214.184 Y93.326 E9.85175
G1 X212.963 Y94.547 E9.91327
G1 X212.897 Y94.575 E9.91582
G1 X207.999 Y94.575 E10.09033
G1 X207.933 Y94.547 E10.09288
G1 X206.712 Y93.326 E10.1544
G1 X206.684 Y93.26 E10.15695
G1 X206.684 Y89.575 E10.28824
G1 X203.999 Y89.575 E10.38391
G1 X203.933 Y89.547 E10.38646
G1 X202.712 Y88.326 E10.44798
G1 X202.684 Y88.26 E10.45053
G1 X202.684 Y84.971 E10.56772
G1 E8.56772 F1800
