; generated by CreatWare 7.0.0 on 2022-08-17 at 18:14:49 UTC

; 

; external perimeters extrusion width = 0.40mm
; perimeters extrusion width = 0.40mm
; infill extrusion width = 0.40mm
; solid infill extrusion width = 0.40mm
; top infill extrusion width = 0.40mm
; support material extrusion width = 0.40mm

; external perimeters extrusion width = 0.40mm
; perimeters extrusion width = 0.40mm
; infill extrusion width = 0.40mm
; solid infill extrusion width = 0.40mm
; top infill extrusion width = 0.40mm
; support material extrusion width = 0.40mm

; external perimeters extrusion width = 0.40mm
; perimeters extrusion width = 0.40mm
; infill extrusion width = 0.40mm
; solid infill extrusion width = 0.40mm
; top infill extrusion width = 0.40mm
; support material extrusion width = 0.40mm

G21 ; set units to millimeters
G90 ; use absolute coordinates
M82 ; use absolute distances for extrusion
G92 E0
M107
M190 S45 ; set bed temperature and wait for it to be reached
M104 S210 ; set temperature
;TYPE:Custom
M109 S210 ; set temperature and wait for it to be reached
M6013 S0 ; set chamber temp

G28 X0 Y0  ;move X/Y to min endstops
G28 Z0     ;move Z to min endstops

;Add Clear Nozzle
G92 E0                   ;zero the extruded length again
G0 F4200 X0 Y0
G0 F400 X10 Z0.4         ;move a bit while down the Z
M221 T0 S300             ;set flow is 300%
G1 F200 X30 E8          ;extrude amont filament to clean the hotend
M221 T0 S100             ;reset flow is 100%
G92 E0                   ;zero the extruded length again
;Add End

G0 Z15.0 F4200 ;move the platform down 15mm

;Put printing message on LCD screen
M117 Printing...
; Filament gcode
M107
;LAYER_CHANGE
;Layer 1
;Z:0.2
;HEIGHT:0.2
;BEFORE_LAYER_CHANGE
;0.2


G1 Z.2 F4200
;AFTER_LAYER_CHANGE
;G92 E0   ;zero the extruded length again
;0.2
G1 E-2 F1800
G92 E0
G1 X77.783 Y83.418 F4200
G1 E2 F1800
;TYPE:Skirt/Brim
;WIDTH:0.4
G1 F720
G1 X79.035 Y82.404 E2.0574
G1 X82.345 Y80.354 E2.19612
G1 X84.701 Y79.479 E2.28567
G1 X245.663 Y54.067 E8.09171
G1 X246.655 Y53.99 E8.12716
G1 X253.139 Y53.99 E8.35818
G1 X256.186 Y54.768 E8.47023
G1 X259.765 Y56.723 E8.61553
G1 X261.212 Y57.806 E8.67993
G1 X262.599 Y59.755 E8.76516
G1 X263.179 Y62.406 E8.86185
G1 X263.179 Y71.284 E9.17817
G1 X262.525 Y74.091 E9.28086
G1 X261.185 Y76.813 E9.38896
G1 X259.977 Y78.501 E9.46292
G1 X257.634 Y80.844 E9.58098
G1 X255.62 Y82.202 E9.66753
G1 X253.441 Y83.126 E9.75186
G1 X252.374 Y83.471 E9.79181
G1 X144.183 Y108.149 E13.74561
G1 X142.769 Y108.308 E13.79631
G1 X134.985 Y108.291 E14.07365
G1 X85.222 Y104.598 E15.85156
G1 X83.469 Y104.214 E15.9155
G1 X80.159 Y102.978 E16.04139
G1 X77.887 Y101.518 E16.13761
G1 X76.5 Y99.569 E16.22284
G1 X75.921 Y96.918 E16.31952
G1 X75.921 Y87.913 E16.64036
G1 X76.318 Y85.702 E16.7204
G1 X77.75 Y83.469 E16.81492
G1 E14.81492 F1800
G92 E0
G1 X240.719 Y73.441 F4200
G1 E2 F1800
G1 F720
G1 X240.705 Y68.377 E2.18043
G1 X240.786 Y68.001 E2.19413
G1 X240.95 Y67.652 E2.20787
G1 X242.506 Y66.063 E2.28711
G1 X242.953 Y65.826 E2.30514
G1 X243.305 Y65.744 E2.31802
G1 X244.705 Y65.739 E2.3679
G1 X244.705 Y63.377 E2.45206
G1 X244.791 Y62.988 E2.46625
G1 X245.058 Y62.5 E2.48607
G1 X246.446 Y61.112 E2.55601
G1 X246.643 Y60.967 E2.56473
G1 X247.317 Y60.74 E2.59007
G1 X252.489 Y60.743 E2.77435
G1 X252.842 Y60.828 E2.78729
G1 X253.329 Y61.093 E2.80704
G1 X254.736 Y62.5 E2.87794
G1 X255.001 Y62.987 E2.89769
G1 X255.075 Y63.255 E2.9076
G1 X255.089 Y73.319 E3.26618
G1 X255.008 Y73.695 E3.27988
G1 X254.843 Y74.044 E3.29363
G1 X253.331 Y75.601 E3.37096
G1 X252.841 Y75.869 E3.39086
G1 X252.574 Y75.942 E3.40072
G1 X243.341 Y75.956 E3.72969
G1 X242.966 Y75.875 E3.74336
G1 X242.617 Y75.71 E3.75711
G1 X241.06 Y74.198 E3.83444
G1 X240.792 Y73.709 E3.85431
G1 X240.735 Y73.499 E3.86206
G1 X241.079 Y73.41 F4200
G1 F720
G1 X241.062 Y68.395 E4.04074
G1 X241.117 Y68.134 E4.05024
G1 X241.261 Y67.832 E4.06216
G1 X242.697 Y66.366 E4.13528
G1 X243.097 Y66.154 E4.15141
G1 X243.36 Y66.097 E4.161
G1 X245.062 Y66.097 E4.22164
G1 X245.062 Y63.395 E4.31791
G1 X245.119 Y63.132 E4.3275
G1 X245.33 Y62.733 E4.34358
G1 X246.688 Y61.375 E4.41201
G1 X246.83 Y61.272 E4.41826
G1 X247.346 Y61.097 E4.43767
G1 X252.469 Y61.1 E4.6202
G1 X252.697 Y61.154 E4.62855
G1 X253.096 Y61.365 E4.64463
G1 X254.463 Y62.733 E4.71354
G1 X254.675 Y63.133 E4.72967
G1 X254.723 Y63.321 E4.73658
G1 X254.731 Y73.301 E5.09216
G1 X254.676 Y73.562 E5.10166
G1 X254.533 Y73.864 E5.11357
G1 X253.096 Y75.33 E5.18671
G1 X252.695 Y75.542 E5.20287
G1 X252.508 Y75.591 E5.20976
G1 X243.36 Y75.599 E5.5357
G1 X243.099 Y75.543 E5.54521
G1 X242.796 Y75.4 E5.55715
G1 X241.33 Y73.964 E5.63027
G1 X241.118 Y73.563 E5.64643
G1 X241.094 Y73.468 E5.64992
G1 X241.439 Y73.387 F4200
G1 F720
G1 X241.422 Y73.315 E5.65256
G1 X241.419 Y68.413 E5.82722
G1 X241.449 Y68.268 E5.8325
G1 X241.57 Y68.012 E5.84259
G1 X242.929 Y66.639 E5.91142
G1 X243.235 Y66.484 E5.92364
G1 X243.378 Y66.454 E5.92885
G1 X245.419 Y66.454 E6.00157
G1 X245.419 Y63.413 E6.10992
G1 X245.449 Y63.27 E6.11513
G1 X245.604 Y62.964 E6.12735
G1 X246.929 Y61.639 E6.19411
G1 X247.014 Y61.579 E6.19782
G1 X247.376 Y61.454 E6.21147
G1 X252.448 Y61.458 E6.39218
G1 X252.556 Y61.483 E6.39613
G1 X252.865 Y61.639 E6.40846
G1 X254.19 Y62.964 E6.47522
G1 X254.345 Y63.272 E6.48751
G1 X254.371 Y63.38 E6.49147
G1 X254.374 Y73.283 E6.84431
G1 X254.344 Y73.428 E6.84959
G1 X254.223 Y73.684 E6.85968
G1 X252.864 Y75.057 E6.92851
G1 X252.556 Y75.213 E6.94081
G1 X252.448 Y75.238 E6.94476
G1 X243.378 Y75.242 E7.26792
G1 X243.232 Y75.211 E7.27324
G1 X242.977 Y75.091 E7.28328
G1 X241.604 Y73.732 E7.35211
G1 X241.458 Y73.444 E7.36361
G1 X241.782 Y73.296 F4200
G1 F720
G1 X241.776 Y68.43 E7.53698
G1 X241.88 Y68.193 E7.5462
G1 X243.158 Y66.915 E7.6106
G1 X243.364 Y66.817 E7.61873
G1 X245.776 Y66.811 E7.70467
G1 X245.782 Y63.4 E7.8262
G1 X245.88 Y63.193 E7.83436
G1 X247.167 Y61.905 E7.89923
G1 X247.408 Y61.811 E7.90845
G1 X252.399 Y61.811 E8.08628
G1 X252.636 Y61.915 E8.0955
G1 X253.914 Y63.193 E8.1599
G1 X254.017 Y63.43 E8.16911
G1 X254.017 Y73.266 E8.51956
G1 X253.914 Y73.503 E8.52877
G1 X252.636 Y74.781 E8.59317
G1 X252.399 Y74.885 E8.60239
G1 X243.395 Y74.885 E8.9232
G1 X243.158 Y74.781 E8.93242
G1 X241.88 Y73.503 E8.99682
G1 X241.808 Y73.351 E9.00281
G1 X242.134 Y73.215 F4200
G1 F720
G1 X242.133 Y68.483 E9.17141
G1 X242.16 Y68.417 E9.17395
G1 X243.382 Y67.195 E9.23552
G1 X243.448 Y67.168 E9.23806
G1 X246.133 Y67.168 E9.33373
G1 X246.133 Y63.483 E9.46502
G1 X246.16 Y63.417 E9.46756
G1 X247.382 Y62.195 E9.52913
G1 X247.448 Y62.168 E9.53167
G1 X252.346 Y62.168 E9.70618
G1 X252.411 Y62.195 E9.70869
G1 X253.633 Y63.417 E9.77026
G1 X253.66 Y63.483 E9.7728
G1 X253.66 Y73.213 E10.11948
G1 X253.633 Y73.279 E10.12202
G1 X252.411 Y74.5 E10.18357
G1 X252.346 Y74.528 E10.18609
G1 X243.448 Y74.528 E10.50312
G1 X243.382 Y74.5 E10.50567
G1 X242.157 Y73.271 E10.5675
G1 E8.5675 F1800
G92 E0
G1 X196.676 Y73.999 F4200
G1 E2 F1800
G1 F720
G1 X196.69 Y84.064 E2.35861
G1 X196.609 Y84.439 E2.37228
G1 X196.444 Y84.788 E2.38603
G1 X194.932 Y86.345 E2.46336
G1 X194.443 Y86.613 E2.48323
G1 X194.176 Y86.686 E2.49309
G1 X184.943 Y86.7 E2.82206
G1 X184.567 Y86.619 E2.83576
G1 X184.218 Y86.454 E2.84951
G1 X182.661 Y84.942 E2.92684
G1 X182.394 Y84.453 E2.94669
G1 X182.32 Y84.185 E2.9566
G1 X182.306 Y79.121 E3.13703
G1 X182.387 Y78.745 E3.15073
G1 X182.552 Y78.396 E3.16448
G1 X184.107 Y76.807 E3.24369
G1 X184.554 Y76.571 E3.2617
G1 X184.907 Y76.488 E3.27462
G1 X186.306 Y76.484 E3.32447
G1 X186.306 Y74.121 E3.40866
G1 X186.393 Y73.733 E3.42283
G1 X186.659 Y73.244 E3.44266
G1 X188.048 Y71.856 E3.51262
G1 X188.244 Y71.711 E3.52131
G1 X188.919 Y71.484 E3.54668
G1 X194.091 Y71.488 E3.73096
G1 X194.444 Y71.572 E3.74389
G1 X194.93 Y71.837 E3.76361
G1 X196.337 Y73.244 E3.83451
G1 X196.603 Y73.731 E3.85428
G1 X196.661 Y73.941 E3.86204
G1 X196.316 Y74.03 F4200
G1 F720
G1 X196.333 Y84.045 E4.21887
G1 X196.278 Y84.306 E4.22837
G1 X196.135 Y84.608 E4.24028
G1 X194.698 Y86.074 E4.31342
G1 X194.297 Y86.287 E4.3296
G1 X194.11 Y86.335 E4.33648
G1 X184.962 Y86.343 E4.66242
G1 X184.701 Y86.287 E4.67193
G1 X184.398 Y86.144 E4.68387
G1 X182.932 Y84.708 E4.75699
G1 X182.72 Y84.307 E4.77315
G1 X182.672 Y84.119 E4.78006
G1 X182.664 Y79.139 E4.9575
G1 X182.719 Y78.879 E4.96697
G1 X182.862 Y78.576 E4.97891
G1 X184.299 Y77.11 E5.05205
G1 X184.699 Y76.898 E5.06818
G1 X184.962 Y76.841 E5.07777
G1 X186.664 Y76.841 E5.13841
G1 X186.664 Y74.14 E5.23465
G1 X186.721 Y73.876 E5.24427
G1 X186.932 Y73.477 E5.26035
G1 X188.289 Y72.119 E5.32875
G1 X188.431 Y72.017 E5.33498
G1 X188.948 Y71.841 E5.35444
G1 X194.07 Y71.845 E5.53693
G1 X194.299 Y71.899 E5.54531
G1 X194.698 Y72.109 E5.56137
G1 X196.065 Y73.477 E5.63028
G1 X196.277 Y73.877 E5.64641
G1 X196.301 Y73.972 E5.6499
G1 X195.956 Y74.053 F4200
G1 F720
G1 X195.973 Y74.125 E5.65254
G1 X195.976 Y84.027 E6.00534
G1 X195.946 Y84.172 E6.01062
G1 X195.825 Y84.428 E6.02071
G1 X194.466 Y85.801 E6.08954
G1 X194.158 Y85.957 E6.10184
G1 X194.05 Y85.983 E6.1058
G1 X184.98 Y85.986 E6.42896
G1 X184.834 Y85.956 E6.43427
G1 X184.579 Y85.835 E6.44433
G1 X183.205 Y84.476 E6.51319
G1 X183.05 Y84.168 E6.52548
G1 X183.024 Y84.06 E6.52944
G1 X183.021 Y79.157 E6.70413
G1 X183.051 Y79.012 E6.70941
G1 X183.172 Y78.756 E6.7195
G1 X184.531 Y77.383 E6.78833
G1 X184.837 Y77.228 E6.80055
G1 X184.98 Y77.198 E6.80576
G1 X187.021 Y77.198 E6.87848
G1 X187.021 Y74.157 E6.98683
G1 X187.051 Y74.014 E6.99204
G1 X187.205 Y73.708 E7.00425
G1 X188.53 Y72.383 E7.07101
G1 X188.615 Y72.323 E7.07472
G1 X188.978 Y72.198 E7.0884
G1 X194.05 Y72.202 E7.26911
G1 X194.158 Y72.227 E7.27306
G1 X194.466 Y72.383 E7.28536
G1 X195.791 Y73.708 E7.35212
G1 X195.937 Y73.996 E7.36362
G1 X195.613 Y74.144 F4200
G1 F720
G1 X195.619 Y84.01 E7.71514
G1 X195.515 Y84.247 E7.72436
G1 X194.237 Y85.525 E7.78876
G1 X194 Y85.629 E7.79798
G1 X184.996 Y85.629 E8.11879
G1 X184.759 Y85.525 E8.12801
G1 X183.481 Y84.247 E8.19241
G1 X183.378 Y84.01 E8.20162
G1 X183.384 Y79.144 E8.37499
G1 X183.481 Y78.937 E8.38313
G1 X184.759 Y77.659 E8.44753
G1 X184.966 Y77.561 E8.45569
G1 X187.378 Y77.555 E8.54163
G1 X187.384 Y74.144 E8.66316
G1 X187.481 Y73.937 E8.6713
G1 X188.769 Y72.65 E8.73617
G1 X189.01 Y72.555 E8.7454
G1 X194.031 Y72.561 E8.9243
G1 X194.237 Y72.659 E8.93243
G1 X195.515 Y73.937 E8.99683
G1 X195.587 Y74.09 E9.00285
G1 X195.261 Y74.225 F4200
G1 F720
G1 X195.262 Y83.957 E9.3496
G1 X195.235 Y84.023 E9.35214
G1 X194.013 Y85.245 E9.41371
G1 X193.947 Y85.272 E9.41625
G1 X185.049 Y85.272 E9.73328
G1 X184.984 Y85.245 E9.73579
G1 X183.762 Y84.023 E9.79736
G1 X183.735 Y83.957 E9.7999
G1 X183.735 Y79.227 E9.96843
G1 X183.762 Y79.161 E9.97097
G1 X184.984 Y77.94 E10.03252
G1 X185.049 Y77.912 E10.03504
G1 X187.735 Y77.912 E10.13074
G1 X187.735 Y74.227 E10.26203
G1 X187.762 Y74.161 E10.26457
G1 X188.984 Y72.94 E10.32612
G1 X189.049 Y72.912 E10.32864
G1 X193.947 Y72.912 E10.50315
G1 X194.013 Y72.94 E10.5057
G1 X195.238 Y74.169 E10.56753
G1 E8.56753 F1800
G92 E0
G1 X144.633 Y88.4 F4200
G1 E2 F1800
G1 F720
G1 X144.719 Y88.789 E2.01419
G1 X144.706 Y99.043 E2.37954
G1 X144.632 Y99.311 E2.38945
G1 X144.367 Y99.798 E2.4092
G1 X142.96 Y101.205 E2.4801
G1 X142.472 Y101.471 E2.4999
G1 X142.205 Y101.544 E2.50976
G1 X136.118 Y101.558 E2.72664
G1 X135.584 Y101.401 E2.74647
G1 X135.248 Y101.188 E2.76064
G1 X133.875 Y99.815 E2.82982
G1 X133.705 Y99.567 E2.84053
G1 X133.506 Y98.945 E2.8638
G1 X133.506 Y97.865 E2.90228
G1 X86.379 Y97.865 E4.58139
G1 X85.991 Y97.779 E4.59555
G1 X85.502 Y97.512 E4.6154
G1 X84.096 Y96.105 E4.68627
G1 X83.83 Y95.618 E4.70604
G1 X83.756 Y95.351 E4.71591
G1 X83.743 Y88.791 E4.94964
G1 X83.78 Y88.549 E4.95836
G1 X84.095 Y87.912 E4.98368
G1 X85.502 Y86.505 E5.05458
G1 X85.99 Y86.239 E5.07438
G1 X86.257 Y86.166 E5.08424
G1 X142.205 Y86.166 E7.07764
G1 X142.472 Y86.239 E7.0875
G1 X142.96 Y86.505 E7.1073
G1 X144.367 Y87.912 E7.1782
G1 X144.604 Y88.347 E7.19585
G1 X144.289 Y88.514 F4200
G1 F720
G1 X144.362 Y88.807 E7.20661
G1 X144.354 Y98.977 E7.56896
G1 X144.306 Y99.165 E7.57587
G1 X144.094 Y99.566 E7.59203
G1 X142.727 Y100.933 E7.66091
G1 X142.326 Y101.144 E7.67705
G1 X142.139 Y101.193 E7.68394
G1 X136.146 Y101.201 E7.89747
G1 X135.714 Y101.068 E7.91357
G1 X135.487 Y100.922 E7.92319
G1 X134.141 Y99.575 E7.99104
G1 X134.015 Y99.389 E7.99904
G1 X133.863 Y98.917 E8.01671
G1 X133.863 Y97.508 E8.06691
G1 X86.398 Y97.508 E9.75807
G1 X86.135 Y97.451 E9.76766
G1 X85.735 Y97.24 E9.78377
G1 X84.368 Y95.873 E9.85265
G1 X84.156 Y95.472 E9.86881
G1 X84.108 Y95.285 E9.87569
G1 X84.1 Y88.805 E10.10657
G1 X84.128 Y88.633 E10.11278
G1 X84.369 Y88.143 E10.13224
G1 X85.735 Y86.777 E10.20107
G1 X86.136 Y86.565 E10.21723
G1 X86.323 Y86.517 E10.22411
G1 X142.139 Y86.517 E12.21281
G1 X142.326 Y86.565 E12.21969
G1 X142.727 Y86.777 E12.23585
G1 X144.094 Y88.144 E12.30473
G1 X144.261 Y88.461 E12.3175
G1 X143.944 Y88.621 F4200
G1 F720
G1 X144.005 Y88.825 E12.32509
G1 X144.002 Y98.918 E12.6847
G1 X143.976 Y99.026 E12.68866
G1 X143.821 Y99.334 E12.70095
G1 X142.496 Y100.659 E12.76771
G1 X142.187 Y100.815 E12.78004
G1 X142.079 Y100.841 E12.784
G1 X136.176 Y100.844 E12.99432
G1 X135.85 Y100.737 E13.00654
G1 X135.727 Y100.657 E13.01177
G1 X134.407 Y99.336 E13.07831
G1 X134.327 Y99.214 E13.08351
G1 X134.22 Y98.888 E13.09573
G1 X134.22 Y97.151 E13.15762
G1 X86.416 Y97.151 E14.86086
G1 X86.273 Y97.121 E14.86607
G1 X85.966 Y96.966 E14.87832
G1 X84.642 Y95.642 E14.94503
G1 X84.486 Y95.333 E14.95736
G1 X84.46 Y95.225 E14.96132
G1 X84.457 Y88.822 E15.18946
G1 X84.475 Y88.719 E15.19319
G1 X84.642 Y88.375 E15.20681
G1 X85.966 Y87.051 E15.27352
G1 X86.275 Y86.895 E15.28585
G1 X86.383 Y86.869 E15.28981
G1 X142.079 Y86.869 E17.27423
G1 X142.187 Y86.895 E17.27819
G1 X142.496 Y87.051 E17.29052
G1 X143.821 Y88.376 E17.35728
G1 X143.917 Y88.567 E17.3649
G1 X143.598 Y88.718 F4200
G1 F720
G1 X143.648 Y88.841 E17.36963
G1 X143.648 Y98.868 E17.72689
G1 X143.545 Y99.105 E17.7361
G1 X142.267 Y100.383 E17.8005
G1 X142.03 Y100.487 E17.80972
G1 X136.209 Y100.487 E18.01712
G1 X135.994 Y100.41 E18.02526
G1 X134.654 Y99.07 E18.09278
G1 X134.577 Y98.855 E18.10092
G1 X134.577 Y96.794 E18.17435
G1 X86.432 Y96.794 E19.88973
G1 X86.195 Y96.69 E19.89895
G1 X84.918 Y95.413 E19.9633
G1 X84.814 Y95.176 E19.97252
G1 X84.82 Y88.811 E20.1993
G1 X84.918 Y88.605 E20.20743
G1 X86.195 Y87.327 E20.2718
G1 X86.432 Y87.223 E20.28102
G1 X142.03 Y87.223 E22.26195
G1 X142.267 Y87.327 E22.27117
G1 X143.545 Y88.605 E22.33557
G1 X143.573 Y88.664 E22.3379
G1 X143.264 Y88.829 F4200
G1 F720
G1 X143.291 Y88.895 E22.34044
G1 X143.291 Y98.815 E22.69389
G1 X143.264 Y98.881 E22.69643
G1 X142.042 Y100.103 E22.758
G1 X141.977 Y100.13 E22.76051
G1 X136.249 Y100.13 E22.9646
G1 X136.183 Y100.103 E22.96714
G1 X134.961 Y98.881 E23.02871
G1 X134.934 Y98.815 E23.03125
G1 X134.934 Y96.437 E23.11598
G1 X86.485 Y96.437 E24.8422
G1 X86.42 Y96.41 E24.84471
G1 X85.198 Y95.188 E24.90628
G1 X85.171 Y95.122 E24.90882
G1 X85.171 Y88.895 E25.13069
G1 X85.198 Y88.829 E25.13323
G1 X86.42 Y87.607 E25.1948
G1 X86.485 Y87.58 E25.19731
G1 X141.977 Y87.58 E27.17447
G1 X142.042 Y87.607 E27.17698
G1 X143.222 Y88.787 E27.23644
G1 E25.23644 F1800
G92 E0
G1 X83.149 Y89.736 F4200
G1 E2 F1800
;TYPE:Support material
G1 F720
G1 X83.149 Y94.27 E2.16154
G1 X83.257 Y95.213 E2.19536
G1 X84.045 Y96.844 E2.2599
G1 X82.456 Y96.844 E2.31652
G1 X82.456 Y87.987 E2.63209
G1 X83.548 Y87.987 E2.671
G1 X83.161 Y89.684 E2.73302
G1 X83.284 Y96.683 F4200
G1 F720
G1 X83.284 Y95.639 E2.77022
G1 E.77022 F1800
G92 E0
G1 X137.648 Y94.695 F4200
G1 X137.87 Y94.695
G1 E2 F1800
;TYPE:Gap fill
;WIDTH:0.113682
G1 F360
G1 X137.884 Y94.874 E2.00127
;WIDTH:0.116084
G1 X137.938 Y95.276 E2.00423
G1 E.00423 F1800
G92 E0
G1 X137.871 Y94.362 F4200
G1 E2 F1800
;WIDTH:0.107928
G1 F360
G1 X137.881 Y94.208 E2.001
;WIDTH:0.11021
G1 X137.882 Y94.199 E2.00106
;WIDTH:0.150857
G1 X137.902 Y94.097 E2.00218
;WIDTH:0.191501
G1 X137.923 Y93.995 E2.00372
;WIDTH:0.232145
G1 X137.943 Y93.893 E2.00568
;WIDTH:0.232145
G1 X137.947 Y93.891 E2.00576
;WIDTH:0.226646
G1 X138.081 Y93.839 E2.00839
