; generated by CreatWare 7.0.0 on 2022-07-21 at 17:19:45 UTC

; 

; external perimeters extrusion width = 0.40mm
; perimeters extrusion width = 0.40mm
; infill extrusion width = 0.40mm
; solid infill extrusion width = 0.40mm
; top infill extrusion width = 0.40mm

G21 ; set units to millimeters
G90 ; use absolute coordinates
M82 ; use absolute distances for extrusion
G92 E0
M107
M190 S45 ; set bed temperature and wait for it to be reached
M104 S210 ; set temperature
;TYPE:Custom
M109 S210 ; set temperature and wait for it to be reached
M6013 S0 ; set chamber temp

G28 X0 Y0  ;move X/Y to min endstops
G28 Z0     ;move Z to min endstops

;Add Clear Nozzle
G92 E0                   ;zero the extruded length again
G0 F4200 X0 Y0
G0 F400 X10 Z0.4         ;move a bit while down the Z
M221 T0 S300             ;set flow is 300%
G1 F200 X30 E8          ;extrude amont filament to clean the hotend
M221 T0 S100             ;reset flow is 100%
G92 E0                   ;zero the extruded length again
;Add End

G0 Z15.0 F4200 ;move the platform down 15mm

;Put printing message on LCD screen
M117 Printing...
; Filament gcode
M107
;LAYER_CHANGE
;Layer 1
;Z:0.2
;HEIGHT:0.2
;BEFORE_LAYER_CHANGE
;0.2


G1 Z.2 F4200
;AFTER_LAYER_CHANGE
;G92 E0   ;zero the extruded length again
;0.2
G1 E-2 F1800
G92 E0
G1 X88.012 Y192.012 F4200
G1 E2 F1800
;TYPE:Skirt/Brim
;WIDTH:0.4
G1 F720
G1 X90.663 Y191.433 E2.09668
G1 X138.915 Y191.433 E3.81588
G1 X140.736 Y191.7 E3.88146
G1 X159.736 Y197.382 E4.58804
G1 X162.41 Y198.978 E4.69899
G1 X164.753 Y201.321 E4.81705
G1 X166.036 Y203.165 E4.89709
G1 X166.615 Y205.816 E4.99377
G1 X166.615 Y214.812 E5.31429
G1 X166.218 Y217.023 E5.39433
G1 X164.753 Y219.307 E5.49101
G1 X162.41 Y221.65 E5.60907
G1 X161.433 Y222.45 E5.65406
G1 X149.433 Y230.423 E6.16738
G1 X147.372 Y231.316 E6.24741
G1 X145.915 Y231.486 E6.29967
G1 X127.601 Y231.486 E6.95219
G1 X125.301 Y231.055 E7.03556
G1 X88.363 Y216.717 E8.44732
G1 X86.168 Y215.285 E8.5407
G1 X83.825 Y212.942 E8.65876
G1 X82.542 Y211.098 E8.7388
G1 X81.963 Y208.447 E8.83548
G1 X81.963 Y200.133 E9.1317
G1 X82.36 Y197.923 E9.2117
G1 X83.825 Y195.638 E9.30841
G1 X86.168 Y193.295 E9.42647
G1 X87.963 Y192.047 E9.50436
G1 E7.50436 F1800
G92 E0
G1 X90.96 Y198.271 F4200
G1 E2 F1800
G1 F720
G1 X91.228 Y198.197 E2.00991
G1 X138.35 Y198.197 E3.68885
G1 X138.618 Y198.271 E3.69876
G1 X139.105 Y198.536 E3.71851
G1 X140.512 Y199.943 E3.78941
G1 X140.778 Y200.432 E3.80924
G1 X140.865 Y200.82 E3.82341
G1 X140.865 Y203.866 E3.93194
G1 X157.35 Y203.88 E4.51929
G1 X157.618 Y203.953 E4.52919
G1 X158.105 Y204.219 E4.54896
G1 X159.512 Y205.626 E4.61986
G1 X159.828 Y206.263 E4.6452
G1 X159.865 Y206.504 E4.65389
G1 X159.865 Y214.125 E4.92542
G1 X159.778 Y214.514 E4.93962
G1 X159.512 Y215.002 E4.95942
G1 X158.105 Y216.409 E5.03032
G1 X157.618 Y216.675 E5.05009
G1 X157.35 Y216.748 E5.05999
G1 X147.865 Y216.762 E5.39794
G1 X147.865 Y222.097 E5.58802
G1 X147.828 Y222.338 E5.59671
G1 X147.512 Y222.975 E5.62205
G1 X146.105 Y224.383 E5.69297
G1 X145.468 Y224.698 E5.71829
G1 X145.226 Y224.735 E5.72701
G1 X128.288 Y224.735 E6.3305
G1 X127.898 Y224.648 E6.34474
G1 X127.453 Y224.413 E6.36267
G1 X126.004 Y222.975 E6.43541
G1 X125.738 Y222.488 E6.45518
G1 X125.665 Y222.221 E6.46504
G1 X125.651 Y210.397 E6.88632
G1 X91.35 Y210.397 E8.10845
G1 X90.962 Y210.311 E8.12261
G1 X90.473 Y210.044 E8.14246
G1 X89.066 Y208.637 E8.21336
G1 X88.8 Y208.15 E8.23313
G1 X88.727 Y207.882 E8.24303
G1 X88.713 Y200.822 E8.49458
G1 X88.75 Y200.581 E8.50327
G1 X89.066 Y199.944 E8.52861
G1 X90.473 Y198.536 E8.59953
G1 X90.908 Y198.299 E8.61718
G1 X91.074 Y198.614 F4200
G1 F720
G1 X91.294 Y198.549 E8.62535
G1 X138.284 Y198.549 E10.29958
G1 X138.472 Y198.597 E10.30649
G1 X138.872 Y198.809 E10.32262
G1 X140.24 Y200.176 E10.39153
G1 X140.451 Y200.575 E10.40761
G1 X140.508 Y200.839 E10.41723
G1 X140.508 Y204.223 E10.5378
G1 X157.284 Y204.231 E11.13552
G1 X157.472 Y204.28 E11.14244
G1 X157.872 Y204.491 E11.15855
G1 X159.239 Y205.858 E11.22743
G1 X159.48 Y206.347 E11.24685
G1 X159.508 Y206.519 E11.25306
G1 X159.508 Y214.107 E11.52342
G1 X159.451 Y214.37 E11.53301
G1 X159.24 Y214.769 E11.54909
G1 X157.872 Y216.137 E11.61802
G1 X157.472 Y216.348 E11.63413
G1 X157.284 Y216.397 E11.64105
G1 X147.508 Y216.405 E11.98936
G1 X147.508 Y222.082 E12.19163
G1 X147.48 Y222.254 E12.19784
G1 X147.239 Y222.744 E12.2173
G1 X145.873 Y224.109 E12.2861
G1 X145.384 Y224.35 E12.30552
G1 X145.211 Y224.378 E12.31176
G1 X128.307 Y224.378 E12.91404
G1 X128.043 Y224.321 E12.92366
G1 X127.644 Y224.11 E12.93974
G1 X126.276 Y222.743 E13.00865
G1 X126.065 Y222.342 E13.02479
G1 X126.016 Y222.155 E13.03168
G1 X126.008 Y210.04 E13.46333
G1 X91.369 Y210.04 E14.6975
G1 X91.105 Y209.983 E14.70712
G1 X90.706 Y209.772 E14.7232
G1 X89.339 Y208.405 E14.79208
G1 X89.127 Y208.004 E14.80824
G1 X89.079 Y207.816 E14.81515
G1 X89.07 Y200.837 E15.06381
G1 X89.098 Y200.664 E15.07005
G1 X89.339 Y200.175 E15.08947
G1 X90.706 Y198.809 E15.15832
G1 X91.021 Y198.642 E15.17102
G1 X91.181 Y198.959 F4200
G1 F720
G1 X91.354 Y198.901 E15.17752
G1 X138.224 Y198.901 E16.84748
G1 X138.333 Y198.927 E16.85147
G1 X138.641 Y199.082 E16.86376
G1 X139.966 Y200.407 E16.93052
G1 X140.121 Y200.714 E16.94277
G1 X140.151 Y200.857 E16.94798
G1 X140.151 Y204.58 E17.08063
G1 X157.224 Y204.583 E17.68893
G1 X157.333 Y204.609 E17.69292
G1 X157.641 Y204.765 E17.70522
G1 X158.965 Y206.089 E17.77193
G1 X159.133 Y206.433 E17.78557
G1 X159.151 Y206.536 E17.7893
G1 X159.151 Y214.089 E18.05841
G1 X159.121 Y214.232 E18.06362
G1 X158.966 Y214.538 E18.07584
G1 X157.641 Y215.863 E18.1426
G1 X157.333 Y216.019 E18.1549
G1 X157.224 Y216.044 E18.15888
G1 X147.151 Y216.048 E18.51778
G1 X147.151 Y222.065 E18.73216
G1 X147.133 Y222.168 E18.73589
G1 X146.965 Y222.512 E18.74953
G1 X145.642 Y223.835 E18.81619
G1 X145.297 Y224.003 E18.82986
G1 X145.195 Y224.021 E18.83355
G1 X128.324 Y224.021 E19.43466
G1 X128.181 Y223.991 E19.43987
G1 X127.875 Y223.836 E19.45209
G1 X126.55 Y222.512 E19.51883
G1 X126.394 Y222.203 E19.53116
G1 X126.369 Y222.095 E19.53511
G1 X126.365 Y209.683 E19.97734
G1 X91.386 Y209.683 E21.22363
G1 X91.243 Y209.653 E21.22884
G1 X90.937 Y209.498 E21.24106
G1 X89.612 Y208.173 E21.30782
G1 X89.456 Y207.865 E21.32012
G1 X89.431 Y207.757 E21.32407
G1 X89.427 Y200.854 E21.57002
G1 X89.445 Y200.751 E21.57375
G1 X89.613 Y200.406 E21.58742
G1 X90.937 Y199.082 E21.65413
G1 X91.128 Y198.986 E21.66175
G1 X91.278 Y199.305 F4200
G1 F720
G1 X91.403 Y199.255 E21.66655
G1 X138.205 Y199.261 E23.33408
G1 X138.412 Y199.358 E23.34222
G1 X139.69 Y200.636 E23.40662
G1 X139.788 Y200.843 E23.41478
G1 X139.794 Y204.937 E23.56065
G1 X157.175 Y204.937 E24.17993
G1 X157.412 Y205.041 E24.18915
G1 X158.69 Y206.319 E24.25355
G1 X158.794 Y206.556 E24.26277
G1 X158.788 Y214.102 E24.53163
G1 X158.69 Y214.309 E24.53979
G1 X157.412 Y215.587 E24.60419
G1 X157.175 Y215.691 E24.61341
G1 X146.502 Y215.691 E24.99368
G1 X146.717 Y216.01 E25.00739
G1 X146.794 Y216.225 E25.01553
G1 X146.794 Y222.046 E25.22293
G1 X146.69 Y222.283 E25.23215
G1 X145.412 Y223.56 E25.29652
G1 X145.205 Y223.658 E25.30468
G1 X128.311 Y223.658 E25.90661
G1 X128.104 Y223.56 E25.91477
G1 X126.826 Y222.283 E25.97914
G1 X126.722 Y222.046 E25.98836
G1 X126.722 Y209.326 E26.44157
G1 X91.373 Y209.32 E27.70104
G1 X91.166 Y209.222 E27.7092
G1 X89.888 Y207.944 E27.7736
G1 X89.785 Y207.707 E27.78281
G1 X89.785 Y200.873 E28.0263
G1 X89.888 Y200.636 E28.03551
G1 X91.166 Y199.358 E28.09991
G1 X91.224 Y199.331 E28.10219
G1 X91.391 Y199.639 F4200
G1 F720
G1 X91.456 Y199.612 E28.1047
G1 X138.122 Y199.612 E29.76739
G1 X138.188 Y199.639 E29.76993
G1 X139.409 Y200.861 E29.83148
G1 X139.437 Y200.926 E29.834
G1 X139.437 Y205.294 E29.98963
G1 X157.122 Y205.294 E30.61974
G1 X157.188 Y205.321 E30.62228
G1 X158.409 Y206.543 E30.68383
G1 X158.437 Y206.609 E30.68638
G1 X158.437 Y214.019 E30.95039
G1 X158.409 Y214.085 E30.95294
G1 X157.188 Y215.306 E31.01446
G1 X157.122 Y215.334 E31.01701
G1 X145.544 Y215.334 E31.42953
G1 X146.409 Y216.199 E31.47312
G1 X146.437 Y216.265 E31.47567
G1 X146.437 Y221.992 E31.67972
G1 X146.409 Y222.058 E31.68227
G1 X145.188 Y223.28 E31.74382
G1 X145.122 Y223.307 E31.74636
G1 X128.394 Y223.307 E32.34237
G1 X128.328 Y223.28 E32.34491
G1 X127.107 Y222.058 E32.40646
G1 X127.079 Y221.992 E32.40901
G1 X127.079 Y208.969 E32.87301
G1 X91.456 Y208.969 E34.14224
G1 X91.391 Y208.942 E34.14475
G1 X90.169 Y207.72 E34.20632
G1 X90.142 Y207.654 E34.20886
G1 X90.142 Y200.926 E34.44858
G1 X90.169 Y200.861 E34.45109
G1 X91.348 Y199.681 E34.51052
G1 E32.51052 F1800
G92 E0
G1 X92.52 Y201.99 F4200
G1 E2 F1800
;TYPE:External perimeter
G1 F504
G1 X137.058 Y201.99 E3.58687
G1 X137.058 Y207.673 E3.78935
G1 X156.058 Y207.673 E4.46631
G1 X156.058 Y212.955 E4.65451
G1 X140.058 Y212.955 E5.22458
G1 X140.058 Y217.329 E5.38042
G1 X144.058 Y217.329 E5.52294
G1 X144.058 Y220.929 E5.65121
G1 X129.458 Y220.929 E6.1714
G1 X129.458 Y206.59 E6.68229
G1 X92.52 Y206.59 E7.99837
G1 X92.52 Y202.05 E8.16013
G1 X92.92 Y202.007 F4200
G1 X92.877 Y202.347
;TYPE:Inner perimeter
G1 F720
G1 X136.701 Y202.347 E9.72156
G1 X136.701 Y208.03 E9.92404
G1 X155.701 Y208.03 E10.601
G1 X155.701 Y212.598 E10.76376
G1 X139.701 Y212.598 E11.33383
G1 X139.701 Y217.686 E11.51511
G1 X143.701 Y217.686 E11.65763
G1 X143.701 Y220.571 E11.76042
G1 X129.815 Y220.571 E12.25517
G1 X129.815 Y206.233 E12.76603
G1 X92.877 Y206.233 E14.08211
G1 X92.877 Y202.407 E14.21843
G1 E12.21843 F1800
G92 E0
G1 X92.856 Y202.407 F4200
G1 X136.722 Y202.326
G1 X136.722 Y208.008
G1 X155.722 Y208.008
G1 X155.722 Y208.86
G1 X155.594 Y208.86
G1 E2 F1800
;TYPE:Solid infill
;WIDTH:0.400422
G1 F576
G1 X155.032 Y208.298 E2.02835
G1 X154.526 Y208.298 E2.0464
G1 X155.433 Y209.205 E2.09216
G1 X155.433 Y209.71 E2.11017
G1 X154.021 Y208.298 E2.1814
G1 X153.515 Y208.298 E2.19945
G1 X155.433 Y210.216 E2.29621
G1 X155.433 Y210.721 E2.31422
G1 X153.009 Y208.298 E2.43648
G1 X152.504 Y208.298 E2.45449
G1 X155.433 Y211.227 E2.60225
G1 X155.433 Y211.732 E2.62026
G1 X151.998 Y208.298 E2.79352
G1 X151.493 Y208.298 E2.81153
G1 X155.433 Y212.238 E3.01029
G1 X155.433 Y212.33 E3.01357
G1 X155.02 Y212.33 E3.0283
G1 X150.987 Y208.298 E3.23173
G1 X150.482 Y208.298 E3.24974
G1 X154.514 Y212.33 E3.45314
G1 X154.009 Y212.33 E3.47115
G1 X149.976 Y208.298 E3.67458
G1 X149.47 Y208.298 E3.69263
G1 X153.503 Y212.33 E3.89606
G1 X152.997 Y212.33 E3.91411
G1 X148.965 Y208.298 E4.11751
G1 X148.459 Y208.298 E4.13556
G1 X152.492 Y212.33 E4.33899
G1 X151.986 Y212.33 E4.35704
G1 X147.954 Y208.298 E4.56044
G1 X147.448 Y208.298 E4.57849
G1 X151.481 Y212.33 E4.78192
G1 X150.975 Y212.33 E4.79997
G1 X146.942 Y208.298 E5.0034
G1 X146.437 Y208.298 E5.02141
G1 X150.469 Y212.33 E5.22481
G1 X149.964 Y212.33 E5.24282
G1 X145.931 Y208.298 E5.44625
G1 X145.426 Y208.298 E5.46426
G1 X149.458 Y212.33 E5.66766
G1 X148.953 Y212.33 E5.68567
G1 X144.92 Y208.298 E5.8891
G1 X144.414 Y208.298 E5.90715
G1 X148.447 Y212.33 E6.11058
G1 X147.942 Y212.33 E6.12859
G1 X143.909 Y208.298 E6.33202
G1 X143.403 Y208.298 E6.35007
G1 X147.436 Y212.33 E6.5535
G1 X146.93 Y212.33 E6.57155
G1 X142.898 Y208.298 E6.77495
G1 X142.392 Y208.298 E6.793
G1 X146.425 Y212.33 E6.99643
G1 X145.919 Y212.33 E7.01448
G1 X141.887 Y208.298 E7.21788
G1 X141.381 Y208.298 E7.23593
G1 X145.414 Y212.33 E7.43936
G1 X144.908 Y212.33 E7.45741
G1 X140.875 Y208.298 E7.66084
G1 X140.37 Y208.298 E7.67885
G1 X144.402 Y212.33 E7.88225
G1 X143.897 Y212.33 E7.90026
G1 X139.864 Y208.298 E8.10369
G1 X139.359 Y208.298 E8.1217
G1 X143.391 Y212.33 E8.3251
G1 X142.886 Y212.33 E8.34311
G1 X138.853 Y208.298 E8.54654
G1 X138.347 Y208.298 E8.56459
G1 X142.38 Y212.33 E8.76802
G1 X141.875 Y212.33 E8.78603
G1 X137.842 Y208.298 E8.98946
G1 X137.336 Y208.298 E9.00751
G1 X141.53 Y212.491 E9.21906
G1 E7.21906 F1800
G92 E0
G1 X141.53 Y212.619 F4200
G1 X139.722 Y212.619
G1 X139.722 Y217.664
G1 X142.787 Y217.664
G1 X142.787 Y217.793
G1 E2 F1800
G1 F576
G1 X143.433 Y218.439 E2.03259
G1 X143.433 Y218.945 E2.05064
G1 X142.442 Y217.953 E2.10066
G1 X141.936 Y217.953 E2.11871
G1 X143.433 Y219.45 E2.19423
G1 X143.433 Y219.956 E2.21228
G1 X141.431 Y217.953 E2.3133
G1 X140.925 Y217.953 E2.33135
G1 X143.275 Y220.304 E2.44993
G1 X142.77 Y220.304 E2.46794
G1 X140.259 Y217.793 E2.59461
G1 E.59461 F1800
G92 E0
G1 X140.259 Y217.664 F4200
G1 X139.722 Y217.664
G1 X136.722 Y208.008
G1 X136.722 Y203.005
G1 X136.594 Y203.005
G1 E2 F1800
G1 F576
G1 X136.204 Y202.615 E2.01967
G1 X135.699 Y202.615 E2.03768
G1 X136.433 Y203.35 E2.07473
G1 X136.433 Y203.855 E2.09274
G1 X135.193 Y202.615 E2.15529
G1 X134.687 Y202.615 E2.17334
G1 X136.433 Y204.361 E2.26142
G1 X136.433 Y204.866 E2.27943
G1 X134.182 Y202.615 E2.39299
G1 X133.676 Y202.615 E2.41104
G1 X136.433 Y205.372 E2.55012
G1 X136.433 Y205.878 E2.56817
G1 X133.171 Y202.615 E2.73275
G1 X132.665 Y202.615 E2.7508
G1 X136.433 Y206.383 E2.94089
G1 X136.433 Y206.889 E2.95894
G1 X132.16 Y202.615 E3.17453
G1 X131.654 Y202.615 E3.19258
G1 X136.594 Y207.555 E3.44179
G1 E1.44179 F1800
G92 E0
G1 X141.024 Y212.491 F4200
G1 E2 F1800
G1 F576
G1 X136.831 Y208.298 E2.21153
G1 X136.433 Y208.298 E2.22573
G1 X136.433 Y207.9 E2.23993
G1 X131.148 Y202.615 E2.50654
G1 X130.643 Y202.615 E2.52455
G1 X140.358 Y212.33 E3.01465
G1 X139.852 Y212.33 E3.0327
G1 X130.137 Y202.615 E3.5228
G1 X129.632 Y202.615 E3.54081
G1 X139.433 Y212.417 E4.03527
G1 X139.433 Y212.922 E4.05328
G1 X129.126 Y202.615 E4.57324
G1 X128.62 Y202.615 E4.59129
G1 X139.433 Y213.428 E5.13678
G1 X139.433 Y213.933 E5.15479
G1 X128.115 Y202.615 E5.72575
G1 X127.609 Y202.615 E5.7438
G1 X139.433 Y214.439 E6.34029
G1 X139.433 Y214.945 E6.35834
G1 X127.104 Y202.615 E6.98033
G1 X126.598 Y202.615 E6.99838
G1 X139.433 Y215.45 E7.64587
G1 X139.433 Y215.956 E7.66392
G1 X130.083 Y206.606 E8.1356
G1 X130.083 Y207.111 E8.15361
G1 X139.433 Y216.461 E8.62529
G1 X139.433 Y216.967 E8.64334
G1 X130.083 Y207.617 E9.11502
G1 X130.083 Y208.122 E9.13303
G1 X139.433 Y217.473 E9.60474
G1 X139.433 Y217.953 E9.62186
G1 X139.914 Y217.953 E9.63902
G1 X142.264 Y220.304 E9.7576
G1 X141.759 Y220.304 E9.77561
G1 X130.083 Y208.628 E10.36463
G1 X130.083 Y209.134 E10.38268
G1 X141.253 Y220.304 E10.94618
G1 X140.747 Y220.304 E10.96423
G1 X130.083 Y209.639 E11.50223
G1 X130.083 Y210.145 E11.52028
G1 X140.242 Y220.304 E12.03278
G1 X139.736 Y220.304 E12.05083
G1 X130.083 Y210.65 E12.53782
G1 X130.083 Y211.156 E12.55587
G1 X139.231 Y220.304 E13.01736
G1 X138.725 Y220.304 E13.03541
G1 X130.083 Y211.661 E13.4714
G1 X130.083 Y212.167 E13.48945
G1 X138.22 Y220.304 E13.89994
G1 X137.714 Y220.304 E13.91799
G1 X130.083 Y212.673 E14.30295
G1 X130.083 Y213.178 E14.32096
G1 X137.208 Y220.304 E14.68042
G1 X136.703 Y220.304 E14.69843
G1 X130.083 Y213.684 E15.03239
G1 X130.083 Y214.189 E15.0504
G1 X136.197 Y220.304 E15.35886
G1 X135.692 Y220.304 E15.37687
G1 X130.083 Y214.695 E15.65983
G1 X130.083 Y215.201 E15.67788
G1 X135.186 Y220.304 E15.93531
G1 X134.68 Y220.304 E15.95336
G1 X130.083 Y215.706 E16.18529
G1 X130.083 Y216.212 E16.20334
G1 X134.175 Y220.304 E16.40977
G1 X133.669 Y220.304 E16.42782
G1 X130.083 Y216.717 E16.60875
G1 X130.083 Y217.223 E16.6268
G1 X133.164 Y220.304 E16.78223
G1 X132.658 Y220.304 E16.80028
G1 X130.083 Y217.728 E16.93021
G1 X130.083 Y218.234 E16.94826
G1 X132.153 Y220.304 E17.05269
G1 X131.647 Y220.304 E17.07074
G1 X130.083 Y218.74 E17.14964
G1 X130.083 Y219.245 E17.16765
G1 X131.141 Y220.304 E17.22105
G1 X130.636 Y220.304 E17.23906
G1 X130.083 Y219.751 E17.26696
G1 X130.083 Y220.256 E17.28497
G1 X130.291 Y220.464 E17.29546
G1 E15.29546 F1800
G92 E0
G1 X129.603 Y206.126 F4200
G1 E2 F1800
G1 F576
G1 X126.092 Y202.615 E2.17712
G1 X125.587 Y202.615 E2.19513
G1 X128.937 Y205.965 E2.36413
G1 X128.432 Y205.965 E2.38214
G1 X125.081 Y202.615 E2.55116
G1 X124.576 Y202.615 E2.56917
G1 X127.926 Y205.965 E2.73817
G1 X127.42 Y205.965 E2.75622
G1 X124.07 Y202.615 E2.92522
G1 X123.565 Y202.615 E2.94323
G1 X126.915 Y205.965 E3.11223
G1 X126.409 Y205.965 E3.13028
G1 X123.059 Y202.615 E3.29928
G1 X122.553 Y202.615 E3.31733
G1 X125.904 Y205.965 E3.48635
