; generated by CreatWare 7.0.0 on 2022-07-23 at 00:11:26 UTC

; 

; external perimeters extrusion width = 0.40mm
; perimeters extrusion width = 0.40mm
; infill extrusion width = 0.40mm
; solid infill extrusion width = 0.40mm
; top infill extrusion width = 0.40mm
; support material extrusion width = 0.40mm

; external perimeters extrusion width = 0.40mm
; perimeters extrusion width = 0.40mm
; infill extrusion width = 0.40mm
; solid infill extrusion width = 0.40mm
; top infill extrusion width = 0.40mm
; support material extrusion width = 0.40mm

; external perimeters extrusion width = 0.40mm
; perimeters extrusion width = 0.40mm
; infill extrusion width = 0.40mm
; solid infill extrusion width = 0.40mm
; top infill extrusion width = 0.40mm
; support material extrusion width = 0.40mm

; external perimeters extrusion width = 0.40mm
; perimeters extrusion width = 0.40mm
; infill extrusion width = 0.40mm
; solid infill extrusion width = 0.40mm
; top infill extrusion width = 0.40mm
; support material extrusion width = 0.40mm

; external perimeters extrusion width = 0.40mm
; perimeters extrusion width = 0.40mm
; infill extrusion width = 0.40mm
; solid infill extrusion width = 0.40mm
; top infill extrusion width = 0.40mm
; support material extrusion width = 0.40mm

; external perimeters extrusion width = 0.40mm
; perimeters extrusion width = 0.40mm
; infill extrusion width = 0.40mm
; solid infill extrusion width = 0.40mm
; top infill extrusion width = 0.40mm
; support material extrusion width = 0.40mm

; external perimeters extrusion width = 0.40mm
; perimeters extrusion width = 0.40mm
; infill extrusion width = 0.40mm
; solid infill extrusion width = 0.40mm
; top infill extrusion width = 0.40mm
; support material extrusion width = 0.40mm

; external perimeters extrusion width = 0.40mm
; perimeters extrusion width = 0.40mm
; infill extrusion width = 0.40mm
; solid infill extrusion width = 0.40mm
; top infill extrusion width = 0.40mm
; support material extrusion width = 0.40mm

; external perimeters extrusion width = 0.40mm
; perimeters extrusion width = 0.40mm
; infill extrusion width = 0.40mm
; solid infill extrusion width = 0.40mm
; top infill extrusion width = 0.40mm
; support material extrusion width = 0.40mm

; external perimeters extrusion width = 0.40mm
; perimeters extrusion width = 0.40mm
; infill extrusion width = 0.40mm
; solid infill extrusion width = 0.40mm
; top infill extrusion width = 0.40mm
; support material extrusion width = 0.40mm

; external perimeters extrusion width = 0.40mm
; perimeters extrusion width = 0.40mm
; infill extrusion width = 0.40mm
; solid infill extrusion width = 0.40mm
; top infill extrusion width = 0.40mm
; support material extrusion width = 0.40mm

; external perimeters extrusion width = 0.40mm
; perimeters extrusion width = 0.40mm
; infill extrusion width = 0.40mm
; solid infill extrusion width = 0.40mm
; top infill extrusion width = 0.40mm
; support material extrusion width = 0.40mm

; external perimeters extrusion width = 0.40mm
; perimeters extrusion width = 0.40mm
; infill extrusion width = 0.40mm
; solid infill extrusion width = 0.40mm
; top infill extrusion width = 0.40mm
; support material extrusion width = 0.40mm

; external perimeters extrusion width = 0.40mm
; perimeters extrusion width = 0.40mm
; infill extrusion width = 0.40mm
; solid infill extrusion width = 0.40mm
; top infill extrusion width = 0.40mm
; support material extrusion width = 0.40mm

; external perimeters extrusion width = 0.40mm
; perimeters extrusion width = 0.40mm
; infill extrusion width = 0.40mm
; solid infill extrusion width = 0.40mm
; top infill extrusion width = 0.40mm
; support material extrusion width = 0.40mm

; external perimeters extrusion width = 0.40mm
; perimeters extrusion width = 0.40mm
; infill extrusion width = 0.40mm
; solid infill extrusion width = 0.40mm
; top infill extrusion width = 0.40mm
; support material extrusion width = 0.40mm

; external perimeters extrusion width = 0.40mm
; perimeters extrusion width = 0.40mm
; infill extrusion width = 0.40mm
; solid infill extrusion width = 0.40mm
; top infill extrusion width = 0.40mm
; support material extrusion width = 0.40mm

G21 ; set units to millimeters
G90 ; use absolute coordinates
M82 ; use absolute distances for extrusion
G92 E0
M107
M190 S45 ; set bed temperature and wait for it to be reached
M104 S210 ; set temperature
;TYPE:Custom
M109 S210 ; set temperature and wait for it to be reached
M6013 S0 ; set chamber temp

G28 X0 Y0  ;move X/Y to min endstops
G28 Z0     ;move Z to min endstops

;Add Clear Nozzle
G92 E0                   ;zero the extruded length again
G0 F4200 X0 Y0
G0 F400 X10 Z0.4         ;move a bit while down the Z
M221 T0 S300             ;set flow is 300%
G1 F200 X30 E8          ;extrude amont filament to clean the hotend
M221 T0 S100             ;reset flow is 100%
G92 E0                   ;zero the extruded length again
;Add End

G0 Z15.0 F4200 ;move the platform down 15mm

;Put printing message on LCD screen
M117 Printing...
; Filament gcode
M107
;LAYER_CHANGE
;Layer 1
;Z:0.2
;HEIGHT:0.2
;BEFORE_LAYER_CHANGE
;0.2


G1 Z.2 F4200
;AFTER_LAYER_CHANGE
;G92 E0   ;zero the extruded length again
;0.2
G1 E-2 F1800
G92 E0
G1 X109.213 Y62.091 F4200
G1 E2 F1800
;TYPE:Skirt/Brim
;WIDTH:0.4
G1 F720
G1 X110.665 Y59.84 E2.09544
G1 X113.008 Y57.497 E2.2135
G1 X114.852 Y56.214 E2.29354
G1 X117.503 Y55.635 E2.39022
G1 X123.973 Y55.653 E2.62074
G1 X172.74 Y59.414 E4.36345
G1 X259.28 Y73.121 E7.48527
G1 X261.47 Y73.575 E7.56496
G1 X263.555 Y74.412 E7.64501
G1 X264.781 Y75.41 E7.70133
G1 X266.064 Y77.253 E7.78134
G1 X266.607 Y79.233 E7.85449
G1 X270.446 Y115.347 E9.14847
G1 X276.435 Y186.773 E11.70228
G1 X276.505 Y189.089 E11.78484
G1 X276.454 Y199.243 E12.14663
G1 X275.994 Y201.442 E12.22668
G1 X274.96 Y203.168 E12.29837
G1 X273.721 Y204.389 E12.36035
G1 X223.156 Y242.085 E14.6075
G1 X221.146 Y243.088 E14.68754
G1 X219.664 Y243.338 E14.74109
G1 X123.666 Y247.993 E18.16547
G1 X117.374 Y248 E18.38965
G1 X115.164 Y247.603 E18.46965
G1 X112.879 Y246.138 E18.56636
G1 X110.536 Y243.795 E18.68442
G1 X109.253 Y241.951 E18.76446
G1 X108.682 Y239.604 E18.85052
G1 X107.963 Y224.443 E19.39131
G1 X108.803 Y64.3 E25.09721
G1 X109.202 Y62.15 E25.17512
G1 E23.17512 F1800
G92 E0
G1 X252.949 Y188.898 F4200
G1 E2 F1800
G1 F720
G1 X254.434 Y187.433 E2.07432
G1 X254.675 Y187.296 E2.0842
G1 X255.208 Y187.139 E2.104
G1 X267.155 Y187.142 E2.52967
G1 X267.508 Y187.227 E2.54261
G1 X267.995 Y187.492 E2.56236
G1 X269.402 Y188.899 E2.63326
G1 X269.668 Y189.387 E2.65306
G1 X269.755 Y189.776 E2.66726
G1 X269.741 Y196.838 E2.91888
G1 X269.667 Y197.105 E2.92875
G1 X269.401 Y197.593 E2.94855
G1 X267.916 Y199.059 E3.0229
G1 X267.675 Y199.196 E3.03278
G1 X267.143 Y199.353 E3.05254
G1 X255.232 Y199.353 E3.47692
G1 X254.844 Y199.266 E3.49109
G1 X254.355 Y198.999 E3.51094
G1 X252.89 Y197.514 E3.58526
G1 X252.752 Y197.273 E3.59515
G1 X252.596 Y196.74 E3.61494
G1 X252.609 Y189.654 E3.86741
G1 X252.683 Y189.386 E3.87732
G1 X252.92 Y188.951 E3.89497
G1 X253.221 Y189.131 F4200
G1 F720
G1 X254.636 Y187.728 E3.96597
G1 X254.803 Y187.63 E3.97287
G1 X255.236 Y187.496 E3.98902
G1 X267.135 Y187.499 E4.41298
G1 X267.363 Y187.553 E4.42133
G1 X267.762 Y187.764 E4.43741
G1 X269.129 Y189.131 E4.50629
G1 X269.34 Y189.531 E4.5224
G1 X269.398 Y189.794 E4.532
G1 X269.389 Y196.772 E4.78062
G1 X269.341 Y196.959 E4.7875
G1 X269.129 Y197.36 E4.80366
G1 X267.714 Y198.763 E4.87466
G1 X267.547 Y198.862 E4.88158
G1 X267.115 Y198.996 E4.8977
G1 X255.251 Y198.996 E5.32041
G1 X254.988 Y198.938 E5.33001
G1 X254.588 Y198.727 E5.34612
G1 X253.185 Y197.312 E5.41712
G1 X253.086 Y197.145 E5.42404
G1 X252.953 Y196.713 E5.44014
G1 X252.961 Y189.72 E5.6893
G1 X253.009 Y189.532 E5.69621
G1 X253.193 Y189.184 E5.71024
G1 X253.494 Y189.363 F4200
G1 F720
G1 X254.843 Y188.02 E5.77806
G1 X254.937 Y187.961 E5.78201
G1 X255.266 Y187.853 E5.79435
G1 X267.114 Y187.856 E6.21649
G1 X267.223 Y187.882 E6.22048
G1 X267.531 Y188.038 E6.23278
G1 X268.856 Y189.363 E6.29954
G1 X269.01 Y189.669 E6.31175
G1 X269.04 Y189.812 E6.31696
G1 X269.037 Y196.712 E6.5628
G1 X269.012 Y196.82 E6.56675
G1 X268.856 Y197.129 E6.57908
G1 X267.508 Y198.472 E6.64688
G1 X267.413 Y198.531 E6.65086
G1 X267.085 Y198.638 E6.66315
G1 X255.269 Y198.638 E7.08415
G1 X255.126 Y198.608 E7.08936
G1 X254.82 Y198.454 E7.10157
G1 X253.476 Y197.106 E7.16939
G1 X253.417 Y197.011 E7.17337
G1 X253.31 Y196.683 E7.18566
G1 X253.313 Y189.779 E7.43165
G1 X253.339 Y189.671 E7.43561
G1 X253.467 Y189.416 E7.44578
G1 X253.77 Y189.592 F4200
G1 F720
G1 X255.058 Y188.304 E7.51068
G1 X255.299 Y188.21 E7.5199
G1 X267.065 Y188.21 E7.93912
G1 X267.302 Y188.314 E7.94834
G1 X268.58 Y189.592 E8.01274
G1 X268.683 Y189.829 E8.02195
G1 X268.683 Y196.663 E8.26544
G1 X268.58 Y196.9 E8.27465
G1 X267.292 Y198.187 E8.33952
G1 X267.051 Y198.281 E8.34874
G1 X255.285 Y198.281 E8.76796
G1 X255.048 Y198.178 E8.77717
G1 X253.761 Y196.89 E8.84204
G1 X253.667 Y196.649 E8.85126
G1 X253.667 Y189.829 E9.09425
G1 X253.745 Y189.646 E9.10134
G1 X254.051 Y189.816 F4200
G1 F720
G1 X255.273 Y188.594 E9.16291
G1 X255.338 Y188.567 E9.16542
G1 X267.012 Y188.567 E9.58136
G1 X267.077 Y188.594 E9.58387
G1 X268.299 Y189.816 E9.64544
G1 X268.326 Y189.882 E9.64798
G1 X268.326 Y196.61 E9.8877
G1 X268.299 Y196.675 E9.89021
G1 X267.077 Y197.897 E9.95178
G1 X267.012 Y197.924 E9.95429
G1 X255.338 Y197.924 E10.37023
G1 X255.273 Y197.897 E10.37274
G1 X254.051 Y196.675 E10.43431
G1 X254.024 Y196.61 E10.43682
G1 X254.028 Y189.872 E10.67689
G1 E8.67689 F1800
G92 E0
G1 X254.028 Y162.877 F4200
G1 E2 F1800
G1 F720
G1 X251.514 Y162.877 E2.08957
G1 X251.125 Y162.791 E2.10376
G1 X250.636 Y162.524 E2.12361
G1 X249.171 Y161.039 E2.19793
G1 X249.034 Y160.798 E2.20781
G1 X248.877 Y160.265 E2.22761
G1 X248.891 Y153.179 E2.48008
G1 X248.964 Y152.911 E2.48998
G1 X249.231 Y152.423 E2.5098
G1 X250.715 Y150.958 E2.5841
G1 X250.956 Y150.82 E2.59399
G1 X251.489 Y150.664 E2.61378
G1 X263.437 Y150.667 E3.03948
G1 X263.79 Y150.752 E3.05242
G1 X264.276 Y151.017 E3.07214
G1 X265.683 Y152.424 E3.14304
G1 X265.949 Y152.912 E3.16284
G1 X266.036 Y153.301 E3.17704
G1 X266.022 Y160.363 E3.42866
G1 X265.949 Y160.63 E3.43852
G1 X265.682 Y161.118 E3.45834
G1 X264.198 Y162.583 E3.53264
G1 X263.957 Y162.721 E3.54253
G1 X263.424 Y162.877 E3.56232
G1 X254.088 Y162.877 E3.89496
G1 X254.088 Y162.52 F4200
G1 F720
G1 X251.532 Y162.52 E3.98603
G1 X251.269 Y162.463 E3.99562
G1 X250.869 Y162.252 E4.01173
G1 X249.466 Y160.837 E4.08273
G1 X249.368 Y160.67 E4.08963
G1 X249.234 Y160.237 E4.10578
G1 X249.242 Y153.245 E4.3549
G1 X249.291 Y153.057 E4.36182
G1 X249.502 Y152.656 E4.37796
G1 X250.917 Y151.253 E4.44896
G1 X251.084 Y151.154 E4.45588
G1 X251.517 Y151.021 E4.47202
G1 X263.416 Y151.024 E4.89598
G1 X263.645 Y151.078 E4.90436
G1 X264.043 Y151.289 E4.92041
G1 X265.411 Y152.656 E4.98932
G1 X265.622 Y153.056 E5.00543
G1 X265.679 Y153.319 E5.01502
G1 X265.671 Y160.297 E5.26364
G1 X265.622 Y160.484 E5.27053
G1 X265.411 Y160.885 E5.28667
G1 X263.996 Y162.288 E5.35767
G1 X263.829 Y162.387 E5.36459
G1 X263.396 Y162.52 E5.38073
G1 X254.148 Y162.52 E5.71023
G1 X254.148 Y162.163 F4200
G1 F720
G1 X251.55 Y162.163 E5.8028
G1 X251.407 Y162.133 E5.80801
G1 X251.101 Y161.979 E5.82022
G1 X249.758 Y160.63 E5.88804
G1 X249.699 Y160.536 E5.89199
G1 X249.591 Y160.207 E5.90433
G1 X249.595 Y153.304 E6.15028
G1 X249.62 Y153.196 E6.15423
G1 X249.776 Y152.888 E6.16653
G1 X251.124 Y151.544 E6.23435
G1 X251.219 Y151.486 E6.23832
G1 X251.547 Y151.378 E6.25062
G1 X263.395 Y151.381 E6.67276
G1 X263.504 Y151.407 E6.67675
G1 X263.812 Y151.563 E6.68905
G1 X265.137 Y152.888 E6.75581
G1 X265.292 Y153.194 E6.76803
G1 X265.322 Y153.337 E6.77324
G1 X265.318 Y160.237 E7.01908
G1 X265.293 Y160.345 E7.02303
G1 X265.137 Y160.653 E7.03533
G1 X263.789 Y161.997 E7.10315
G1 X263.694 Y162.056 E7.10713
G1 X263.366 Y162.163 E7.11942
G1 X254.208 Y162.163 E7.44572
G1 X254.208 Y161.806 F4200
G1 F720
G1 X251.537 Y161.8 E7.54089
G1 X251.33 Y161.703 E7.54903
G1 X250.042 Y160.415 E7.61393
G1 X249.948 Y160.174 E7.62315
G1 X249.948 Y153.354 E7.86614
G1 X250.052 Y153.117 E7.87536
G1 X251.339 Y151.829 E7.94023
G1 X251.58 Y151.735 E7.94945
G1 X263.346 Y151.735 E8.36867
G1 X263.583 Y151.839 E8.37789
G1 X264.861 Y153.117 E8.44229
G1 X264.965 Y153.354 E8.45151
G1 X264.965 Y160.188 E8.695
G1 X264.861 Y160.425 E8.70422
G1 X263.574 Y161.712 E8.76907
G1 X263.333 Y161.806 E8.77829
G1 X254.268 Y161.806 E9.10127
G1 X254.268 Y161.449 F4200
G1 F720
G1 X251.62 Y161.449 E9.19562
G1 X251.554 Y161.422 E9.19816
G1 X250.332 Y160.2 E9.25973
G1 X250.305 Y160.135 E9.26224
G1 X250.305 Y153.407 E9.50196
G1 X250.332 Y153.341 E9.5045
G1 X251.554 Y152.119 E9.56607
G1 X251.62 Y152.092 E9.56861
G1 X263.293 Y152.092 E9.98451
G1 X263.359 Y152.119 E9.98705
G1 X264.581 Y153.341 E10.04862
G1 X264.608 Y153.407 E10.05116
G1 X264.608 Y160.135 E10.29088
G1 X264.581 Y160.2 E10.29339
G1 X263.359 Y161.422 E10.35496
G1 X263.293 Y161.449 E10.3575
G1 X254.328 Y161.449 E10.67692
G1 E8.67692 F1800
G92 E0
G1 X253.305 Y157.699 F4200
G1 X253.305 Y155.842
G1 X254.328 Y127.927
G1 E2 F1800
G1 F720
G1 X249.243 Y127.927 E2.18118
G1 X248.855 Y127.84 E2.19535
G1 X248.366 Y127.573 E2.2152
G1 X246.901 Y126.088 E2.28952
G1 X246.763 Y125.847 E2.29941
G1 X246.606 Y125.315 E2.31917
G1 X246.62 Y118.228 E2.57168
G1 X246.694 Y117.96 E2.58159
G1 X246.96 Y117.472 E2.60139
G1 X248.445 Y116.007 E2.67571
G1 X248.686 Y115.87 E2.68559
G1 X249.219 Y115.713 E2.70539
G1 X261.166 Y115.717 E3.13106
G1 X261.519 Y115.801 E3.14399
G1 X262.006 Y116.066 E3.16374
G1 X263.413 Y117.473 E3.23464
G1 X263.679 Y117.961 E3.25444
G1 X263.766 Y118.35 E3.26864
G1 X263.752 Y125.412 E3.52026
G1 X263.678 Y125.68 E3.53017
G1 X263.412 Y126.168 E3.54997
G1 X261.927 Y127.633 E3.62429
G1 X261.686 Y127.77 E3.63417
G1 X261.154 Y127.927 E3.65393
G1 X254.388 Y127.927 E3.895
G1 X254.388 Y127.57 F4200
G1 F720
G1 X249.262 Y127.57 E4.07764
G1 X248.999 Y127.513 E4.08723
G1 X248.599 Y127.301 E4.10336
G1 X247.196 Y125.887 E4.17433
G1 X247.097 Y125.72 E4.18125
G1 X246.964 Y125.287 E4.19739
G1 X246.972 Y118.294 E4.44655
G1 X247.02 Y118.106 E4.45346
G1 X247.232 Y117.706 E4.46959
G1 X248.647 Y116.302 E4.54061
G1 X248.814 Y116.204 E4.54751
G1 X249.247 Y116.07 E4.56366
G1 X261.146 Y116.074 E4.98762
G1 X261.374 Y116.128 E4.99597
G1 X261.773 Y116.338 E5.01203
G1 X263.14 Y117.706 E5.08094
G1 X263.351 Y118.105 E5.09702
G1 X263.408 Y118.368 E5.10661
G1 X263.4 Y125.346 E5.35523
G1 X263.352 Y125.534 E5.36214
G1 X263.14 Y125.934 E5.37827
G1 X261.725 Y127.338 E5.44929
G1 X261.558 Y127.436 E5.45619
G1 X261.126 Y127.57 E5.47231
G1 X254.448 Y127.57 E5.71024
G1 X254.448 Y127.213 F4200
G1 F720
G1 X249.28 Y127.213 E5.89437
G1 X249.137 Y127.183 E5.89958
G1 X248.83 Y127.028 E5.91183
G1 X247.487 Y125.68 E5.97963
G1 X247.428 Y125.585 E5.98361
G1 X247.321 Y125.257 E5.9959
G1 X247.324 Y118.354 E6.24185
G1 X247.35 Y118.245 E6.24584
G1 X247.505 Y117.937 E6.25813
G1 X248.854 Y116.594 E6.32595
G1 X248.948 Y116.535 E6.3299
G1 X249.276 Y116.427 E6.3422
G1 X261.125 Y116.431 E6.76437
G1 X261.233 Y116.456 E6.76832
G1 X261.542 Y116.612 E6.78065
G1 X262.867 Y117.937 E6.84741
G1 X263.021 Y118.243 E6.85962
G1 X263.051 Y118.386 E6.86483
G1 X263.048 Y125.286 E7.11067
G1 X263.022 Y125.395 E7.11466
G1 X262.867 Y125.703 E7.12695
G1 X261.519 Y127.046 E7.19475
G1 X261.424 Y127.105 E7.19873
G1 X261.096 Y127.213 E7.21103
G1 X254.508 Y127.213 E7.44576
G1 X254.508 Y126.856 F4200
G1 F720
G1 X249.266 Y126.85 E7.63253
G1 X249.059 Y126.752 E7.64069
G1 X247.772 Y125.464 E7.70556
G1 X247.678 Y125.224 E7.71474
G1 X247.678 Y118.403 E7.95777
G1 X247.781 Y118.166 E7.96698
G1 X249.069 Y116.879 E8.03185
G1 X249.31 Y116.784 E8.04108
G1 X261.076 Y116.784 E8.4603
G1 X261.313 Y116.888 E8.46952
G1 X262.591 Y118.166 E8.53392
G1 X262.694 Y118.403 E8.54313
G1 X262.694 Y125.237 E8.78662
G1 X262.591 Y125.474 E8.79583
G1 X261.303 Y126.761 E8.8607
G1 X261.062 Y126.856 E8.86993
G1 X254.568 Y126.856 E9.10131
G1 X254.568 Y126.498 F4200
G1 F720
G1 X249.349 Y126.498 E9.28726
