; generated by CreatWare 7.0.0 on 2022-07-18 at 16:54:57 UTC

; 

; external perimeters extrusion width = 0.40mm
; perimeters extrusion width = 0.40mm
; infill extrusion width = 0.40mm
; solid infill extrusion width = 0.40mm
; top infill extrusion width = 0.40mm
; support material extrusion width = 0.40mm

; external perimeters extrusion width = 0.40mm
; perimeters extrusion width = 0.40mm
; infill extrusion width = 0.40mm
; solid infill extrusion width = 0.40mm
; top infill extrusion width = 0.40mm
; support material extrusion width = 0.40mm

; external perimeters extrusion width = 0.40mm
; perimeters extrusion width = 0.40mm
; infill extrusion width = 0.40mm
; solid infill extrusion width = 0.40mm
; top infill extrusion width = 0.40mm
; support material extrusion width = 0.40mm

; external perimeters extrusion width = 0.40mm
; perimeters extrusion width = 0.40mm
; infill extrusion width = 0.40mm
; solid infill extrusion width = 0.40mm
; top infill extrusion width = 0.40mm
; support material extrusion width = 0.40mm

G21 ; set units to millimeters
G90 ; use absolute coordinates
M82 ; use absolute distances for extrusion
G92 E0
M107
M190 S45 ; set bed temperature and wait for it to be reached
M104 S220 ; set temperature
;TYPE:Custom
M109 S220 ; set temperature and wait for it to be reached
M6013 S0 ; set chamber temp

G28 X0 Y0  ;move X/Y to min endstops
G28 Z0     ;move Z to min endstops

;Add Clear Nozzle
G92 E0                   ;zero the extruded length again
G0 F4200 X0 Y0
G0 F400 X10 Z0.4         ;move a bit while down the Z
M221 T0 S300             ;set flow is 300%
G1 F200 X30 E8          ;extrude amont filament to clean the hotend
M221 T0 S100             ;reset flow is 100%
G92 E0                   ;zero the extruded length again
;Add End

G0 Z15.0 F4200 ;move the platform down 15mm

;Put printing message on LCD screen
M117 Printing...
; Filament gcode
M107
;LAYER_CHANGE
;Layer 1
;Z:0.1
;HEIGHT:0.1
;BEFORE_LAYER_CHANGE
;0.1


G1 E-2 F1800
G92 E0
G1 Z.1 F4200
;AFTER_LAYER_CHANGE
;G92 E0   ;zero the extruded length again
;0.1
G1 X90.841 Y55.477
G1 E2 F1800
;TYPE:Skirt/Brim
;WIDTH:0.4
G1 F720
G1 X92.312 Y53.181 E2.0515
G1 X94.655 Y50.838 E2.11408
G1 X96.502 Y49.553 E2.15657
G1 X98.983 Y48.972 E2.20469
G1 X172.503 Y46.873 E3.59371
G1 X197.01 Y46.87 E4.05654
G1 X199.225 Y47.267 E4.09904
G1 X201.521 Y48.739 E4.15055
G1 X203.864 Y51.082 E4.21313
G1 X205.149 Y52.929 E4.25562
G1 X205.732 Y55.592 E4.3071
G1 X205.732 Y70.708 E4.59257
G1 X201.53 Y154.508 E6.17716
G1 X201.022 Y156.7 E6.21965
G1 X199.67 Y158.698 E6.26521
G1 X197.327 Y161.041 E6.32779
G1 X195.48 Y162.327 E6.37029
G1 X192.816 Y162.91 E6.42179
G1 X177.7 Y162.91 E6.70726
G1 X176.471 Y162.79 E6.73058
G1 X100.938 Y147.951 E8.18432
G1 X98.842 Y147.135 E8.2268
G1 X97.658 Y146.203 E8.25526
G1 X95.315 Y143.86 E8.31784
G1 X94.029 Y142.013 E8.36034
G1 X93.453 Y139.637 E8.40651
G1 X90.444 Y72.807 E9.6699
G1 X90.444 Y57.691 E9.95537
G1 X90.83 Y55.536 E9.99672
;WIPE_START
G1 F3360
G1 X92.312 Y53.181 E8.58062
G1 X93.123 Y52.37 E7.99672
;WIPE_END
G92 E0
G1 X170.643 Y56.232 F4200
G1 E2 F1800
G1 F720
G1 X170.73 Y55.86 E2.00721
G1 X171.013 Y55.341 E2.01837
G1 X172.414 Y53.94 E2.05579
G1 X172.623 Y53.786 E2.06069
G1 X173.337 Y53.546 E2.07492
G1 X196.372 Y53.549 E2.50995
G1 X196.746 Y53.639 E2.51721
G1 X197.262 Y53.92 E2.52831
G1 X198.664 Y55.322 E2.56575
G1 X198.89 Y55.678 E2.57371
G1 X199.057 Y56.244 E2.58485
G1 X199.057 Y70.056 E2.8457
G1 X198.89 Y70.623 E2.85686
G1 X198.689 Y70.947 E2.86406
G1 X197.282 Y72.361 E2.90173
G1 X197.073 Y72.514 E2.90662
G1 X196.359 Y72.755 E2.92085
G1 X173.337 Y72.755 E3.35563
G1 X172.77 Y72.588 E3.36679
G1 X172.446 Y72.386 E3.374
G1 X171.033 Y70.979 E3.41166
G1 X170.879 Y70.771 E3.41655
G1 X170.639 Y70.056 E3.43079
G1 X170.639 Y66.025 E3.50692
G1 X170.678 Y65.769 E3.51181
G1 X171.012 Y65.094 E3.52603
G1 X172.434 Y63.673 E3.564
G1 X172.953 Y63.389 E3.57517
G1 X173.327 Y63.298 E3.58244
G1 X173.336 Y63.01 E3.58788
G1 X172.775 Y62.837 E3.59897
G1 X172.481 Y62.663 E3.60542
G1 X171.032 Y61.226 E3.64396
G1 X170.811 Y60.884 E3.65165
G1 X170.661 Y60.436 E3.66057
G1 X170.643 Y56.292 E3.73883
G1 X171.017 Y56.29 F4200
G1 F720
G1 X171.078 Y56.011 E3.74422
G1 X171.301 Y55.587 E3.75327
G1 X172.67 Y54.219 E3.78982
G1 X172.821 Y54.11 E3.79334
G1 X173.368 Y53.924 E3.80425
G1 X196.35 Y53.928 E4.23827
G1 X196.592 Y53.985 E4.24297
G1 X197.015 Y54.208 E4.252
G1 X198.383 Y55.576 E4.28854
G1 X198.537 Y55.816 E4.29393
G1 X198.679 Y56.274 E4.30299
G1 X198.679 Y70.026 E4.5627
G1 X198.537 Y70.484 E4.57176
G1 X198.383 Y70.724 E4.57715
G1 X197.025 Y72.082 E4.61342
G1 X196.875 Y72.19 E4.61691
G1 X196.327 Y72.376 E4.62784
G1 X173.367 Y72.376 E5.06145
G1 X172.909 Y72.235 E5.0705
G1 X172.669 Y72.08 E5.0759
G1 X171.312 Y70.723 E5.11214
G1 X171.203 Y70.573 E5.11564
G1 X171.017 Y70.025 E5.12657
G1 X171.017 Y66.041 E5.20181
G1 X171.047 Y65.858 E5.20531
G1 X171.302 Y65.339 E5.21623
G1 X172.68 Y63.961 E5.25303
G1 X173.104 Y63.738 E5.26208
G1 X173.383 Y63.677 E5.26747
G1 X187.029 Y63.677 E5.52518
G1 X187.029 Y62.623 E5.54509
G1 X173.367 Y62.623 E5.8031
G1 X172.908 Y62.482 E5.81217
G1 X172.731 Y62.377 E5.81606
G1 X171.313 Y60.971 E5.85377
G1 X171.159 Y60.734 E5.85911
G1 X171.039 Y60.4 E5.86581
G1 X171.017 Y56.35 E5.9423
G1 X171.396 Y56.349 F4200
G1 F720
G1 X171.427 Y56.157 E5.94597
G1 X171.592 Y55.833 E5.95284
G1 X172.926 Y54.499 E5.98847
G1 X173.016 Y54.435 E5.99056
G1 X173.4 Y54.303 E5.99823
G1 X196.328 Y54.306 E6.43124
G1 X196.443 Y54.333 E6.43347
G1 X196.77 Y54.499 E6.4404
G1 X198.102 Y55.83 E6.47596
G1 X198.186 Y55.96 E6.47888
G1 X198.3 Y56.306 E6.48576
G1 X198.3 Y69.995 E6.74428
G1 X198.186 Y70.34 E6.75114
G1 X198.102 Y70.47 E6.75406
G1 X196.77 Y71.802 E6.78964
G1 X196.68 Y71.865 E6.79171
G1 X196.296 Y71.998 E6.79938
G1 X173.399 Y71.998 E7.2318
G1 X173.053 Y71.884 E7.23868
G1 X172.923 Y71.799 E7.24161
G1 X171.592 Y70.468 E7.27716
G1 X171.528 Y70.377 E7.27926
G1 X171.396 Y69.993 E7.28693
G1 X171.396 Y66.059 E7.36123
G1 X171.415 Y65.95 E7.36332
G1 X171.593 Y65.585 E7.37099
G1 X172.926 Y64.251 E7.40661
G1 X173.25 Y64.087 E7.41347
G1 X173.402 Y64.056 E7.4164
G1 X187.407 Y64.056 E7.68089
G1 X187.407 Y62.245 E7.71509
G1 X173.399 Y62.245 E7.97964
G1 X173.051 Y62.13 E7.98656
G1 X172.95 Y62.068 E7.9888
G1 X171.594 Y60.717 E8.02495
G1 X171.508 Y60.585 E8.02793
G1 X171.407 Y60.303 E8.03359
G1 X171.396 Y56.409 E8.10713
G1 X171.774 Y56.409 F4200
G1 F720
G1 X171.781 Y56.295 E8.10929
G1 X171.884 Y56.075 E8.11388
G1 X173.178 Y54.781 E8.14844
G1 X173.434 Y54.681 E8.15363
G1 X196.276 Y54.681 E8.58501
G1 X196.527 Y54.791 E8.59019
G1 X197.822 Y56.085 E8.62476
G1 X197.921 Y56.341 E8.62994
G1 X197.921 Y69.959 E8.88712
G1 X197.84 Y70.188 E8.89171
G1 X196.517 Y71.519 E8.92715
G1 X196.262 Y71.619 E8.93232
G1 X173.434 Y71.619 E9.36344
G1 X173.206 Y71.537 E9.36802
G1 X171.874 Y70.215 E9.40346
G1 X171.774 Y69.959 E9.40865
G1 X171.781 Y66.048 E9.48251
G1 X171.884 Y65.828 E9.4871
G1 X173.168 Y64.544 E9.52139
G1 X173.42 Y64.434 E9.52658
G1 X187.786 Y64.434 E9.79789
G1 X187.786 Y61.866 E9.84639
G1 X173.434 Y61.866 E10.11743
G1 X173.178 Y61.766 E10.12262
G1 X171.874 Y60.462 E10.15745
G1 X171.774 Y60.206 E10.16264
G1 X171.774 Y56.469 E10.23321
G1 X172.153 Y56.469 F4200
G1 F720
G1 X172.153 Y56.383 E10.23483
G1 X172.182 Y56.313 E10.23626
G1 X173.406 Y55.089 E10.26895
G1 X173.476 Y55.06 E10.27038
G1 X196.22 Y55.06 E10.69991
G1 X196.289 Y55.089 E10.70132
G1 X197.514 Y56.313 E10.73402
G1 X197.543 Y56.383 E10.73545
G1 X197.543 Y69.917 E10.99105
G1 X197.514 Y69.987 E10.99248
G1 X196.289 Y71.212 E11.0252
G1 X196.22 Y71.24 E11.02661
G1 X173.476 Y71.24 E11.45614
G1 X173.406 Y71.212 E11.45756
G1 X172.182 Y69.987 E11.49026
G1 X172.153 Y69.917 E11.49169
G1 X172.153 Y66.136 E11.5631
G1 X172.182 Y66.066 E11.56453
G1 X173.406 Y64.841 E11.59723
G1 X173.476 Y64.813 E11.59865
G1 X188.164 Y64.813 E11.87604
G1 X188.164 Y61.488 E11.93883
G1 X173.476 Y61.488 E12.21622
G1 X173.406 Y61.459 E12.21765
G1 X172.182 Y60.234 E12.25035
G1 X172.153 Y60.164 E12.25178
G1 X172.153 Y56.529 E12.32043
;WIPE_START
G1 F3360
G1 X172.153 Y56.383 E12.24613
G1 X172.182 Y56.313 E12.20757
G1 X173.406 Y55.089 E11.32662
G1 X173.476 Y55.06 E11.28806
G1 X175.377 Y55.06 E10.32043
;WIPE_END
G92 E0
G1 X178.383 Y127.816 F4200
G1 E2 F1800
G1 F720
G1 X182.425 Y127.82 E2.07633
G1 X182.799 Y127.909 E2.08359
G1 X183.315 Y128.19 E2.09469
G1 X184.742 Y129.623 E2.13288
G1 X184.944 Y129.949 E2.14012
G1 X185.119 Y130.515 E2.15131
G1 X185.398 Y130.515 E2.15658
G1 X185.572 Y129.953 E2.16769
G1 X185.746 Y129.659 E2.17414
G1 X187.202 Y128.19 E2.2132
G1 X187.827 Y127.871 E2.22645
G1 X188.136 Y127.816 E2.23238
G1 X192.164 Y127.816 E2.30845
G1 X192.73 Y127.983 E2.31959
G1 X193.086 Y128.209 E2.32755
G1 X194.488 Y129.611 E2.36499
G1 X194.788 Y130.175 E2.37705
G1 X194.863 Y130.539 E2.38407
G1 X194.863 Y153.536 E2.81838
G1 X194.696 Y154.102 E2.82952
G1 X194.47 Y154.458 E2.83748
G1 X193.068 Y155.86 E2.87492
G1 X192.504 Y156.159 E2.88698
G1 X192.14 Y156.235 E2.894
G1 X178.352 Y156.235 E3.15439
G1 X177.787 Y156.068 E3.16552
G1 X177.43 Y155.842 E3.1735
G1 X176.029 Y154.44 E3.21093
G1 X175.729 Y153.875 E3.22301
G1 X175.654 Y153.511 E3.23003
G1 X175.654 Y130.543 E3.66379
G1 X175.693 Y130.287 E3.66868
G1 X176.028 Y129.611 E3.68293
G1 X177.45 Y128.189 E3.72091
G1 X178.021 Y127.889 E3.73309
G1 X178.324 Y127.828 E3.73893
G1 X178.394 Y128.196 F4200
G1 F720
G1 X182.403 Y128.198 E3.81464
G1 X182.645 Y128.255 E3.81934
G1 X183.068 Y128.479 E3.82838
G1 X184.436 Y129.846 E3.8649
G1 X184.59 Y130.087 E3.8703
G1 X184.731 Y130.544 E3.87933
G1 X184.731 Y144.206 E4.13734
G1 X185.785 Y144.206 E4.15725
G1 X185.785 Y130.544 E4.41526
G1 X185.927 Y130.085 E4.42433
G1 X186.031 Y129.908 E4.42821
G1 X187.448 Y128.48 E4.4662
G1 X187.966 Y128.224 E4.47711
G1 X188.149 Y128.195 E4.48061
G1 X192.135 Y128.195 E4.55589
G1 X192.592 Y128.336 E4.56492
G1 X192.832 Y128.49 E4.57031
G1 X194.2 Y129.858 E4.60685
G1 X194.424 Y130.281 E4.61589
G1 X194.484 Y130.561 E4.6213
G1 X194.484 Y153.506 E5.05463
G1 X194.343 Y153.964 E5.06368
G1 X194.188 Y154.204 E5.06908
G1 X192.821 Y155.572 E5.1056
G1 X192.397 Y155.795 E5.11465
G1 X192.118 Y155.856 E5.12004
G1 X178.382 Y155.856 E5.37945
G1 X177.924 Y155.715 E5.3885
G1 X177.684 Y155.56 E5.3939
G1 X176.317 Y154.193 E5.43041
G1 X176.093 Y153.769 E5.43947
G1 X176.032 Y153.49 E5.44486
G1 X176.032 Y130.559 E5.87792
G1 X176.062 Y130.376 E5.88142
G1 X176.318 Y129.857 E5.89235
G1 X177.696 Y128.479 E5.92915
G1 X178.167 Y128.239 E5.93913
G1 X178.335 Y128.207 E5.94236
G1 X178.4 Y128.576 F4200
G1 F720
G1 X182.381 Y128.577 E6.01754
G1 X182.496 Y128.604 E6.01977
G1 X182.823 Y128.769 E6.02669
G1 X184.155 Y130.101 E6.06227
G1 X184.239 Y130.23 E6.06518
G1 X184.353 Y130.576 E6.07206
G1 X184.353 Y144.585 E6.33663
G1 X186.164 Y144.585 E6.37083
G1 X186.164 Y130.576 E6.6354
G1 X186.278 Y130.228 E6.64232
G1 X186.34 Y130.128 E6.64454
G1 X187.693 Y128.77 E6.68074
G1 X188.058 Y128.592 E6.68841
G1 X188.167 Y128.573 E6.6905
G1 X192.103 Y128.573 E6.76483
G1 X192.448 Y128.687 E6.77169
G1 X192.578 Y128.771 E6.77461
G1 X193.91 Y130.103 E6.81019
G1 X194.074 Y130.428 E6.81706
G1 X194.106 Y130.579 E6.81998
G1 X194.106 Y153.474 E7.25236
G1 X193.992 Y153.82 E7.25924
G1 X193.907 Y153.95 E7.26217
G1 X192.576 Y155.282 E7.29773
G1 X192.251 Y155.446 E7.3046
G1 X192.099 Y155.477 E7.30753
G1 X178.414 Y155.477 E7.56598
G1 X178.068 Y155.364 E7.57285
G1 X177.939 Y155.279 E7.57577
G1 X176.607 Y153.947 E7.61135
G1 X176.443 Y153.623 E7.61821
G1 X176.411 Y153.471 E7.62114
G1 X176.411 Y130.576 E8.05352
G1 X176.43 Y130.468 E8.05559
G1 X176.608 Y130.102 E8.06328
G1 X177.94 Y128.77 E8.09886
G1 X178.34 Y128.586 E8.10718
G1 X178.414 Y128.956 F4200
G1 F720
G1 X182.361 Y128.958 E8.18172
G1 X182.58 Y129.062 E8.1863
G1 X183.874 Y130.356 E8.22086
G1 X183.974 Y130.611 E8.22603
G1 X183.974 Y144.963 E8.49707
G1 X186.542 Y144.963 E8.54557
G1 X186.542 Y130.611 E8.81661
G1 X186.624 Y130.383 E8.82119
G1 X187.937 Y129.062 E8.85636
G1 X188.188 Y128.952 E8.86154
G1 X192.068 Y128.952 E8.93482
G1 X192.323 Y129.052 E8.93999
G1 X193.617 Y130.346 E8.97455
G1 X193.727 Y130.597 E8.97973
G1 X193.727 Y153.439 E9.41111
G1 X193.627 Y153.695 E9.4163
G1 X192.333 Y154.989 E9.45086
G1 X192.082 Y155.099 E9.45604
G1 X178.449 Y155.099 E9.71351
G1 X178.194 Y154.999 E9.71868
G1 X176.899 Y153.705 E9.75325
G1 X176.789 Y153.453 E9.75844
G1 X176.789 Y130.597 E10.19009
G1 X176.899 Y130.346 E10.19527
G1 X178.184 Y129.062 E10.22958
G1 X178.359 Y128.979 E10.23324
G1 X178.491 Y129.33 F4200
G1 F720
G1 X182.273 Y129.33 E10.30466
G1 X182.342 Y129.359 E10.30607
G1 X183.567 Y130.584 E10.33879
G1 X183.596 Y130.653 E10.3402
G1 X183.596 Y145.342 E10.61761
G1 X186.921 Y145.342 E10.6804
G1 X186.921 Y130.653 E10.95781
G1 X186.95 Y130.584 E10.95922
G1 X188.175 Y129.359 E10.99194
G1 X188.244 Y129.33 E10.99335
G1 X192.026 Y129.33 E11.06477
G1 X192.095 Y129.359 E11.06618
G1 X193.32 Y130.584 E11.0989
G1 X193.349 Y130.653 E11.10031
G1 X193.349 Y153.397 E11.52984
G1 X193.32 Y153.467 E11.53127
G1 X192.095 Y154.692 E11.56399
G1 X192.026 Y154.72 E11.5654
G1 X178.491 Y154.72 E11.82101
G1 X178.422 Y154.692 E11.82242
G1 X177.197 Y153.467 E11.85514
G1 X177.168 Y153.397 E11.85657
G1 X177.168 Y130.653 E12.2861
G1 X177.197 Y130.584 E12.28751
G1 X178.436 Y129.353 E12.32049
;WIPE_START
G1 F3360
G1 X182.273 Y129.33 E10.3677
G1 X182.342 Y129.359 E10.32961
G1 X182.355 Y129.372 E10.32049
;WIPE_END
G92 E0
G1 X126.315 Y129.353 F4200
G1 E2 F1800
G1 F720
G1 X126.315 Y130.545 E2.02251
G1 X126.132 Y131.148 E2.03441
G1 X125.977 Y131.4 E2.04
G1 X125.594 Y131.791 E2.05034
G1 X125.977 Y132.183 E2.06069
G1 X126.132 Y132.435 E2.06628
G1 X126.315 Y133.037 E2.07816
G1 X126.315 Y138.046 E2.17276
G1 X126.148 Y138.613 E2.18392
G1 X125.973 Y138.905 E2.19035
G1 X124.436 Y140.433 E2.23128
G1 X124.181 Y140.579 E2.23683
G1 X123.616 Y140.745 E2.24795
G1 X111.859 Y140.745 E2.46999
G1 X111.427 Y141.135 E2.48098
G1 X111.057 Y141.31 E2.48871
G1 X110.659 Y141.396 E2.4964
G1 X102.82 Y141.396 E2.64444
G1 X102.253 Y141.229 E2.6556
G1 X101.962 Y141.054 E2.66201
G1 X100.433 Y139.517 E2.70295
G1 X100.288 Y139.262 E2.70849
G1 X100.121 Y138.697 E2.71962
G1 X100.13 Y133.679 E2.81439
G1 X100.215 Y133.347 E2.82086
G1 X100.463 Y132.877 E2.8309
G1 X101.536 Y131.792 E2.85972
G1 X100.461 Y130.702 E2.88863
G1 X100.194 Y130.178 E2.89974
G1 X100.128 Y129.886 E2.90539
G1 X100.121 Y124.885 E2.99984
G1 X100.362 Y124.171 E3.01407
G1 X100.516 Y123.962 E3.01897
G1 X101.898 Y122.579 E3.05589
G1 X102.241 Y122.358 E3.0636
G1 X102.626 Y122.22 E3.07132
G1 X110.787 Y122.201 E3.22544
G1 X111.058 Y122.273 E3.23074
G1 X111.427 Y122.448 E3.23845
G1 X111.859 Y122.838 E3.24944
G1 X123.734 Y122.857 E3.4737
G1 X124.185 Y123.005 E3.48266
G1 X124.507 Y123.206 E3.48983
G1 X126.003 Y124.717 E3.52999
G1 X126.149 Y124.972 E3.53554
G1 X126.315 Y125.537 E3.54666
G1 X126.315 Y129.293 E3.61759
G1 X125.936 Y129.293 F4200
G1 F720
G1 X125.936 Y130.517 E3.64071
G1 X125.794 Y130.975 E3.64977
G1 X125.69 Y131.153 E3.65366
G1 X125.064 Y131.791 E3.67054
G1 X125.69 Y132.43 E3.68743
G1 X125.794 Y132.607 E3.69131
G1 X125.936 Y133.066 E3.70038
G1 X125.936 Y138.017 E3.79388
G1 X125.794 Y138.476 E3.80295
G1 X125.664 Y138.685 E3.8076
G1 X124.222 Y140.12 E3.84602
G1 X124.045 Y140.225 E3.84991
G1 X123.586 Y140.366 E3.85898
G1 X111.708 Y140.366 E4.0833
G1 X111.237 Y140.806 E4.09547
G1 X110.915 Y140.958 E4.10219
G1 X110.639 Y141.017 E4.10752
G1 X102.85 Y141.017 E4.25462
G1 X102.391 Y140.876 E4.26369
G1 X102.181 Y140.745 E4.26836
G1 X100.746 Y139.303 E4.30678
G1 X100.642 Y139.127 E4.31064
G1 X100.5 Y138.668 E4.31971
G1 X100.509 Y133.703 E4.41348
G1 X100.56 Y133.505 E4.41734
G1 X100.784 Y133.08 E4.42641
G1 X102.073 Y131.791 E4.46084
G1 X100.784 Y130.503 E4.49525
G1 X100.544 Y130.031 E4.50525
G1 X100.503 Y129.831 E4.50911
G1 X100.5 Y124.916 E4.60193
G1 X100.686 Y124.369 E4.61284
G1 X100.794 Y124.219 E4.61633
G1 X102.152 Y122.861 E4.6526
G1 X102.389 Y122.707 E4.65794
G1 X102.723 Y122.588 E4.66464
G1 X110.718 Y122.574 E4.81563
G1 X110.914 Y122.624 E4.81945
G1 X111.237 Y122.777 E4.8262
